<?xml version="1.0" encoding="UTF-8"?>
<map version="1.10" tiledversion="1.12.1" orientation="orthogonal" renderorder="right-down" width="48" height="48" tilewidth="16" tileheight="16" infinite="0" nextlayerid="36" nextobjectid="226">
 <editorsettings>
  <export target="Dungeon1.tmx" format="tmx"/>
 </editorsettings>
 <tileset firstgid="1" name="cracked_tiles" tilewidth="16" tileheight="16" tilecount="256" columns="8">
  <image source="decorative_cracks_walls.png" width="128" height="512"/>
 </tileset>
 <tileset firstgid="257" name="cracked_tiles_floor" tilewidth="16" tileheight="16" tilecount="120" columns="8">
  <image source="decorative_cracks_floor.png" width="128" height="240"/>
 </tileset>
 <tileset firstgid="377" name="walls_floor" tilewidth="16" tileheight="16" tilecount="493" columns="17">
  <image source="walls_floor.png" width="272" height="464"/>
 </tileset>
 <tileset firstgid="870" name="Water_coasts_animation" tilewidth="16" tileheight="16" tilecount="928" columns="29">
  <image source="Water_coasts_animation.png" width="464" height="512"/>
  <tile id="30">
   <animation>
    <frame tileid="30" duration="150"/>
    <frame tileid="44" duration="150"/>
    <frame tileid="320" duration="150"/>
    <frame tileid="334" duration="150"/>
    <frame tileid="610" duration="150"/>
    <frame tileid="624" duration="150"/>
   </animation>
  </tile>
  <tile id="32">
   <animation>
    <frame tileid="32" duration="150"/>
    <frame tileid="46" duration="150"/>
    <frame tileid="322" duration="150"/>
    <frame tileid="336" duration="150"/>
    <frame tileid="612" duration="150"/>
    <frame tileid="626" duration="150"/>
   </animation>
  </tile>
  <tile id="59">
   <animation>
    <frame tileid="59" duration="150"/>
    <frame tileid="73" duration="150"/>
    <frame tileid="349" duration="150"/>
    <frame tileid="363" duration="150"/>
    <frame tileid="639" duration="150"/>
    <frame tileid="653" duration="150"/>
   </animation>
  </tile>
  <tile id="61">
   <animation>
    <frame tileid="61" duration="150"/>
    <frame tileid="75" duration="150"/>
    <frame tileid="351" duration="150"/>
    <frame tileid="365" duration="150"/>
    <frame tileid="641" duration="150"/>
    <frame tileid="655" duration="150"/>
   </animation>
  </tile>
  <tile id="66">
   <animation>
    <frame tileid="66" duration="150"/>
    <frame tileid="80" duration="150"/>
    <frame tileid="356" duration="150"/>
    <frame tileid="370" duration="150"/>
    <frame tileid="646" duration="150"/>
    <frame tileid="660" duration="150"/>
   </animation>
  </tile>
  <tile id="67">
   <animation>
    <frame tileid="67" duration="150"/>
    <frame tileid="81" duration="150"/>
    <frame tileid="357" duration="150"/>
    <frame tileid="371" duration="150"/>
    <frame tileid="647" duration="150"/>
    <frame tileid="661" duration="150"/>
   </animation>
  </tile>
  <tile id="68">
   <animation>
    <frame tileid="68" duration="150"/>
    <frame tileid="82" duration="150"/>
    <frame tileid="358" duration="150"/>
    <frame tileid="372" duration="150"/>
    <frame tileid="648" duration="150"/>
    <frame tileid="662" duration="150"/>
   </animation>
  </tile>
  <tile id="70">
   <animation>
    <frame tileid="70" duration="150"/>
    <frame tileid="84" duration="150"/>
    <frame tileid="360" duration="150"/>
    <frame tileid="374" duration="150"/>
    <frame tileid="650" duration="150"/>
    <frame tileid="664" duration="150"/>
   </animation>
  </tile>
  <tile id="71">
   <animation>
    <frame tileid="71" duration="150"/>
    <frame tileid="85" duration="150"/>
    <frame tileid="361" duration="150"/>
    <frame tileid="375" duration="150"/>
    <frame tileid="651" duration="150"/>
    <frame tileid="665" duration="150"/>
   </animation>
  </tile>
  <tile id="88">
   <animation>
    <frame tileid="88" duration="150"/>
    <frame tileid="102" duration="150"/>
    <frame tileid="378" duration="150"/>
    <frame tileid="392" duration="150"/>
    <frame tileid="668" duration="150"/>
    <frame tileid="682" duration="150"/>
   </animation>
  </tile>
  <tile id="90">
   <animation>
    <frame tileid="90" duration="150"/>
    <frame tileid="104" duration="150"/>
    <frame tileid="380" duration="150"/>
    <frame tileid="394" duration="150"/>
    <frame tileid="670" duration="150"/>
    <frame tileid="684" duration="150"/>
   </animation>
  </tile>
  <tile id="92">
   <animation>
    <frame tileid="92" duration="150"/>
    <frame tileid="106" duration="150"/>
    <frame tileid="382" duration="150"/>
    <frame tileid="396" duration="150"/>
    <frame tileid="672" duration="150"/>
    <frame tileid="686" duration="150"/>
   </animation>
  </tile>
  <tile id="93">
   <animation>
    <frame tileid="93" duration="150"/>
    <frame tileid="107" duration="150"/>
    <frame tileid="383" duration="150"/>
    <frame tileid="397" duration="150"/>
    <frame tileid="673" duration="150"/>
    <frame tileid="687" duration="150"/>
   </animation>
  </tile>
  <tile id="94">
   <animation>
    <frame tileid="94" duration="150"/>
    <frame tileid="108" duration="150"/>
    <frame tileid="384" duration="150"/>
    <frame tileid="398" duration="150"/>
    <frame tileid="674" duration="150"/>
    <frame tileid="688" duration="150"/>
   </animation>
  </tile>
  <tile id="95">
   <animation>
    <frame tileid="95" duration="150"/>
    <frame tileid="109" duration="150"/>
    <frame tileid="385" duration="150"/>
    <frame tileid="399" duration="150"/>
    <frame tileid="675" duration="150"/>
    <frame tileid="689" duration="150"/>
   </animation>
  </tile>
  <tile id="97">
   <animation>
    <frame tileid="97" duration="150"/>
    <frame tileid="111" duration="150"/>
    <frame tileid="387" duration="150"/>
    <frame tileid="401" duration="150"/>
    <frame tileid="677" duration="150"/>
    <frame tileid="691" duration="150"/>
   </animation>
  </tile>
  <tile id="117">
   <animation>
    <frame tileid="117" duration="150"/>
    <frame tileid="131" duration="150"/>
    <frame tileid="407" duration="150"/>
    <frame tileid="421" duration="150"/>
    <frame tileid="697" duration="150"/>
    <frame tileid="711" duration="150"/>
   </animation>
  </tile>
  <tile id="119">
   <animation>
    <frame tileid="119" duration="150"/>
    <frame tileid="133" duration="150"/>
    <frame tileid="409" duration="150"/>
    <frame tileid="423" duration="150"/>
    <frame tileid="699" duration="150"/>
    <frame tileid="713" duration="150"/>
   </animation>
  </tile>
  <tile id="121">
   <animation>
    <frame tileid="121" duration="150"/>
    <frame tileid="135" duration="150"/>
    <frame tileid="411" duration="150"/>
    <frame tileid="425" duration="150"/>
    <frame tileid="701" duration="150"/>
    <frame tileid="715" duration="150"/>
   </animation>
  </tile>
  <tile id="123">
   <animation>
    <frame tileid="123" duration="150"/>
    <frame tileid="137" duration="150"/>
    <frame tileid="413" duration="150"/>
    <frame tileid="427" duration="150"/>
    <frame tileid="703" duration="150"/>
    <frame tileid="717" duration="150"/>
   </animation>
  </tile>
  <tile id="124">
   <animation>
    <frame tileid="124" duration="150"/>
    <frame tileid="135" duration="150"/>
    <frame tileid="414" duration="150"/>
    <frame tileid="425" duration="150"/>
    <frame tileid="704" duration="150"/>
    <frame tileid="715" duration="150"/>
   </animation>
  </tile>
  <tile id="126">
   <animation>
    <frame tileid="126" duration="150"/>
    <frame tileid="140" duration="150"/>
    <frame tileid="416" duration="150"/>
    <frame tileid="430" duration="150"/>
    <frame tileid="706" duration="150"/>
    <frame tileid="720" duration="150"/>
   </animation>
  </tile>
  <tile id="146">
   <animation>
    <frame tileid="146" duration="150"/>
    <frame tileid="160" duration="150"/>
    <frame tileid="436" duration="150"/>
    <frame tileid="450" duration="150"/>
    <frame tileid="726" duration="150"/>
    <frame tileid="740" duration="150"/>
   </animation>
  </tile>
  <tile id="147">
   <animation>
    <frame tileid="147" duration="150"/>
    <frame tileid="161" duration="150"/>
    <frame tileid="437" duration="150"/>
    <frame tileid="451" duration="150"/>
    <frame tileid="727" duration="150"/>
    <frame tileid="741" duration="150"/>
   </animation>
  </tile>
  <tile id="148">
   <animation>
    <frame tileid="148" duration="150"/>
    <frame tileid="162" duration="150"/>
    <frame tileid="438" duration="150"/>
    <frame tileid="452" duration="150"/>
    <frame tileid="728" duration="150"/>
    <frame tileid="742" duration="150"/>
   </animation>
  </tile>
  <tile id="153">
   <animation>
    <frame tileid="153" duration="150"/>
    <frame tileid="167" duration="150"/>
    <frame tileid="443" duration="150"/>
    <frame tileid="457" duration="150"/>
    <frame tileid="733" duration="150"/>
    <frame tileid="747" duration="150"/>
   </animation>
  </tile>
  <tile id="154">
   <animation>
    <frame tileid="154" duration="150"/>
    <frame tileid="168" duration="150"/>
    <frame tileid="444" duration="150"/>
    <frame tileid="458" duration="150"/>
    <frame tileid="734" duration="150"/>
    <frame tileid="748" duration="150"/>
   </animation>
  </tile>
  <tile id="155">
   <animation>
    <frame tileid="155" duration="150"/>
    <frame tileid="169" duration="150"/>
    <frame tileid="445" duration="150"/>
    <frame tileid="459" duration="150"/>
    <frame tileid="735" duration="150"/>
    <frame tileid="749" duration="150"/>
   </animation>
  </tile>
  <tile id="157">
   <animation>
    <frame tileid="157" duration="150"/>
    <frame tileid="171" duration="150"/>
    <frame tileid="447" duration="150"/>
    <frame tileid="461" duration="150"/>
    <frame tileid="737" duration="150"/>
    <frame tileid="751" duration="150"/>
   </animation>
  </tile>
  <tile id="158">
   <animation>
    <frame tileid="158" duration="150"/>
    <frame tileid="172" duration="150"/>
    <frame tileid="448" duration="150"/>
    <frame tileid="462" duration="150"/>
    <frame tileid="738" duration="150"/>
    <frame tileid="752" duration="150"/>
   </animation>
  </tile>
  <tile id="175">
   <animation>
    <frame tileid="175" duration="150"/>
    <frame tileid="189" duration="150"/>
    <frame tileid="465" duration="150"/>
    <frame tileid="479" duration="150"/>
    <frame tileid="755" duration="150"/>
    <frame tileid="769" duration="150"/>
   </animation>
  </tile>
  <tile id="177">
   <animation>
    <frame tileid="177" duration="150"/>
    <frame tileid="191" duration="150"/>
    <frame tileid="467" duration="150"/>
    <frame tileid="481" duration="150"/>
    <frame tileid="757" duration="150"/>
    <frame tileid="771" duration="150"/>
   </animation>
  </tile>
  <tile id="179">
   <animation>
    <frame tileid="179" duration="150"/>
    <frame tileid="193" duration="150"/>
    <frame tileid="469" duration="150"/>
    <frame tileid="483" duration="150"/>
    <frame tileid="759" duration="150"/>
    <frame tileid="773" duration="150"/>
   </animation>
  </tile>
  <tile id="180">
   <animation>
    <frame tileid="180" duration="150"/>
    <frame tileid="194" duration="150"/>
    <frame tileid="470" duration="150"/>
    <frame tileid="484" duration="150"/>
    <frame tileid="673" duration="150"/>
    <frame tileid="774" duration="150"/>
   </animation>
  </tile>
  <tile id="181">
   <animation>
    <frame tileid="181" duration="150"/>
    <frame tileid="195" duration="150"/>
    <frame tileid="471" duration="150"/>
    <frame tileid="485" duration="150"/>
    <frame tileid="761" duration="150"/>
    <frame tileid="775" duration="150"/>
   </animation>
  </tile>
  <tile id="182">
   <animation>
    <frame tileid="182" duration="150"/>
    <frame tileid="196" duration="150"/>
    <frame tileid="472" duration="150"/>
    <frame tileid="486" duration="150"/>
    <frame tileid="762" duration="150"/>
    <frame tileid="776" duration="150"/>
   </animation>
  </tile>
  <tile id="183">
   <animation>
    <frame tileid="183" duration="150"/>
    <frame tileid="197" duration="150"/>
    <frame tileid="473" duration="150"/>
    <frame tileid="487" duration="150"/>
    <frame tileid="763" duration="150"/>
    <frame tileid="777" duration="150"/>
   </animation>
  </tile>
  <tile id="184">
   <animation>
    <frame tileid="184" duration="150"/>
    <frame tileid="198" duration="150"/>
    <frame tileid="474" duration="150"/>
    <frame tileid="488" duration="150"/>
    <frame tileid="764" duration="150"/>
    <frame tileid="778" duration="150"/>
   </animation>
  </tile>
  <tile id="204">
   <animation>
    <frame tileid="204" duration="150"/>
    <frame tileid="218" duration="150"/>
    <frame tileid="494" duration="150"/>
    <frame tileid="508" duration="150"/>
    <frame tileid="784" duration="150"/>
    <frame tileid="798" duration="150"/>
   </animation>
  </tile>
  <tile id="206">
   <animation>
    <frame tileid="206" duration="150"/>
    <frame tileid="220" duration="150"/>
    <frame tileid="496" duration="150"/>
    <frame tileid="510" duration="150"/>
    <frame tileid="786" duration="150"/>
    <frame tileid="800" duration="150"/>
   </animation>
  </tile>
  <tile id="208">
   <animation>
    <frame tileid="208" duration="150"/>
    <frame tileid="222" duration="150"/>
    <frame tileid="498" duration="150"/>
    <frame tileid="512" duration="150"/>
    <frame tileid="788" duration="150"/>
    <frame tileid="802" duration="150"/>
   </animation>
  </tile>
  <tile id="210">
   <animation>
    <frame tileid="210" duration="150"/>
    <frame tileid="224" duration="150"/>
    <frame tileid="500" duration="150"/>
    <frame tileid="514" duration="150"/>
    <frame tileid="790" duration="150"/>
    <frame tileid="804" duration="150"/>
   </animation>
  </tile>
  <tile id="211">
   <animation>
    <frame tileid="211" duration="150"/>
    <frame tileid="225" duration="150"/>
    <frame tileid="501" duration="150"/>
    <frame tileid="515" duration="150"/>
    <frame tileid="791" duration="150"/>
    <frame tileid="805" duration="150"/>
   </animation>
  </tile>
  <tile id="213">
   <animation>
    <frame tileid="213" duration="150"/>
    <frame tileid="227" duration="150"/>
    <frame tileid="503" duration="150"/>
    <frame tileid="517" duration="150"/>
    <frame tileid="793" duration="150"/>
    <frame tileid="807" duration="150"/>
   </animation>
  </tile>
  <tile id="233">
   <animation>
    <frame tileid="233" duration="150"/>
    <frame tileid="247" duration="150"/>
    <frame tileid="523" duration="150"/>
    <frame tileid="537" duration="150"/>
    <frame tileid="813" duration="150"/>
    <frame tileid="827" duration="150"/>
   </animation>
  </tile>
  <tile id="235">
   <animation>
    <frame tileid="235" duration="150"/>
    <frame tileid="249" duration="150"/>
    <frame tileid="525" duration="150"/>
    <frame tileid="539" duration="150"/>
    <frame tileid="815" duration="150"/>
    <frame tileid="829" duration="150"/>
   </animation>
  </tile>
  <tile id="237">
   <animation>
    <frame tileid="237" duration="150"/>
    <frame tileid="251" duration="150"/>
    <frame tileid="527" duration="150"/>
    <frame tileid="541" duration="150"/>
    <frame tileid="817" duration="150"/>
    <frame tileid="831" duration="150"/>
   </animation>
  </tile>
  <tile id="239">
   <animation>
    <frame tileid="239" duration="150"/>
    <frame tileid="253" duration="150"/>
    <frame tileid="529" duration="150"/>
    <frame tileid="543" duration="150"/>
    <frame tileid="819" duration="150"/>
    <frame tileid="833" duration="150"/>
   </animation>
  </tile>
  <tile id="240">
   <animation>
    <frame tileid="240" duration="150"/>
    <frame tileid="254" duration="150"/>
    <frame tileid="530" duration="150"/>
    <frame tileid="544" duration="150"/>
    <frame tileid="820" duration="150"/>
    <frame tileid="834" duration="150"/>
   </animation>
  </tile>
  <tile id="242">
   <animation>
    <frame tileid="242" duration="150"/>
    <frame tileid="256" duration="150"/>
    <frame tileid="532" duration="150"/>
    <frame tileid="546" duration="150"/>
    <frame tileid="822" duration="150"/>
    <frame tileid="836" duration="150"/>
   </animation>
  </tile>
  <tile id="244">
   <animation>
    <frame tileid="244" duration="150"/>
    <frame tileid="258" duration="150"/>
    <frame tileid="534" duration="150"/>
    <frame tileid="548" duration="150"/>
    <frame tileid="824" duration="150"/>
    <frame tileid="838" duration="150"/>
   </animation>
  </tile>
  <tile id="245">
   <animation>
    <frame tileid="245" duration="150"/>
    <frame tileid="259" duration="150"/>
    <frame tileid="535" duration="150"/>
    <frame tileid="549" duration="150"/>
    <frame tileid="825" duration="150"/>
    <frame tileid="839" duration="150"/>
   </animation>
  </tile>
  <tile id="262">
   <animation>
    <frame tileid="262" duration="150"/>
    <frame tileid="276" duration="150"/>
    <frame tileid="552" duration="150"/>
    <frame tileid="566" duration="150"/>
    <frame tileid="842" duration="150"/>
    <frame tileid="856" duration="150"/>
   </animation>
  </tile>
  <tile id="263">
   <animation>
    <frame tileid="263" duration="150"/>
    <frame tileid="277" duration="150"/>
    <frame tileid="553" duration="150"/>
    <frame tileid="567" duration="150"/>
    <frame tileid="727" duration="150"/>
    <frame tileid="741" duration="150"/>
   </animation>
  </tile>
  <tile id="264">
   <animation>
    <frame tileid="264" duration="150"/>
    <frame tileid="278" duration="150"/>
    <frame tileid="554" duration="150"/>
    <frame tileid="568" duration="150"/>
    <frame tileid="844" duration="150"/>
    <frame tileid="858" duration="150"/>
   </animation>
  </tile>
  <tile id="273">
   <animation>
    <frame tileid="273" duration="150"/>
    <frame tileid="287" duration="150"/>
    <frame tileid="563" duration="150"/>
    <frame tileid="577" duration="150"/>
    <frame tileid="853" duration="150"/>
    <frame tileid="867" duration="150"/>
   </animation>
  </tile>
  <tile id="274">
   <animation>
    <frame tileid="274" duration="150"/>
    <frame tileid="288" duration="150"/>
    <frame tileid="564" duration="150"/>
    <frame tileid="578" duration="150"/>
    <frame tileid="854" duration="150"/>
    <frame tileid="868" duration="150"/>
   </animation>
  </tile>
 </tileset>
 <tileset firstgid="1798" name="Water_detilazation" tilewidth="16" tileheight="16" tilecount="2886" columns="37">
  <image source="water_details_animation.png" width="592" height="1248"/>
  <tile id="40">
   <animation>
    <frame tileid="40" duration="150"/>
    <frame tileid="521" duration="150"/>
    <frame tileid="1002" duration="150"/>
    <frame tileid="1483" duration="150"/>
    <frame tileid="1964" duration="150"/>
    <frame tileid="2445" duration="150"/>
   </animation>
  </tile>
  <tile id="41">
   <animation>
    <frame tileid="41" duration="150"/>
    <frame tileid="522" duration="150"/>
    <frame tileid="1003" duration="150"/>
    <frame tileid="1484" duration="150"/>
    <frame tileid="1965" duration="150"/>
    <frame tileid="2446" duration="150"/>
   </animation>
  </tile>
  <tile id="42">
   <animation>
    <frame tileid="42" duration="150"/>
    <frame tileid="523" duration="150"/>
    <frame tileid="1004" duration="150"/>
    <frame tileid="1485" duration="150"/>
    <frame tileid="1966" duration="150"/>
    <frame tileid="2447" duration="150"/>
   </animation>
  </tile>
  <tile id="43">
   <animation>
    <frame tileid="43" duration="150"/>
    <frame tileid="524" duration="150"/>
    <frame tileid="1005" duration="150"/>
    <frame tileid="1486" duration="150"/>
    <frame tileid="1967" duration="150"/>
    <frame tileid="2448" duration="150"/>
   </animation>
  </tile>
  <tile id="44">
   <animation>
    <frame tileid="44" duration="150"/>
    <frame tileid="525" duration="150"/>
    <frame tileid="1006" duration="150"/>
    <frame tileid="1487" duration="150"/>
    <frame tileid="1968" duration="150"/>
    <frame tileid="2449" duration="150"/>
   </animation>
  </tile>
  <tile id="45">
   <animation>
    <frame tileid="45" duration="150"/>
    <frame tileid="526" duration="150"/>
    <frame tileid="1007" duration="150"/>
    <frame tileid="1488" duration="150"/>
    <frame tileid="1969" duration="150"/>
    <frame tileid="2450" duration="150"/>
   </animation>
  </tile>
  <tile id="46">
   <animation>
    <frame tileid="46" duration="150"/>
    <frame tileid="527" duration="150"/>
    <frame tileid="1008" duration="150"/>
    <frame tileid="1489" duration="150"/>
    <frame tileid="1970" duration="150"/>
    <frame tileid="2451" duration="150"/>
   </animation>
  </tile>
  <tile id="47">
   <animation>
    <frame tileid="47" duration="150"/>
    <frame tileid="528" duration="150"/>
    <frame tileid="1009" duration="150"/>
    <frame tileid="1490" duration="150"/>
    <frame tileid="1971" duration="150"/>
    <frame tileid="2452" duration="150"/>
   </animation>
  </tile>
  <tile id="48">
   <animation>
    <frame tileid="48" duration="150"/>
    <frame tileid="529" duration="150"/>
    <frame tileid="1010" duration="150"/>
    <frame tileid="1491" duration="150"/>
    <frame tileid="1972" duration="150"/>
    <frame tileid="2453" duration="150"/>
   </animation>
  </tile>
  <tile id="49">
   <animation>
    <frame tileid="49" duration="150"/>
    <frame tileid="530" duration="150"/>
    <frame tileid="1011" duration="150"/>
    <frame tileid="1492" duration="150"/>
    <frame tileid="1973" duration="150"/>
    <frame tileid="2454" duration="150"/>
   </animation>
  </tile>
  <tile id="50">
   <animation>
    <frame tileid="50" duration="150"/>
    <frame tileid="531" duration="150"/>
    <frame tileid="1012" duration="150"/>
    <frame tileid="1493" duration="150"/>
    <frame tileid="1974" duration="150"/>
    <frame tileid="2455" duration="150"/>
   </animation>
  </tile>
  <tile id="51">
   <animation>
    <frame tileid="51" duration="150"/>
    <frame tileid="532" duration="150"/>
    <frame tileid="1013" duration="150"/>
    <frame tileid="1494" duration="150"/>
    <frame tileid="1975" duration="150"/>
    <frame tileid="2456" duration="150"/>
   </animation>
  </tile>
  <tile id="52">
   <animation>
    <frame tileid="52" duration="150"/>
    <frame tileid="533" duration="150"/>
    <frame tileid="1014" duration="150"/>
    <frame tileid="1495" duration="150"/>
    <frame tileid="1976" duration="150"/>
    <frame tileid="2457" duration="150"/>
   </animation>
  </tile>
  <tile id="53">
   <animation>
    <frame tileid="53" duration="150"/>
    <frame tileid="534" duration="150"/>
    <frame tileid="1015" duration="150"/>
    <frame tileid="1496" duration="150"/>
    <frame tileid="1977" duration="150"/>
    <frame tileid="2458" duration="150"/>
   </animation>
  </tile>
  <tile id="56">
   <animation>
    <frame tileid="56" duration="150"/>
    <frame tileid="537" duration="150"/>
    <frame tileid="1018" duration="150"/>
    <frame tileid="1499" duration="150"/>
    <frame tileid="1980" duration="150"/>
    <frame tileid="2461" duration="150"/>
   </animation>
  </tile>
  <tile id="57">
   <animation>
    <frame tileid="57" duration="150"/>
    <frame tileid="538" duration="150"/>
    <frame tileid="1019" duration="150"/>
    <frame tileid="1500" duration="150"/>
    <frame tileid="1981" duration="150"/>
    <frame tileid="2462" duration="150"/>
   </animation>
  </tile>
  <tile id="58">
   <animation>
    <frame tileid="58" duration="150"/>
    <frame tileid="539" duration="150"/>
    <frame tileid="1020" duration="150"/>
    <frame tileid="1501" duration="150"/>
    <frame tileid="1982" duration="150"/>
    <frame tileid="2463" duration="150"/>
   </animation>
  </tile>
  <tile id="59">
   <animation>
    <frame tileid="59" duration="150"/>
    <frame tileid="540" duration="150"/>
    <frame tileid="1021" duration="150"/>
    <frame tileid="1502" duration="150"/>
    <frame tileid="1983" duration="150"/>
    <frame tileid="2464" duration="150"/>
   </animation>
  </tile>
  <tile id="60">
   <animation>
    <frame tileid="60" duration="150"/>
    <frame tileid="541" duration="150"/>
    <frame tileid="1022" duration="150"/>
    <frame tileid="1503" duration="150"/>
    <frame tileid="1984" duration="150"/>
    <frame tileid="2465" duration="150"/>
   </animation>
  </tile>
  <tile id="61">
   <animation>
    <frame tileid="61" duration="150"/>
    <frame tileid="542" duration="150"/>
    <frame tileid="1023" duration="150"/>
    <frame tileid="1504" duration="150"/>
    <frame tileid="1985" duration="150"/>
    <frame tileid="2466" duration="150"/>
   </animation>
  </tile>
  <tile id="62">
   <animation>
    <frame tileid="62" duration="150"/>
    <frame tileid="543" duration="150"/>
    <frame tileid="1024" duration="150"/>
    <frame tileid="1505" duration="150"/>
    <frame tileid="1986" duration="150"/>
    <frame tileid="2467" duration="150"/>
   </animation>
  </tile>
  <tile id="63">
   <animation>
    <frame tileid="63" duration="150"/>
    <frame tileid="544" duration="150"/>
    <frame tileid="1025" duration="150"/>
    <frame tileid="1506" duration="150"/>
    <frame tileid="1987" duration="150"/>
    <frame tileid="2468" duration="150"/>
   </animation>
  </tile>
  <tile id="74">
   <animation>
    <frame tileid="74" duration="150"/>
    <frame tileid="555" duration="150"/>
    <frame tileid="1036" duration="150"/>
    <frame tileid="1517" duration="150"/>
    <frame tileid="1998" duration="150"/>
    <frame tileid="2479" duration="150"/>
   </animation>
  </tile>
  <tile id="75">
   <animation>
    <frame tileid="75" duration="150"/>
    <frame tileid="556" duration="150"/>
    <frame tileid="1037" duration="150"/>
    <frame tileid="1518" duration="150"/>
    <frame tileid="1999" duration="150"/>
    <frame tileid="2480" duration="150"/>
   </animation>
  </tile>
  <tile id="76">
   <animation>
    <frame tileid="76" duration="150"/>
    <frame tileid="557" duration="150"/>
    <frame tileid="1038" duration="150"/>
    <frame tileid="1519" duration="150"/>
    <frame tileid="2000" duration="150"/>
    <frame tileid="2481" duration="150"/>
   </animation>
  </tile>
  <tile id="77">
   <animation>
    <frame tileid="77" duration="150"/>
    <frame tileid="558" duration="150"/>
    <frame tileid="1039" duration="150"/>
    <frame tileid="1520" duration="150"/>
    <frame tileid="2001" duration="150"/>
    <frame tileid="2482" duration="150"/>
   </animation>
  </tile>
  <tile id="78">
   <animation>
    <frame tileid="78" duration="150"/>
    <frame tileid="559" duration="150"/>
    <frame tileid="1040" duration="150"/>
    <frame tileid="1521" duration="150"/>
    <frame tileid="2002" duration="150"/>
    <frame tileid="2483" duration="150"/>
   </animation>
  </tile>
  <tile id="79">
   <animation>
    <frame tileid="79" duration="150"/>
    <frame tileid="560" duration="150"/>
    <frame tileid="1041" duration="150"/>
    <frame tileid="1522" duration="150"/>
    <frame tileid="2003" duration="150"/>
    <frame tileid="2484" duration="150"/>
   </animation>
  </tile>
  <tile id="80">
   <animation>
    <frame tileid="80" duration="150"/>
    <frame tileid="561" duration="150"/>
    <frame tileid="1042" duration="150"/>
    <frame tileid="1523" duration="150"/>
    <frame tileid="2004" duration="150"/>
    <frame tileid="2485" duration="150"/>
   </animation>
  </tile>
  <tile id="81">
   <animation>
    <frame tileid="81" duration="150"/>
    <frame tileid="562" duration="150"/>
    <frame tileid="1043" duration="150"/>
    <frame tileid="1524" duration="150"/>
    <frame tileid="2005" duration="150"/>
    <frame tileid="2486" duration="150"/>
   </animation>
  </tile>
  <tile id="82">
   <animation>
    <frame tileid="82" duration="150"/>
    <frame tileid="563" duration="150"/>
    <frame tileid="1044" duration="150"/>
    <frame tileid="1525" duration="150"/>
    <frame tileid="2006" duration="150"/>
    <frame tileid="2487" duration="150"/>
   </animation>
  </tile>
  <tile id="83">
   <animation>
    <frame tileid="83" duration="150"/>
    <frame tileid="564" duration="150"/>
    <frame tileid="1045" duration="150"/>
    <frame tileid="1526" duration="150"/>
    <frame tileid="2007" duration="150"/>
    <frame tileid="2488" duration="150"/>
   </animation>
  </tile>
  <tile id="84">
   <animation>
    <frame tileid="84" duration="150"/>
    <frame tileid="565" duration="150"/>
    <frame tileid="1046" duration="150"/>
    <frame tileid="1527" duration="150"/>
    <frame tileid="2008" duration="150"/>
    <frame tileid="2489" duration="150"/>
   </animation>
  </tile>
  <tile id="85">
   <animation>
    <frame tileid="85" duration="150"/>
    <frame tileid="566" duration="150"/>
    <frame tileid="1047" duration="150"/>
    <frame tileid="1528" duration="150"/>
    <frame tileid="2009" duration="150"/>
    <frame tileid="2490" duration="150"/>
   </animation>
  </tile>
  <tile id="86">
   <animation>
    <frame tileid="86" duration="150"/>
    <frame tileid="567" duration="150"/>
    <frame tileid="1048" duration="150"/>
    <frame tileid="1529" duration="150"/>
    <frame tileid="2010" duration="150"/>
    <frame tileid="2491" duration="150"/>
   </animation>
  </tile>
  <tile id="87">
   <animation>
    <frame tileid="87" duration="150"/>
    <frame tileid="568" duration="150"/>
    <frame tileid="1049" duration="150"/>
    <frame tileid="1530" duration="150"/>
    <frame tileid="2011" duration="150"/>
    <frame tileid="2492" duration="150"/>
   </animation>
  </tile>
  <tile id="88">
   <animation>
    <frame tileid="88" duration="150"/>
    <frame tileid="569" duration="150"/>
    <frame tileid="1050" duration="150"/>
    <frame tileid="1531" duration="150"/>
    <frame tileid="2012" duration="150"/>
    <frame tileid="2493" duration="150"/>
   </animation>
  </tile>
  <tile id="89">
   <animation>
    <frame tileid="89" duration="150"/>
    <frame tileid="570" duration="150"/>
    <frame tileid="1051" duration="150"/>
    <frame tileid="1532" duration="150"/>
    <frame tileid="2013" duration="150"/>
    <frame tileid="2494" duration="150"/>
   </animation>
  </tile>
  <tile id="90">
   <animation>
    <frame tileid="90" duration="150"/>
    <frame tileid="571" duration="150"/>
    <frame tileid="1052" duration="150"/>
    <frame tileid="1533" duration="150"/>
    <frame tileid="2014" duration="150"/>
    <frame tileid="2495" duration="150"/>
   </animation>
  </tile>
  <tile id="92">
   <animation>
    <frame tileid="92" duration="150"/>
    <frame tileid="573" duration="150"/>
    <frame tileid="1054" duration="150"/>
    <frame tileid="1535" duration="150"/>
    <frame tileid="2016" duration="150"/>
    <frame tileid="2497" duration="150"/>
   </animation>
  </tile>
  <tile id="93">
   <animation>
    <frame tileid="93" duration="150"/>
    <frame tileid="574" duration="150"/>
    <frame tileid="1055" duration="150"/>
    <frame tileid="1536" duration="150"/>
    <frame tileid="2017" duration="150"/>
    <frame tileid="2498" duration="150"/>
   </animation>
  </tile>
  <tile id="94">
   <animation>
    <frame tileid="94" duration="150"/>
    <frame tileid="575" duration="150"/>
    <frame tileid="1056" duration="150"/>
    <frame tileid="1537" duration="150"/>
    <frame tileid="2018" duration="150"/>
    <frame tileid="2499" duration="150"/>
   </animation>
  </tile>
  <tile id="95">
   <animation>
    <frame tileid="95" duration="150"/>
    <frame tileid="576" duration="150"/>
    <frame tileid="1057" duration="150"/>
    <frame tileid="1538" duration="150"/>
    <frame tileid="2019" duration="150"/>
    <frame tileid="2500" duration="150"/>
   </animation>
  </tile>
  <tile id="96">
   <animation>
    <frame tileid="96" duration="150"/>
    <frame tileid="577" duration="150"/>
    <frame tileid="1058" duration="150"/>
    <frame tileid="1539" duration="150"/>
    <frame tileid="2020" duration="150"/>
    <frame tileid="2501" duration="150"/>
   </animation>
  </tile>
  <tile id="97">
   <animation>
    <frame tileid="97" duration="150"/>
    <frame tileid="578" duration="150"/>
    <frame tileid="1059" duration="150"/>
    <frame tileid="1540" duration="150"/>
    <frame tileid="2021" duration="150"/>
    <frame tileid="2502" duration="150"/>
   </animation>
  </tile>
  <tile id="98">
   <animation>
    <frame tileid="98" duration="150"/>
    <frame tileid="579" duration="150"/>
    <frame tileid="1060" duration="150"/>
    <frame tileid="1541" duration="150"/>
    <frame tileid="2022" duration="150"/>
    <frame tileid="2503" duration="150"/>
   </animation>
  </tile>
  <tile id="99">
   <animation>
    <frame tileid="99" duration="150"/>
    <frame tileid="580" duration="150"/>
    <frame tileid="1061" duration="150"/>
    <frame tileid="1542" duration="150"/>
    <frame tileid="2023" duration="150"/>
    <frame tileid="2504" duration="150"/>
   </animation>
  </tile>
  <tile id="100">
   <animation>
    <frame tileid="100" duration="150"/>
    <frame tileid="581" duration="150"/>
    <frame tileid="1062" duration="150"/>
    <frame tileid="1543" duration="150"/>
    <frame tileid="2024" duration="150"/>
    <frame tileid="2505" duration="150"/>
   </animation>
  </tile>
  <tile id="101">
   <animation>
    <frame tileid="101" duration="150"/>
    <frame tileid="582" duration="150"/>
    <frame tileid="1063" duration="150"/>
    <frame tileid="1544" duration="150"/>
    <frame tileid="2025" duration="150"/>
    <frame tileid="2506" duration="150"/>
   </animation>
  </tile>
  <tile id="102">
   <animation>
    <frame tileid="102" duration="150"/>
    <frame tileid="583" duration="150"/>
    <frame tileid="1064" duration="150"/>
    <frame tileid="1545" duration="150"/>
    <frame tileid="2026" duration="150"/>
    <frame tileid="2507" duration="150"/>
   </animation>
  </tile>
  <tile id="103">
   <animation>
    <frame tileid="103" duration="150"/>
    <frame tileid="584" duration="150"/>
    <frame tileid="1065" duration="150"/>
    <frame tileid="1546" duration="150"/>
    <frame tileid="2027" duration="150"/>
    <frame tileid="2508" duration="150"/>
   </animation>
  </tile>
  <tile id="105">
   <animation>
    <frame tileid="105" duration="150"/>
    <frame tileid="586" duration="150"/>
    <frame tileid="1067" duration="150"/>
    <frame tileid="1548" duration="150"/>
    <frame tileid="2029" duration="150"/>
    <frame tileid="2510" duration="150"/>
   </animation>
  </tile>
  <tile id="106">
   <animation>
    <frame tileid="106" duration="150"/>
    <frame tileid="587" duration="150"/>
    <frame tileid="1068" duration="150"/>
    <frame tileid="1549" duration="150"/>
    <frame tileid="2030" duration="150"/>
    <frame tileid="2511" duration="150"/>
   </animation>
  </tile>
  <tile id="107">
   <animation>
    <frame tileid="107" duration="150"/>
    <frame tileid="588" duration="150"/>
    <frame tileid="1069" duration="150"/>
    <frame tileid="1550" duration="150"/>
    <frame tileid="2031" duration="150"/>
    <frame tileid="2512" duration="150"/>
   </animation>
  </tile>
  <tile id="108">
   <animation>
    <frame tileid="108" duration="150"/>
    <frame tileid="589" duration="150"/>
    <frame tileid="1070" duration="150"/>
    <frame tileid="1551" duration="150"/>
    <frame tileid="2032" duration="150"/>
    <frame tileid="2513" duration="150"/>
   </animation>
  </tile>
  <tile id="109">
   <animation>
    <frame tileid="109" duration="150"/>
    <frame tileid="590" duration="150"/>
    <frame tileid="1071" duration="150"/>
    <frame tileid="1552" duration="150"/>
    <frame tileid="2033" duration="150"/>
    <frame tileid="2514" duration="150"/>
   </animation>
  </tile>
  <tile id="110">
   <animation>
    <frame tileid="110" duration="150"/>
    <frame tileid="591" duration="150"/>
    <frame tileid="1072" duration="150"/>
    <frame tileid="1553" duration="150"/>
    <frame tileid="2034" duration="150"/>
    <frame tileid="2515" duration="150"/>
   </animation>
  </tile>
  <tile id="112">
   <animation>
    <frame tileid="112" duration="150"/>
    <frame tileid="593" duration="150"/>
    <frame tileid="1074" duration="150"/>
    <frame tileid="1555" duration="150"/>
    <frame tileid="2036" duration="150"/>
    <frame tileid="2517" duration="150"/>
   </animation>
  </tile>
  <tile id="113">
   <animation>
    <frame tileid="113" duration="150"/>
    <frame tileid="594" duration="150"/>
    <frame tileid="1075" duration="150"/>
    <frame tileid="1556" duration="150"/>
    <frame tileid="2037" duration="150"/>
    <frame tileid="2518" duration="150"/>
   </animation>
  </tile>
  <tile id="114">
   <animation>
    <frame tileid="114" duration="150"/>
    <frame tileid="595" duration="150"/>
    <frame tileid="1076" duration="150"/>
    <frame tileid="1557" duration="150"/>
    <frame tileid="2038" duration="150"/>
    <frame tileid="2519" duration="150"/>
   </animation>
  </tile>
  <tile id="115">
   <animation>
    <frame tileid="115" duration="150"/>
    <frame tileid="596" duration="150"/>
    <frame tileid="1077" duration="150"/>
    <frame tileid="1558" duration="150"/>
    <frame tileid="2039" duration="150"/>
    <frame tileid="2520" duration="150"/>
   </animation>
  </tile>
  <tile id="116">
   <animation>
    <frame tileid="116" duration="150"/>
    <frame tileid="597" duration="150"/>
    <frame tileid="1078" duration="150"/>
    <frame tileid="1559" duration="150"/>
    <frame tileid="2040" duration="150"/>
    <frame tileid="2521" duration="150"/>
   </animation>
  </tile>
  <tile id="117">
   <animation>
    <frame tileid="117" duration="150"/>
    <frame tileid="598" duration="150"/>
    <frame tileid="1079" duration="150"/>
    <frame tileid="1560" duration="150"/>
    <frame tileid="2041" duration="150"/>
    <frame tileid="2522" duration="150"/>
   </animation>
  </tile>
  <tile id="118">
   <animation>
    <frame tileid="118" duration="150"/>
    <frame tileid="599" duration="150"/>
    <frame tileid="1080" duration="150"/>
    <frame tileid="1561" duration="150"/>
    <frame tileid="2042" duration="150"/>
    <frame tileid="2523" duration="150"/>
   </animation>
  </tile>
  <tile id="119">
   <animation>
    <frame tileid="119" duration="150"/>
    <frame tileid="600" duration="150"/>
    <frame tileid="1081" duration="150"/>
    <frame tileid="1562" duration="150"/>
    <frame tileid="2043" duration="150"/>
    <frame tileid="2524" duration="150"/>
   </animation>
  </tile>
  <tile id="120">
   <animation>
    <frame tileid="120" duration="150"/>
    <frame tileid="601" duration="150"/>
    <frame tileid="1082" duration="150"/>
    <frame tileid="1563" duration="150"/>
    <frame tileid="2044" duration="150"/>
    <frame tileid="2525" duration="150"/>
   </animation>
  </tile>
  <tile id="121">
   <animation>
    <frame tileid="121" duration="150"/>
    <frame tileid="602" duration="150"/>
    <frame tileid="1083" duration="150"/>
    <frame tileid="1564" duration="150"/>
    <frame tileid="2045" duration="150"/>
    <frame tileid="2526" duration="150"/>
   </animation>
  </tile>
  <tile id="122">
   <animation>
    <frame tileid="122" duration="150"/>
    <frame tileid="603" duration="150"/>
    <frame tileid="1084" duration="150"/>
    <frame tileid="1565" duration="150"/>
    <frame tileid="2046" duration="150"/>
    <frame tileid="2527" duration="150"/>
   </animation>
  </tile>
  <tile id="131">
   <animation>
    <frame tileid="131" duration="150"/>
    <frame tileid="612" duration="150"/>
    <frame tileid="1093" duration="150"/>
    <frame tileid="1574" duration="150"/>
    <frame tileid="2055" duration="150"/>
    <frame tileid="2536" duration="150"/>
   </animation>
  </tile>
  <tile id="132">
   <animation>
    <frame tileid="132" duration="150"/>
    <frame tileid="613" duration="150"/>
    <frame tileid="1094" duration="150"/>
    <frame tileid="1575" duration="150"/>
    <frame tileid="2056" duration="150"/>
    <frame tileid="2537" duration="150"/>
   </animation>
  </tile>
  <tile id="133">
   <animation>
    <frame tileid="133" duration="150"/>
    <frame tileid="614" duration="150"/>
    <frame tileid="1095" duration="150"/>
    <frame tileid="1576" duration="150"/>
    <frame tileid="2057" duration="150"/>
    <frame tileid="2538" duration="150"/>
   </animation>
  </tile>
  <tile id="134">
   <animation>
    <frame tileid="134" duration="150"/>
    <frame tileid="615" duration="150"/>
    <frame tileid="1096" duration="150"/>
    <frame tileid="1577" duration="150"/>
    <frame tileid="2058" duration="150"/>
    <frame tileid="2539" duration="150"/>
   </animation>
  </tile>
  <tile id="135">
   <animation>
    <frame tileid="135" duration="150"/>
    <frame tileid="616" duration="150"/>
    <frame tileid="1097" duration="150"/>
    <frame tileid="1578" duration="150"/>
    <frame tileid="2059" duration="150"/>
    <frame tileid="2540" duration="150"/>
   </animation>
  </tile>
  <tile id="136">
   <animation>
    <frame tileid="136" duration="150"/>
    <frame tileid="617" duration="150"/>
    <frame tileid="1098" duration="150"/>
    <frame tileid="1579" duration="150"/>
    <frame tileid="2060" duration="150"/>
    <frame tileid="2541" duration="150"/>
   </animation>
  </tile>
  <tile id="137">
   <animation>
    <frame tileid="137" duration="150"/>
    <frame tileid="618" duration="150"/>
    <frame tileid="1099" duration="150"/>
    <frame tileid="1580" duration="150"/>
    <frame tileid="2060" duration="150"/>
    <frame tileid="2542" duration="150"/>
   </animation>
  </tile>
  <tile id="138">
   <animation>
    <frame tileid="138" duration="150"/>
    <frame tileid="619" duration="150"/>
    <frame tileid="1100" duration="150"/>
    <frame tileid="1581" duration="150"/>
    <frame tileid="2062" duration="150"/>
    <frame tileid="2543" duration="150"/>
   </animation>
  </tile>
  <tile id="176">
   <animation>
    <frame tileid="176" duration="150"/>
    <frame tileid="657" duration="150"/>
    <frame tileid="1138" duration="150"/>
    <frame tileid="1619" duration="150"/>
    <frame tileid="2100" duration="150"/>
    <frame tileid="2581" duration="150"/>
   </animation>
  </tile>
  <tile id="177">
   <animation>
    <frame tileid="177" duration="150"/>
    <frame tileid="658" duration="150"/>
    <frame tileid="1139" duration="150"/>
    <frame tileid="1620" duration="150"/>
    <frame tileid="2101" duration="150"/>
    <frame tileid="2582" duration="150"/>
   </animation>
  </tile>
  <tile id="178">
   <animation>
    <frame tileid="178" duration="150"/>
    <frame tileid="659" duration="150"/>
    <frame tileid="1140" duration="150"/>
    <frame tileid="1621" duration="150"/>
    <frame tileid="2102" duration="150"/>
    <frame tileid="2583" duration="150"/>
   </animation>
  </tile>
  <tile id="179">
   <animation>
    <frame tileid="179" duration="150"/>
    <frame tileid="660" duration="150"/>
    <frame tileid="1141" duration="150"/>
    <frame tileid="1622" duration="150"/>
    <frame tileid="2103" duration="150"/>
    <frame tileid="2584" duration="150"/>
   </animation>
  </tile>
  <tile id="180">
   <animation>
    <frame tileid="180" duration="150"/>
    <frame tileid="661" duration="150"/>
    <frame tileid="1142" duration="150"/>
    <frame tileid="1623" duration="150"/>
    <frame tileid="2104" duration="150"/>
    <frame tileid="2585" duration="150"/>
   </animation>
  </tile>
  <tile id="188">
   <animation>
    <frame tileid="188" duration="150"/>
    <frame tileid="669" duration="150"/>
    <frame tileid="1150" duration="150"/>
    <frame tileid="1631" duration="150"/>
    <frame tileid="2112" duration="150"/>
    <frame tileid="2593" duration="150"/>
   </animation>
  </tile>
  <tile id="189">
   <animation>
    <frame tileid="189" duration="150"/>
    <frame tileid="670" duration="150"/>
    <frame tileid="1151" duration="150"/>
    <frame tileid="1632" duration="150"/>
    <frame tileid="2113" duration="150"/>
    <frame tileid="2594" duration="150"/>
   </animation>
  </tile>
  <tile id="190">
   <animation>
    <frame tileid="190" duration="150"/>
    <frame tileid="671" duration="150"/>
    <frame tileid="1152" duration="150"/>
    <frame tileid="1633" duration="150"/>
    <frame tileid="2114" duration="150"/>
    <frame tileid="2595" duration="150"/>
   </animation>
  </tile>
  <tile id="191">
   <animation>
    <frame tileid="191" duration="150"/>
    <frame tileid="672" duration="150"/>
    <frame tileid="1153" duration="150"/>
    <frame tileid="1634" duration="150"/>
    <frame tileid="2115" duration="150"/>
    <frame tileid="2596" duration="150"/>
   </animation>
  </tile>
  <tile id="192">
   <animation>
    <frame tileid="192" duration="150"/>
    <frame tileid="673" duration="150"/>
    <frame tileid="1154" duration="150"/>
    <frame tileid="1635" duration="150"/>
    <frame tileid="2116" duration="150"/>
    <frame tileid="2597" duration="150"/>
   </animation>
  </tile>
  <tile id="193">
   <animation>
    <frame tileid="193" duration="150"/>
    <frame tileid="674" duration="150"/>
    <frame tileid="1155" duration="150"/>
    <frame tileid="1636" duration="150"/>
    <frame tileid="2117" duration="150"/>
    <frame tileid="2598" duration="150"/>
   </animation>
  </tile>
  <tile id="194">
   <animation>
    <frame tileid="194" duration="150"/>
    <frame tileid="675" duration="150"/>
    <frame tileid="1156" duration="150"/>
    <frame tileid="1637" duration="150"/>
    <frame tileid="2118" duration="150"/>
    <frame tileid="2599" duration="150"/>
   </animation>
  </tile>
  <tile id="201">
   <animation>
    <frame tileid="201" duration="150"/>
    <frame tileid="682" duration="150"/>
    <frame tileid="1163" duration="150"/>
    <frame tileid="1644" duration="150"/>
    <frame tileid="2125" duration="150"/>
    <frame tileid="2606" duration="150"/>
   </animation>
  </tile>
  <tile id="202">
   <animation>
    <frame tileid="202" duration="150"/>
    <frame tileid="683" duration="150"/>
    <frame tileid="1164" duration="150"/>
    <frame tileid="1645" duration="150"/>
    <frame tileid="2126" duration="150"/>
    <frame tileid="2607" duration="150"/>
   </animation>
  </tile>
  <tile id="203">
   <animation>
    <frame tileid="203" duration="150"/>
    <frame tileid="684" duration="150"/>
    <frame tileid="1165" duration="150"/>
    <frame tileid="1646" duration="150"/>
    <frame tileid="2127" duration="150"/>
    <frame tileid="2608" duration="150"/>
   </animation>
  </tile>
  <tile id="204">
   <animation>
    <frame tileid="204" duration="150"/>
    <frame tileid="685" duration="150"/>
    <frame tileid="1166" duration="150"/>
    <frame tileid="1647" duration="150"/>
    <frame tileid="2128" duration="150"/>
    <frame tileid="2609" duration="150"/>
   </animation>
  </tile>
  <tile id="205">
   <animation>
    <frame tileid="205" duration="150"/>
    <frame tileid="686" duration="150"/>
    <frame tileid="1167" duration="150"/>
    <frame tileid="1648" duration="150"/>
    <frame tileid="2129" duration="150"/>
    <frame tileid="2610" duration="150"/>
   </animation>
  </tile>
  <tile id="206">
   <animation>
    <frame tileid="206" duration="150"/>
    <frame tileid="687" duration="150"/>
    <frame tileid="1168" duration="150"/>
    <frame tileid="1649" duration="150"/>
    <frame tileid="2130" duration="150"/>
    <frame tileid="2611" duration="150"/>
   </animation>
  </tile>
  <tile id="207">
   <animation>
    <frame tileid="207" duration="150"/>
    <frame tileid="688" duration="150"/>
    <frame tileid="1169" duration="150"/>
    <frame tileid="1650" duration="150"/>
    <frame tileid="2131" duration="150"/>
    <frame tileid="2612" duration="150"/>
   </animation>
  </tile>
  <tile id="208">
   <animation>
    <frame tileid="208" duration="150"/>
    <frame tileid="689" duration="150"/>
    <frame tileid="1170" duration="150"/>
    <frame tileid="1651" duration="150"/>
    <frame tileid="2132" duration="150"/>
    <frame tileid="2613" duration="150"/>
   </animation>
  </tile>
  <tile id="209">
   <animation>
    <frame tileid="209" duration="150"/>
    <frame tileid="690" duration="150"/>
    <frame tileid="1171" duration="150"/>
    <frame tileid="1652" duration="150"/>
    <frame tileid="2133" duration="150"/>
    <frame tileid="2614" duration="150"/>
   </animation>
  </tile>
  <tile id="210">
   <animation>
    <frame tileid="210" duration="150"/>
    <frame tileid="691" duration="150"/>
    <frame tileid="1172" duration="150"/>
    <frame tileid="1653" duration="150"/>
    <frame tileid="2134" duration="150"/>
    <frame tileid="2615" duration="150"/>
   </animation>
  </tile>
  <tile id="211">
   <animation>
    <frame tileid="211" duration="150"/>
    <frame tileid="692" duration="150"/>
    <frame tileid="1173" duration="150"/>
    <frame tileid="1654" duration="150"/>
    <frame tileid="2135" duration="150"/>
    <frame tileid="2616" duration="150"/>
   </animation>
  </tile>
  <tile id="212">
   <animation>
    <frame tileid="212" duration="150"/>
    <frame tileid="693" duration="150"/>
    <frame tileid="1174" duration="150"/>
    <frame tileid="1655" duration="150"/>
    <frame tileid="2136" duration="150"/>
    <frame tileid="2617" duration="150"/>
   </animation>
  </tile>
  <tile id="213">
   <animation>
    <frame tileid="213" duration="150"/>
    <frame tileid="694" duration="150"/>
    <frame tileid="1175" duration="150"/>
    <frame tileid="1656" duration="150"/>
    <frame tileid="2137" duration="150"/>
    <frame tileid="2618" duration="150"/>
   </animation>
  </tile>
  <tile id="214">
   <animation>
    <frame tileid="214" duration="150"/>
    <frame tileid="695" duration="150"/>
    <frame tileid="1176" duration="150"/>
    <frame tileid="1657" duration="150"/>
    <frame tileid="2138" duration="150"/>
    <frame tileid="2619" duration="150"/>
   </animation>
  </tile>
  <tile id="215">
   <animation>
    <frame tileid="215" duration="150"/>
    <frame tileid="696" duration="150"/>
    <frame tileid="1177" duration="150"/>
    <frame tileid="1658" duration="150"/>
    <frame tileid="2139" duration="150"/>
    <frame tileid="2620" duration="150"/>
   </animation>
  </tile>
  <tile id="223">
   <animation>
    <frame tileid="223" duration="150"/>
    <frame tileid="704" duration="150"/>
    <frame tileid="1185" duration="150"/>
    <frame tileid="1666" duration="150"/>
    <frame tileid="2147" duration="150"/>
    <frame tileid="2628" duration="150"/>
   </animation>
  </tile>
  <tile id="224">
   <animation>
    <frame tileid="224" duration="150"/>
    <frame tileid="705" duration="150"/>
    <frame tileid="1186" duration="150"/>
    <frame tileid="1667" duration="150"/>
    <frame tileid="2148" duration="150"/>
    <frame tileid="2629" duration="150"/>
   </animation>
  </tile>
  <tile id="225">
   <animation>
    <frame tileid="225" duration="150"/>
    <frame tileid="706" duration="150"/>
    <frame tileid="1187" duration="150"/>
    <frame tileid="1668" duration="150"/>
    <frame tileid="2149" duration="150"/>
    <frame tileid="2630" duration="150"/>
   </animation>
  </tile>
  <tile id="226">
   <animation>
    <frame tileid="226" duration="150"/>
    <frame tileid="707" duration="150"/>
    <frame tileid="1188" duration="150"/>
    <frame tileid="1669" duration="150"/>
    <frame tileid="2150" duration="150"/>
    <frame tileid="2631" duration="150"/>
   </animation>
  </tile>
  <tile id="227">
   <animation>
    <frame tileid="227" duration="150"/>
    <frame tileid="708" duration="150"/>
    <frame tileid="1189" duration="150"/>
    <frame tileid="1670" duration="150"/>
    <frame tileid="2151" duration="150"/>
    <frame tileid="2632" duration="150"/>
   </animation>
  </tile>
  <tile id="228">
   <animation>
    <frame tileid="228" duration="150"/>
    <frame tileid="709" duration="150"/>
    <frame tileid="1190" duration="150"/>
    <frame tileid="1671" duration="150"/>
    <frame tileid="2152" duration="150"/>
    <frame tileid="2633" duration="150"/>
   </animation>
  </tile>
  <tile id="229">
   <animation>
    <frame tileid="229" duration="150"/>
    <frame tileid="710" duration="150"/>
    <frame tileid="1191" duration="150"/>
    <frame tileid="1672" duration="150"/>
    <frame tileid="2153" duration="150"/>
    <frame tileid="2634" duration="150"/>
   </animation>
  </tile>
  <tile id="230">
   <animation>
    <frame tileid="230" duration="150"/>
    <frame tileid="711" duration="150"/>
    <frame tileid="1192" duration="150"/>
    <frame tileid="1673" duration="150"/>
    <frame tileid="2154" duration="150"/>
    <frame tileid="2635" duration="150"/>
   </animation>
  </tile>
  <tile id="231">
   <animation>
    <frame tileid="231" duration="150"/>
    <frame tileid="712" duration="150"/>
    <frame tileid="1193" duration="150"/>
    <frame tileid="1674" duration="150"/>
    <frame tileid="2155" duration="150"/>
    <frame tileid="2636" duration="150"/>
   </animation>
  </tile>
  <tile id="232">
   <animation>
    <frame tileid="232" duration="150"/>
    <frame tileid="713" duration="150"/>
    <frame tileid="1194" duration="150"/>
    <frame tileid="1675" duration="150"/>
    <frame tileid="2156" duration="150"/>
    <frame tileid="2637" duration="150"/>
   </animation>
  </tile>
  <tile id="233">
   <animation>
    <frame tileid="233" duration="150"/>
    <frame tileid="714" duration="150"/>
    <frame tileid="1195" duration="150"/>
    <frame tileid="1676" duration="150"/>
    <frame tileid="2157" duration="150"/>
    <frame tileid="2638" duration="150"/>
   </animation>
  </tile>
  <tile id="234">
   <animation>
    <frame tileid="234" duration="150"/>
    <frame tileid="715" duration="150"/>
    <frame tileid="1196" duration="150"/>
    <frame tileid="1677" duration="150"/>
    <frame tileid="2158" duration="150"/>
    <frame tileid="2639" duration="150"/>
   </animation>
  </tile>
  <tile id="235">
   <animation>
    <frame tileid="235" duration="150"/>
    <frame tileid="716" duration="150"/>
    <frame tileid="1197" duration="150"/>
    <frame tileid="1678" duration="150"/>
    <frame tileid="2159" duration="150"/>
    <frame tileid="2640" duration="150"/>
   </animation>
  </tile>
  <tile id="238">
   <animation>
    <frame tileid="238" duration="150"/>
    <frame tileid="719" duration="150"/>
    <frame tileid="1200" duration="150"/>
    <frame tileid="1681" duration="150"/>
    <frame tileid="2162" duration="150"/>
    <frame tileid="2643" duration="150"/>
   </animation>
  </tile>
  <tile id="239">
   <animation>
    <frame tileid="239" duration="150"/>
    <frame tileid="720" duration="150"/>
    <frame tileid="1201" duration="150"/>
    <frame tileid="1682" duration="150"/>
    <frame tileid="2163" duration="150"/>
    <frame tileid="2644" duration="150"/>
   </animation>
  </tile>
  <tile id="240">
   <animation>
    <frame tileid="240" duration="150"/>
    <frame tileid="721" duration="150"/>
    <frame tileid="1202" duration="150"/>
    <frame tileid="1683" duration="150"/>
    <frame tileid="2164" duration="150"/>
    <frame tileid="2645" duration="150"/>
   </animation>
  </tile>
  <tile id="241">
   <animation>
    <frame tileid="241" duration="150"/>
    <frame tileid="722" duration="150"/>
    <frame tileid="1203" duration="150"/>
    <frame tileid="1684" duration="150"/>
    <frame tileid="2165" duration="150"/>
    <frame tileid="2646" duration="150"/>
   </animation>
  </tile>
  <tile id="242">
   <animation>
    <frame tileid="242" duration="150"/>
    <frame tileid="723" duration="150"/>
    <frame tileid="1204" duration="150"/>
    <frame tileid="1685" duration="150"/>
    <frame tileid="2166" duration="150"/>
    <frame tileid="2647" duration="150"/>
   </animation>
  </tile>
  <tile id="243">
   <animation>
    <frame tileid="243" duration="150"/>
    <frame tileid="724" duration="150"/>
    <frame tileid="1205" duration="150"/>
    <frame tileid="1686" duration="150"/>
    <frame tileid="2167" duration="150"/>
    <frame tileid="2648" duration="150"/>
   </animation>
  </tile>
  <tile id="244">
   <animation>
    <frame tileid="244" duration="150"/>
    <frame tileid="725" duration="150"/>
    <frame tileid="1206" duration="150"/>
    <frame tileid="1687" duration="150"/>
    <frame tileid="2168" duration="150"/>
    <frame tileid="2649" duration="150"/>
   </animation>
  </tile>
  <tile id="245">
   <animation>
    <frame tileid="245" duration="150"/>
    <frame tileid="726" duration="150"/>
    <frame tileid="1207" duration="150"/>
    <frame tileid="1688" duration="150"/>
    <frame tileid="2169" duration="150"/>
    <frame tileid="2650" duration="150"/>
   </animation>
  </tile>
  <tile id="246">
   <animation>
    <frame tileid="246" duration="150"/>
    <frame tileid="727" duration="150"/>
    <frame tileid="1208" duration="150"/>
    <frame tileid="1689" duration="150"/>
    <frame tileid="2170" duration="150"/>
    <frame tileid="2651" duration="150"/>
   </animation>
  </tile>
  <tile id="247">
   <animation>
    <frame tileid="247" duration="150"/>
    <frame tileid="728" duration="150"/>
    <frame tileid="1209" duration="150"/>
    <frame tileid="1690" duration="150"/>
    <frame tileid="2171" duration="150"/>
    <frame tileid="2652" duration="150"/>
   </animation>
  </tile>
  <tile id="248">
   <animation>
    <frame tileid="248" duration="150"/>
    <frame tileid="729" duration="150"/>
    <frame tileid="1210" duration="150"/>
    <frame tileid="1691" duration="150"/>
    <frame tileid="2172" duration="150"/>
    <frame tileid="2653" duration="150"/>
   </animation>
  </tile>
  <tile id="249">
   <animation>
    <frame tileid="249" duration="150"/>
    <frame tileid="730" duration="150"/>
    <frame tileid="1211" duration="150"/>
    <frame tileid="1692" duration="150"/>
    <frame tileid="2173" duration="150"/>
    <frame tileid="2654" duration="150"/>
   </animation>
  </tile>
  <tile id="250">
   <animation>
    <frame tileid="250" duration="150"/>
    <frame tileid="731" duration="150"/>
    <frame tileid="1212" duration="150"/>
    <frame tileid="1693" duration="150"/>
    <frame tileid="2174" duration="150"/>
    <frame tileid="2655" duration="150"/>
   </animation>
  </tile>
  <tile id="251">
   <animation>
    <frame tileid="251" duration="150"/>
    <frame tileid="732" duration="150"/>
    <frame tileid="1213" duration="150"/>
    <frame tileid="1694" duration="150"/>
    <frame tileid="2175" duration="150"/>
    <frame tileid="2656" duration="150"/>
   </animation>
  </tile>
  <tile id="255">
   <animation>
    <frame tileid="255" duration="150"/>
    <frame tileid="736" duration="150"/>
    <frame tileid="1217" duration="150"/>
    <frame tileid="1698" duration="150"/>
    <frame tileid="2179" duration="150"/>
    <frame tileid="2660" duration="150"/>
   </animation>
  </tile>
  <tile id="256">
   <animation>
    <frame tileid="256" duration="150"/>
    <frame tileid="737" duration="150"/>
    <frame tileid="1218" duration="150"/>
    <frame tileid="1699" duration="150"/>
    <frame tileid="2180" duration="150"/>
    <frame tileid="2661" duration="150"/>
   </animation>
  </tile>
  <tile id="257">
   <animation>
    <frame tileid="257" duration="150"/>
    <frame tileid="738" duration="150"/>
    <frame tileid="1219" duration="150"/>
    <frame tileid="1700" duration="150"/>
    <frame tileid="2181" duration="150"/>
    <frame tileid="2662" duration="150"/>
   </animation>
  </tile>
  <tile id="264">
   <animation>
    <frame tileid="264" duration="150"/>
    <frame tileid="745" duration="150"/>
    <frame tileid="1226" duration="150"/>
    <frame tileid="1707" duration="150"/>
    <frame tileid="2188" duration="150"/>
    <frame tileid="2669" duration="150"/>
   </animation>
  </tile>
  <tile id="265">
   <animation>
    <frame tileid="265" duration="150"/>
    <frame tileid="746" duration="150"/>
    <frame tileid="1227" duration="150"/>
    <frame tileid="1708" duration="150"/>
    <frame tileid="2189" duration="150"/>
    <frame tileid="2670" duration="150"/>
   </animation>
  </tile>
  <tile id="266">
   <animation>
    <frame tileid="266" duration="150"/>
    <frame tileid="747" duration="150"/>
    <frame tileid="1228" duration="150"/>
    <frame tileid="1709" duration="150"/>
    <frame tileid="2190" duration="150"/>
    <frame tileid="2671" duration="150"/>
   </animation>
  </tile>
  <tile id="267">
   <animation>
    <frame tileid="267" duration="150"/>
    <frame tileid="748" duration="150"/>
    <frame tileid="1229" duration="150"/>
    <frame tileid="1710" duration="150"/>
    <frame tileid="2191" duration="150"/>
    <frame tileid="2672" duration="150"/>
   </animation>
  </tile>
  <tile id="268">
   <animation>
    <frame tileid="268" duration="150"/>
    <frame tileid="749" duration="150"/>
    <frame tileid="1230" duration="150"/>
    <frame tileid="1711" duration="150"/>
    <frame tileid="2192" duration="150"/>
    <frame tileid="2673" duration="150"/>
   </animation>
  </tile>
  <tile id="269">
   <animation>
    <frame tileid="269" duration="150"/>
    <frame tileid="750" duration="150"/>
    <frame tileid="1231" duration="150"/>
    <frame tileid="1712" duration="150"/>
    <frame tileid="2193" duration="150"/>
    <frame tileid="2674" duration="150"/>
   </animation>
  </tile>
  <tile id="313">
   <animation>
    <frame tileid="313" duration="150"/>
    <frame tileid="794" duration="150"/>
    <frame tileid="1275" duration="150"/>
    <frame tileid="1756" duration="150"/>
    <frame tileid="2237" duration="150"/>
    <frame tileid="2718" duration="150"/>
   </animation>
  </tile>
  <tile id="314">
   <animation>
    <frame tileid="314" duration="150"/>
    <frame tileid="795" duration="150"/>
    <frame tileid="1276" duration="150"/>
    <frame tileid="1757" duration="150"/>
    <frame tileid="2238" duration="150"/>
    <frame tileid="2719" duration="150"/>
   </animation>
  </tile>
  <tile id="315">
   <animation>
    <frame tileid="315" duration="150"/>
    <frame tileid="796" duration="150"/>
    <frame tileid="1277" duration="150"/>
    <frame tileid="1758" duration="150"/>
    <frame tileid="2239" duration="150"/>
    <frame tileid="2720" duration="150"/>
   </animation>
  </tile>
  <tile id="316">
   <animation>
    <frame tileid="316" duration="150"/>
    <frame tileid="797" duration="150"/>
    <frame tileid="1278" duration="150"/>
    <frame tileid="1759" duration="150"/>
    <frame tileid="2240" duration="150"/>
    <frame tileid="2721" duration="150"/>
   </animation>
  </tile>
  <tile id="317">
   <animation>
    <frame tileid="317" duration="150"/>
    <frame tileid="798" duration="150"/>
    <frame tileid="1279" duration="150"/>
    <frame tileid="1760" duration="150"/>
    <frame tileid="2241" duration="150"/>
    <frame tileid="2722" duration="150"/>
   </animation>
  </tile>
  <tile id="318">
   <animation>
    <frame tileid="318" duration="150"/>
    <frame tileid="799" duration="150"/>
    <frame tileid="1280" duration="150"/>
    <frame tileid="1761" duration="150"/>
    <frame tileid="2242" duration="150"/>
    <frame tileid="2723" duration="150"/>
   </animation>
  </tile>
  <tile id="319">
   <animation>
    <frame tileid="319" duration="150"/>
    <frame tileid="800" duration="150"/>
    <frame tileid="1281" duration="150"/>
    <frame tileid="1762" duration="150"/>
    <frame tileid="2243" duration="150"/>
    <frame tileid="2724" duration="150"/>
   </animation>
  </tile>
  <tile id="320">
   <animation>
    <frame tileid="320" duration="150"/>
    <frame tileid="801" duration="150"/>
    <frame tileid="1282" duration="150"/>
    <frame tileid="1763" duration="150"/>
    <frame tileid="2244" duration="150"/>
    <frame tileid="2725" duration="150"/>
   </animation>
  </tile>
  <tile id="323">
   <animation>
    <frame tileid="323" duration="150"/>
    <frame tileid="804" duration="150"/>
    <frame tileid="1285" duration="150"/>
    <frame tileid="1766" duration="150"/>
    <frame tileid="2247" duration="150"/>
    <frame tileid="2728" duration="150"/>
   </animation>
  </tile>
  <tile id="324">
   <animation>
    <frame tileid="324" duration="150"/>
    <frame tileid="805" duration="150"/>
    <frame tileid="1286" duration="150"/>
    <frame tileid="1767" duration="150"/>
    <frame tileid="2248" duration="150"/>
    <frame tileid="2729" duration="150"/>
   </animation>
  </tile>
  <tile id="325">
   <animation>
    <frame tileid="325" duration="150"/>
    <frame tileid="806" duration="150"/>
    <frame tileid="1287" duration="150"/>
    <frame tileid="1768" duration="150"/>
    <frame tileid="2249" duration="150"/>
    <frame tileid="2730" duration="150"/>
   </animation>
  </tile>
  <tile id="326">
   <animation>
    <frame tileid="326" duration="150"/>
    <frame tileid="807" duration="150"/>
    <frame tileid="1288" duration="150"/>
    <frame tileid="1769" duration="150"/>
    <frame tileid="2250" duration="150"/>
    <frame tileid="2731" duration="150"/>
   </animation>
  </tile>
  <tile id="327">
   <animation>
    <frame tileid="327" duration="150"/>
    <frame tileid="808" duration="150"/>
    <frame tileid="1289" duration="150"/>
    <frame tileid="1770" duration="150"/>
    <frame tileid="2251" duration="150"/>
    <frame tileid="2732" duration="150"/>
   </animation>
  </tile>
  <tile id="334">
   <animation>
    <frame tileid="334" duration="150"/>
    <frame tileid="815" duration="150"/>
    <frame tileid="1296" duration="150"/>
    <frame tileid="1777" duration="150"/>
    <frame tileid="2258" duration="150"/>
    <frame tileid="2739" duration="150"/>
   </animation>
  </tile>
  <tile id="335">
   <animation>
    <frame tileid="335" duration="150"/>
    <frame tileid="816" duration="150"/>
    <frame tileid="1297" duration="150"/>
    <frame tileid="1778" duration="150"/>
    <frame tileid="2259" duration="150"/>
    <frame tileid="2740" duration="150"/>
   </animation>
  </tile>
  <tile id="336">
   <animation>
    <frame tileid="336" duration="150"/>
    <frame tileid="817" duration="150"/>
    <frame tileid="1298" duration="150"/>
    <frame tileid="1779" duration="150"/>
    <frame tileid="2260" duration="150"/>
    <frame tileid="2741" duration="150"/>
   </animation>
  </tile>
  <tile id="337">
   <animation>
    <frame tileid="337" duration="150"/>
    <frame tileid="818" duration="150"/>
    <frame tileid="1299" duration="150"/>
    <frame tileid="1780" duration="150"/>
    <frame tileid="2261" duration="150"/>
    <frame tileid="2742" duration="150"/>
   </animation>
  </tile>
  <tile id="338">
   <animation>
    <frame tileid="338" duration="150"/>
    <frame tileid="819" duration="150"/>
    <frame tileid="1300" duration="150"/>
    <frame tileid="1781" duration="150"/>
    <frame tileid="2262" duration="150"/>
    <frame tileid="2743" duration="150"/>
   </animation>
  </tile>
  <tile id="339">
   <animation>
    <frame tileid="339" duration="150"/>
    <frame tileid="820" duration="150"/>
    <frame tileid="1301" duration="150"/>
    <frame tileid="1782" duration="150"/>
    <frame tileid="2263" duration="150"/>
    <frame tileid="2744" duration="150"/>
   </animation>
  </tile>
  <tile id="340">
   <animation>
    <frame tileid="340" duration="150"/>
    <frame tileid="821" duration="150"/>
    <frame tileid="1302" duration="150"/>
    <frame tileid="1783" duration="150"/>
    <frame tileid="2264" duration="150"/>
    <frame tileid="2745" duration="150"/>
   </animation>
  </tile>
  <tile id="341">
   <animation>
    <frame tileid="341" duration="150"/>
    <frame tileid="822" duration="150"/>
    <frame tileid="1303" duration="150"/>
    <frame tileid="1784" duration="150"/>
    <frame tileid="2265" duration="150"/>
    <frame tileid="2746" duration="150"/>
   </animation>
  </tile>
  <tile id="342">
   <animation>
    <frame tileid="342" duration="150"/>
    <frame tileid="823" duration="150"/>
    <frame tileid="1304" duration="150"/>
    <frame tileid="1785" duration="150"/>
    <frame tileid="2266" duration="150"/>
    <frame tileid="2747" duration="150"/>
   </animation>
  </tile>
  <tile id="343">
   <animation>
    <frame tileid="343" duration="150"/>
    <frame tileid="824" duration="150"/>
    <frame tileid="1305" duration="150"/>
    <frame tileid="1786" duration="150"/>
    <frame tileid="2267" duration="150"/>
    <frame tileid="2748" duration="150"/>
   </animation>
  </tile>
  <tile id="344">
   <animation>
    <frame tileid="344" duration="150"/>
    <frame tileid="825" duration="150"/>
    <frame tileid="1306" duration="150"/>
    <frame tileid="1787" duration="150"/>
    <frame tileid="2268" duration="150"/>
    <frame tileid="2749" duration="150"/>
   </animation>
  </tile>
  <tile id="345">
   <animation>
    <frame tileid="345" duration="150"/>
    <frame tileid="826" duration="150"/>
    <frame tileid="1307" duration="150"/>
    <frame tileid="1788" duration="150"/>
    <frame tileid="2269" duration="150"/>
    <frame tileid="2750" duration="150"/>
   </animation>
  </tile>
  <tile id="346">
   <animation>
    <frame tileid="346" duration="150"/>
    <frame tileid="827" duration="150"/>
    <frame tileid="1308" duration="150"/>
    <frame tileid="1789" duration="150"/>
    <frame tileid="2270" duration="150"/>
    <frame tileid="2750" duration="150"/>
   </animation>
  </tile>
  <tile id="347">
   <animation>
    <frame tileid="347" duration="150"/>
    <frame tileid="828" duration="150"/>
    <frame tileid="1309" duration="150"/>
    <frame tileid="1790" duration="150"/>
    <frame tileid="2271" duration="150"/>
    <frame tileid="2752" duration="150"/>
   </animation>
  </tile>
  <tile id="350">
   <animation>
    <frame tileid="350" duration="150"/>
    <frame tileid="831" duration="150"/>
    <frame tileid="1312" duration="150"/>
    <frame tileid="1793" duration="150"/>
    <frame tileid="2274" duration="150"/>
    <frame tileid="2755" duration="150"/>
   </animation>
  </tile>
  <tile id="351">
   <animation>
    <frame tileid="351" duration="150"/>
    <frame tileid="832" duration="150"/>
    <frame tileid="1313" duration="150"/>
    <frame tileid="1794" duration="150"/>
    <frame tileid="2275" duration="150"/>
    <frame tileid="2756" duration="150"/>
   </animation>
  </tile>
  <tile id="352">
   <animation>
    <frame tileid="352" duration="150"/>
    <frame tileid="833" duration="150"/>
    <frame tileid="1314" duration="150"/>
    <frame tileid="1795" duration="150"/>
    <frame tileid="2276" duration="150"/>
    <frame tileid="2757" duration="150"/>
   </animation>
  </tile>
  <tile id="353">
   <animation>
    <frame tileid="353" duration="150"/>
    <frame tileid="834" duration="150"/>
    <frame tileid="1315" duration="150"/>
    <frame tileid="1796" duration="150"/>
    <frame tileid="2277" duration="150"/>
    <frame tileid="2758" duration="150"/>
   </animation>
  </tile>
  <tile id="354">
   <animation>
    <frame tileid="354" duration="150"/>
    <frame tileid="835" duration="150"/>
    <frame tileid="1316" duration="150"/>
    <frame tileid="1797" duration="150"/>
    <frame tileid="2278" duration="150"/>
    <frame tileid="2759" duration="150"/>
   </animation>
  </tile>
  <tile id="355">
   <animation>
    <frame tileid="355" duration="150"/>
    <frame tileid="836" duration="150"/>
    <frame tileid="1317" duration="150"/>
    <frame tileid="1798" duration="150"/>
    <frame tileid="2279" duration="150"/>
    <frame tileid="2760" duration="150"/>
   </animation>
  </tile>
  <tile id="356">
   <animation>
    <frame tileid="356" duration="150"/>
    <frame tileid="837" duration="150"/>
    <frame tileid="1318" duration="150"/>
    <frame tileid="1799" duration="150"/>
    <frame tileid="2280" duration="150"/>
    <frame tileid="2761" duration="150"/>
   </animation>
  </tile>
  <tile id="357">
   <animation>
    <frame tileid="357" duration="150"/>
    <frame tileid="838" duration="150"/>
    <frame tileid="1319" duration="150"/>
    <frame tileid="1800" duration="150"/>
    <frame tileid="2281" duration="150"/>
    <frame tileid="2762" duration="150"/>
   </animation>
  </tile>
  <tile id="360">
   <animation>
    <frame tileid="360" duration="150"/>
    <frame tileid="841" duration="150"/>
    <frame tileid="1322" duration="150"/>
    <frame tileid="1803" duration="150"/>
    <frame tileid="2284" duration="150"/>
    <frame tileid="2765" duration="150"/>
   </animation>
  </tile>
  <tile id="361">
   <animation>
    <frame tileid="361" duration="150"/>
    <frame tileid="842" duration="150"/>
    <frame tileid="1323" duration="150"/>
    <frame tileid="1804" duration="150"/>
    <frame tileid="2285" duration="150"/>
    <frame tileid="2766" duration="150"/>
   </animation>
  </tile>
  <tile id="362">
   <animation>
    <frame tileid="362" duration="150"/>
    <frame tileid="843" duration="150"/>
    <frame tileid="1324" duration="150"/>
    <frame tileid="1805" duration="150"/>
    <frame tileid="2286" duration="150"/>
    <frame tileid="2767" duration="150"/>
   </animation>
  </tile>
  <tile id="363">
   <animation>
    <frame tileid="363" duration="150"/>
    <frame tileid="844" duration="150"/>
    <frame tileid="1325" duration="150"/>
    <frame tileid="1806" duration="150"/>
    <frame tileid="2287" duration="150"/>
    <frame tileid="2768" duration="150"/>
   </animation>
  </tile>
  <tile id="370">
   <animation>
    <frame tileid="370" duration="150"/>
    <frame tileid="851" duration="150"/>
    <frame tileid="1332" duration="150"/>
    <frame tileid="1813" duration="150"/>
    <frame tileid="2294" duration="150"/>
    <frame tileid="2775" duration="150"/>
   </animation>
  </tile>
  <tile id="371">
   <animation>
    <frame tileid="371" duration="150"/>
    <frame tileid="852" duration="150"/>
    <frame tileid="1333" duration="150"/>
    <frame tileid="1814" duration="150"/>
    <frame tileid="2295" duration="150"/>
    <frame tileid="2776" duration="150"/>
   </animation>
  </tile>
  <tile id="372">
   <animation>
    <frame tileid="372" duration="150"/>
    <frame tileid="853" duration="150"/>
    <frame tileid="1334" duration="150"/>
    <frame tileid="1815" duration="150"/>
    <frame tileid="2296" duration="150"/>
    <frame tileid="2777" duration="150"/>
   </animation>
  </tile>
  <tile id="373">
   <animation>
    <frame tileid="373" duration="150"/>
    <frame tileid="854" duration="150"/>
    <frame tileid="1335" duration="150"/>
    <frame tileid="1816" duration="150"/>
    <frame tileid="2297" duration="150"/>
    <frame tileid="2778" duration="150"/>
   </animation>
  </tile>
  <tile id="374">
   <animation>
    <frame tileid="374" duration="150"/>
    <frame tileid="855" duration="150"/>
    <frame tileid="1336" duration="150"/>
    <frame tileid="1817" duration="150"/>
    <frame tileid="2298" duration="150"/>
    <frame tileid="2779" duration="150"/>
   </animation>
  </tile>
  <tile id="375">
   <animation>
    <frame tileid="375" duration="150"/>
    <frame tileid="856" duration="150"/>
    <frame tileid="1337" duration="150"/>
    <frame tileid="1818" duration="150"/>
    <frame tileid="2299" duration="150"/>
    <frame tileid="2780" duration="150"/>
   </animation>
  </tile>
  <tile id="376">
   <animation>
    <frame tileid="376" duration="150"/>
    <frame tileid="857" duration="150"/>
    <frame tileid="1338" duration="150"/>
    <frame tileid="1819" duration="150"/>
    <frame tileid="2300" duration="150"/>
    <frame tileid="2781" duration="150"/>
   </animation>
  </tile>
  <tile id="377">
   <animation>
    <frame tileid="377" duration="150"/>
    <frame tileid="858" duration="150"/>
    <frame tileid="1339" duration="150"/>
    <frame tileid="1820" duration="150"/>
    <frame tileid="2301" duration="150"/>
    <frame tileid="2782" duration="150"/>
   </animation>
  </tile>
  <tile id="378">
   <animation>
    <frame tileid="380" duration="150"/>
    <frame tileid="861" duration="150"/>
    <frame tileid="1342" duration="150"/>
    <frame tileid="1823" duration="150"/>
    <frame tileid="2304" duration="150"/>
    <frame tileid="2785" duration="150"/>
   </animation>
  </tile>
  <tile id="379">
   <animation>
    <frame tileid="379" duration="150"/>
    <frame tileid="860" duration="150"/>
    <frame tileid="1341" duration="150"/>
    <frame tileid="1822" duration="150"/>
    <frame tileid="2303" duration="150"/>
    <frame tileid="2784" duration="150"/>
   </animation>
  </tile>
  <tile id="380">
   <animation>
    <frame tileid="380" duration="150"/>
    <frame tileid="861" duration="150"/>
    <frame tileid="1342" duration="150"/>
    <frame tileid="1823" duration="150"/>
    <frame tileid="2304" duration="150"/>
    <frame tileid="2785" duration="150"/>
   </animation>
  </tile>
  <tile id="381">
   <animation>
    <frame tileid="381" duration="150"/>
    <frame tileid="862" duration="150"/>
    <frame tileid="1343" duration="150"/>
    <frame tileid="1824" duration="150"/>
    <frame tileid="2305" duration="150"/>
    <frame tileid="2786" duration="150"/>
   </animation>
  </tile>
  <tile id="382">
   <animation>
    <frame tileid="382" duration="150"/>
    <frame tileid="863" duration="150"/>
    <frame tileid="1344" duration="150"/>
    <frame tileid="1825" duration="150"/>
    <frame tileid="2306" duration="150"/>
    <frame tileid="2787" duration="150"/>
   </animation>
  </tile>
  <tile id="383">
   <animation>
    <frame tileid="383" duration="150"/>
    <frame tileid="864" duration="150"/>
    <frame tileid="1345" duration="150"/>
    <frame tileid="1826" duration="150"/>
    <frame tileid="2307" duration="150"/>
    <frame tileid="2788" duration="150"/>
   </animation>
  </tile>
 </tileset>
 <tileset firstgid="4684" name="Water_coasts_animation_decorative_cracks" tilewidth="16" tileheight="16" tilecount="475" columns="19">
  <image source="decorative_cracks_coasts_animation.png" width="304" height="400"/>
  <tile id="20">
   <animation>
    <frame tileid="20" duration="150"/>
    <frame tileid="29" duration="150"/>
    <frame tileid="172" duration="150"/>
    <frame tileid="181" duration="150"/>
    <frame tileid="324" duration="150"/>
    <frame tileid="333" duration="150"/>
   </animation>
  </tile>
  <tile id="21">
   <animation>
    <frame tileid="21" duration="150"/>
    <frame tileid="30" duration="150"/>
    <frame tileid="173" duration="150"/>
    <frame tileid="182" duration="150"/>
    <frame tileid="325" duration="150"/>
    <frame tileid="334" duration="150"/>
   </animation>
  </tile>
  <tile id="22">
   <animation>
    <frame tileid="22" duration="150"/>
    <frame tileid="31" duration="150"/>
    <frame tileid="174" duration="150"/>
    <frame tileid="183" duration="150"/>
    <frame tileid="326" duration="150"/>
    <frame tileid="335" duration="150"/>
   </animation>
  </tile>
  <tile id="23">
   <animation>
    <frame tileid="23" duration="150"/>
    <frame tileid="32" duration="150"/>
    <frame tileid="175" duration="150"/>
    <frame tileid="184" duration="150"/>
    <frame tileid="327" duration="150"/>
    <frame tileid="336" duration="150"/>
   </animation>
  </tile>
  <tile id="24">
   <animation>
    <frame tileid="24" duration="150"/>
    <frame tileid="33" duration="150"/>
    <frame tileid="176" duration="150"/>
    <frame tileid="185" duration="150"/>
    <frame tileid="328" duration="150"/>
    <frame tileid="337" duration="150"/>
   </animation>
  </tile>
  <tile id="25">
   <animation>
    <frame tileid="25" duration="150"/>
    <frame tileid="34" duration="150"/>
    <frame tileid="177" duration="150"/>
    <frame tileid="186" duration="150"/>
    <frame tileid="329" duration="150"/>
    <frame tileid="338" duration="150"/>
   </animation>
  </tile>
  <tile id="26">
   <animation>
    <frame tileid="26" duration="150"/>
    <frame tileid="35" duration="150"/>
    <frame tileid="178" duration="150"/>
    <frame tileid="187" duration="150"/>
    <frame tileid="330" duration="150"/>
    <frame tileid="339" duration="150"/>
   </animation>
  </tile>
  <tile id="27">
   <animation>
    <frame tileid="27" duration="150"/>
    <frame tileid="36" duration="150"/>
    <frame tileid="179" duration="150"/>
    <frame tileid="188" duration="150"/>
    <frame tileid="331" duration="150"/>
    <frame tileid="340" duration="150"/>
   </animation>
  </tile>
  <tile id="39">
   <animation>
    <frame tileid="39" duration="150"/>
    <frame tileid="48" duration="150"/>
    <frame tileid="191" duration="150"/>
    <frame tileid="200" duration="150"/>
    <frame tileid="343" duration="150"/>
    <frame tileid="352" duration="150"/>
   </animation>
  </tile>
  <tile id="40">
   <animation>
    <frame tileid="40" duration="150"/>
    <frame tileid="49" duration="150"/>
    <frame tileid="192" duration="150"/>
    <frame tileid="201" duration="150"/>
    <frame tileid="344" duration="150"/>
    <frame tileid="353" duration="150"/>
   </animation>
  </tile>
  <tile id="41">
   <animation>
    <frame tileid="41" duration="150"/>
    <frame tileid="50" duration="150"/>
    <frame tileid="193" duration="150"/>
    <frame tileid="202" duration="150"/>
    <frame tileid="345" duration="150"/>
    <frame tileid="354" duration="150"/>
   </animation>
  </tile>
  <tile id="42">
   <animation>
    <frame tileid="42" duration="150"/>
    <frame tileid="51" duration="150"/>
    <frame tileid="194" duration="150"/>
    <frame tileid="203" duration="150"/>
    <frame tileid="346" duration="150"/>
    <frame tileid="355" duration="150"/>
   </animation>
  </tile>
  <tile id="43">
   <animation>
    <frame tileid="43" duration="150"/>
    <frame tileid="52" duration="150"/>
    <frame tileid="195" duration="150"/>
    <frame tileid="204" duration="150"/>
    <frame tileid="347" duration="150"/>
    <frame tileid="356" duration="150"/>
   </animation>
  </tile>
  <tile id="44">
   <animation>
    <frame tileid="44" duration="150"/>
    <frame tileid="53" duration="150"/>
    <frame tileid="196" duration="150"/>
    <frame tileid="205" duration="150"/>
    <frame tileid="348" duration="150"/>
    <frame tileid="357" duration="150"/>
   </animation>
  </tile>
  <tile id="45">
   <animation>
    <frame tileid="45" duration="150"/>
    <frame tileid="54" duration="150"/>
    <frame tileid="197" duration="150"/>
    <frame tileid="206" duration="150"/>
    <frame tileid="349" duration="150"/>
    <frame tileid="358" duration="150"/>
   </animation>
  </tile>
  <tile id="46">
   <animation>
    <frame tileid="46" duration="150"/>
    <frame tileid="55" duration="150"/>
    <frame tileid="198" duration="150"/>
    <frame tileid="207" duration="150"/>
    <frame tileid="350" duration="150"/>
    <frame tileid="359" duration="150"/>
   </animation>
  </tile>
  <tile id="58">
   <animation>
    <frame tileid="58" duration="150"/>
    <frame tileid="67" duration="150"/>
    <frame tileid="210" duration="150"/>
    <frame tileid="219" duration="150"/>
    <frame tileid="362" duration="150"/>
    <frame tileid="371" duration="150"/>
   </animation>
  </tile>
  <tile id="59">
   <animation>
    <frame tileid="59" duration="150"/>
    <frame tileid="68" duration="150"/>
    <frame tileid="211" duration="150"/>
    <frame tileid="220" duration="150"/>
    <frame tileid="363" duration="150"/>
    <frame tileid="372" duration="150"/>
   </animation>
  </tile>
  <tile id="60">
   <animation>
    <frame tileid="60" duration="150"/>
    <frame tileid="69" duration="150"/>
    <frame tileid="212" duration="150"/>
    <frame tileid="221" duration="150"/>
    <frame tileid="364" duration="150"/>
    <frame tileid="373" duration="150"/>
   </animation>
  </tile>
  <tile id="61">
   <animation>
    <frame tileid="61" duration="150"/>
    <frame tileid="70" duration="150"/>
    <frame tileid="213" duration="150"/>
    <frame tileid="222" duration="150"/>
    <frame tileid="365" duration="150"/>
    <frame tileid="374" duration="150"/>
   </animation>
  </tile>
  <tile id="62">
   <animation>
    <frame tileid="62" duration="150"/>
    <frame tileid="71" duration="150"/>
    <frame tileid="214" duration="150"/>
    <frame tileid="223" duration="150"/>
    <frame tileid="366" duration="150"/>
    <frame tileid="375" duration="150"/>
   </animation>
  </tile>
  <tile id="63">
   <animation>
    <frame tileid="63" duration="150"/>
    <frame tileid="72" duration="150"/>
    <frame tileid="215" duration="150"/>
    <frame tileid="224" duration="150"/>
    <frame tileid="367" duration="150"/>
    <frame tileid="376" duration="150"/>
   </animation>
  </tile>
  <tile id="64">
   <animation>
    <frame tileid="64" duration="150"/>
    <frame tileid="73" duration="150"/>
    <frame tileid="216" duration="150"/>
    <frame tileid="225" duration="150"/>
    <frame tileid="368" duration="150"/>
    <frame tileid="377" duration="150"/>
   </animation>
  </tile>
  <tile id="65">
   <animation>
    <frame tileid="65" duration="150"/>
    <frame tileid="74" duration="150"/>
    <frame tileid="217" duration="150"/>
    <frame tileid="226" duration="150"/>
    <frame tileid="369" duration="150"/>
    <frame tileid="378" duration="150"/>
   </animation>
  </tile>
  <tile id="77">
   <animation>
    <frame tileid="77" duration="150"/>
    <frame tileid="86" duration="150"/>
    <frame tileid="229" duration="150"/>
    <frame tileid="238" duration="150"/>
    <frame tileid="381" duration="150"/>
    <frame tileid="390" duration="150"/>
   </animation>
  </tile>
  <tile id="78">
   <animation>
    <frame tileid="78" duration="150"/>
    <frame tileid="87" duration="150"/>
    <frame tileid="230" duration="150"/>
    <frame tileid="239" duration="150"/>
    <frame tileid="382" duration="150"/>
    <frame tileid="391" duration="150"/>
   </animation>
  </tile>
  <tile id="79">
   <animation>
    <frame tileid="79" duration="150"/>
    <frame tileid="88" duration="150"/>
    <frame tileid="231" duration="150"/>
    <frame tileid="240" duration="150"/>
    <frame tileid="383" duration="150"/>
    <frame tileid="392" duration="150"/>
   </animation>
  </tile>
  <tile id="80">
   <animation>
    <frame tileid="80" duration="150"/>
    <frame tileid="89" duration="150"/>
    <frame tileid="232" duration="150"/>
    <frame tileid="241" duration="150"/>
    <frame tileid="384" duration="150"/>
    <frame tileid="393" duration="150"/>
   </animation>
  </tile>
  <tile id="81">
   <animation>
    <frame tileid="81" duration="150"/>
    <frame tileid="90" duration="150"/>
    <frame tileid="233" duration="150"/>
    <frame tileid="242" duration="150"/>
    <frame tileid="385" duration="150"/>
    <frame tileid="394" duration="150"/>
   </animation>
  </tile>
  <tile id="82">
   <animation>
    <frame tileid="82" duration="150"/>
    <frame tileid="91" duration="150"/>
    <frame tileid="234" duration="150"/>
    <frame tileid="243" duration="150"/>
    <frame tileid="386" duration="150"/>
    <frame tileid="395" duration="150"/>
   </animation>
  </tile>
  <tile id="83">
   <animation>
    <frame tileid="83" duration="150"/>
    <frame tileid="92" duration="150"/>
    <frame tileid="235" duration="150"/>
    <frame tileid="244" duration="150"/>
    <frame tileid="387" duration="150"/>
    <frame tileid="396" duration="150"/>
   </animation>
  </tile>
  <tile id="84">
   <animation>
    <frame tileid="84" duration="150"/>
    <frame tileid="93" duration="150"/>
    <frame tileid="236" duration="150"/>
    <frame tileid="245" duration="150"/>
    <frame tileid="388" duration="150"/>
    <frame tileid="397" duration="150"/>
   </animation>
  </tile>
  <tile id="96">
   <animation>
    <frame tileid="96" duration="150"/>
    <frame tileid="105" duration="150"/>
    <frame tileid="248" duration="150"/>
    <frame tileid="257" duration="150"/>
    <frame tileid="400" duration="150"/>
    <frame tileid="409" duration="150"/>
   </animation>
  </tile>
  <tile id="97">
   <animation>
    <frame tileid="97" duration="150"/>
    <frame tileid="106" duration="150"/>
    <frame tileid="249" duration="150"/>
    <frame tileid="258" duration="150"/>
    <frame tileid="401" duration="150"/>
    <frame tileid="410" duration="150"/>
   </animation>
  </tile>
  <tile id="98">
   <animation>
    <frame tileid="98" duration="150"/>
    <frame tileid="107" duration="150"/>
    <frame tileid="250" duration="150"/>
    <frame tileid="259" duration="150"/>
    <frame tileid="402" duration="150"/>
    <frame tileid="411" duration="150"/>
   </animation>
  </tile>
  <tile id="99">
   <animation>
    <frame tileid="99" duration="150"/>
    <frame tileid="108" duration="150"/>
    <frame tileid="251" duration="150"/>
    <frame tileid="260" duration="150"/>
    <frame tileid="403" duration="150"/>
    <frame tileid="412" duration="150"/>
   </animation>
  </tile>
  <tile id="100">
   <animation>
    <frame tileid="100" duration="150"/>
    <frame tileid="109" duration="150"/>
    <frame tileid="252" duration="150"/>
    <frame tileid="261" duration="150"/>
    <frame tileid="404" duration="150"/>
    <frame tileid="413" duration="150"/>
   </animation>
  </tile>
  <tile id="101">
   <animation>
    <frame tileid="101" duration="150"/>
    <frame tileid="110" duration="150"/>
    <frame tileid="253" duration="150"/>
    <frame tileid="262" duration="150"/>
    <frame tileid="405" duration="150"/>
    <frame tileid="414" duration="150"/>
   </animation>
  </tile>
  <tile id="102">
   <animation>
    <frame tileid="102" duration="150"/>
    <frame tileid="111" duration="150"/>
    <frame tileid="254" duration="150"/>
    <frame tileid="263" duration="150"/>
    <frame tileid="406" duration="150"/>
    <frame tileid="415" duration="150"/>
   </animation>
  </tile>
  <tile id="103">
   <animation>
    <frame tileid="103" duration="150"/>
    <frame tileid="112" duration="150"/>
    <frame tileid="255" duration="150"/>
    <frame tileid="264" duration="150"/>
    <frame tileid="407" duration="150"/>
    <frame tileid="416" duration="150"/>
   </animation>
  </tile>
  <tile id="115">
   <animation>
    <frame tileid="115" duration="150"/>
    <frame tileid="124" duration="150"/>
    <frame tileid="267" duration="150"/>
    <frame tileid="276" duration="150"/>
    <frame tileid="419" duration="150"/>
    <frame tileid="428" duration="150"/>
   </animation>
  </tile>
  <tile id="116">
   <animation>
    <frame tileid="116" duration="150"/>
    <frame tileid="125" duration="150"/>
    <frame tileid="268" duration="150"/>
    <frame tileid="277" duration="150"/>
    <frame tileid="420" duration="150"/>
    <frame tileid="429" duration="150"/>
   </animation>
  </tile>
  <tile id="117">
   <animation>
    <frame tileid="117" duration="150"/>
    <frame tileid="126" duration="150"/>
    <frame tileid="269" duration="150"/>
    <frame tileid="278" duration="150"/>
    <frame tileid="421" duration="150"/>
    <frame tileid="430" duration="150"/>
   </animation>
  </tile>
  <tile id="118">
   <animation>
    <frame tileid="118" duration="150"/>
    <frame tileid="127" duration="150"/>
    <frame tileid="270" duration="150"/>
    <frame tileid="279" duration="150"/>
    <frame tileid="422" duration="150"/>
    <frame tileid="431" duration="150"/>
   </animation>
  </tile>
  <tile id="119">
   <animation>
    <frame tileid="119" duration="150"/>
    <frame tileid="128" duration="150"/>
    <frame tileid="271" duration="150"/>
    <frame tileid="280" duration="150"/>
    <frame tileid="423" duration="150"/>
    <frame tileid="432" duration="150"/>
   </animation>
  </tile>
  <tile id="120">
   <animation>
    <frame tileid="120" duration="150"/>
    <frame tileid="129" duration="150"/>
    <frame tileid="272" duration="150"/>
    <frame tileid="281" duration="150"/>
    <frame tileid="424" duration="150"/>
    <frame tileid="433" duration="150"/>
   </animation>
  </tile>
  <tile id="121">
   <animation>
    <frame tileid="121" duration="150"/>
    <frame tileid="130" duration="150"/>
    <frame tileid="273" duration="150"/>
    <frame tileid="282" duration="150"/>
    <frame tileid="425" duration="150"/>
    <frame tileid="434" duration="150"/>
   </animation>
  </tile>
  <tile id="122">
   <animation>
    <frame tileid="122" duration="150"/>
    <frame tileid="131" duration="150"/>
    <frame tileid="274" duration="150"/>
    <frame tileid="283" duration="150"/>
    <frame tileid="426" duration="150"/>
    <frame tileid="435" duration="150"/>
   </animation>
  </tile>
  <tile id="134">
   <animation>
    <frame tileid="134" duration="150"/>
    <frame tileid="143" duration="150"/>
    <frame tileid="286" duration="150"/>
    <frame tileid="295" duration="150"/>
    <frame tileid="438" duration="150"/>
    <frame tileid="447" duration="150"/>
   </animation>
  </tile>
  <tile id="135">
   <animation>
    <frame tileid="135" duration="150"/>
    <frame tileid="144" duration="150"/>
    <frame tileid="287" duration="150"/>
    <frame tileid="296" duration="150"/>
    <frame tileid="439" duration="150"/>
    <frame tileid="448" duration="150"/>
   </animation>
  </tile>
  <tile id="136">
   <animation>
    <frame tileid="136" duration="150"/>
    <frame tileid="145" duration="150"/>
    <frame tileid="288" duration="150"/>
    <frame tileid="297" duration="150"/>
    <frame tileid="440" duration="150"/>
    <frame tileid="449" duration="150"/>
   </animation>
  </tile>
  <tile id="137">
   <animation>
    <frame tileid="137" duration="150"/>
    <frame tileid="146" duration="150"/>
    <frame tileid="289" duration="150"/>
    <frame tileid="298" duration="150"/>
    <frame tileid="441" duration="150"/>
    <frame tileid="450" duration="150"/>
   </animation>
  </tile>
  <tile id="138">
   <animation>
    <frame tileid="138" duration="150"/>
    <frame tileid="147" duration="150"/>
    <frame tileid="290" duration="150"/>
    <frame tileid="299" duration="150"/>
    <frame tileid="442" duration="150"/>
    <frame tileid="451" duration="150"/>
   </animation>
  </tile>
  <tile id="139">
   <animation>
    <frame tileid="139" duration="150"/>
    <frame tileid="148" duration="150"/>
    <frame tileid="291" duration="150"/>
    <frame tileid="300" duration="150"/>
    <frame tileid="443" duration="150"/>
    <frame tileid="452" duration="150"/>
   </animation>
  </tile>
  <tile id="140">
   <animation>
    <frame tileid="140" duration="150"/>
    <frame tileid="149" duration="150"/>
    <frame tileid="292" duration="150"/>
    <frame tileid="301" duration="150"/>
    <frame tileid="444" duration="150"/>
    <frame tileid="453" duration="150"/>
   </animation>
  </tile>
  <tile id="141">
   <animation>
    <frame tileid="141" duration="150"/>
    <frame tileid="150" duration="150"/>
    <frame tileid="293" duration="150"/>
    <frame tileid="302" duration="150"/>
    <frame tileid="445" duration="150"/>
    <frame tileid="454" duration="150"/>
   </animation>
  </tile>
 </tileset>
 <tileset firstgid="5159" name="fire_animation" tilewidth="16" tileheight="16" tilecount="198" columns="11">
  <image source="fire_animation.png" width="176" height="288"/>
  <tile id="0">
   <animation>
    <frame tileid="0" duration="150"/>
    <frame tileid="33" duration="150"/>
    <frame tileid="66" duration="150"/>
    <frame tileid="99" duration="150"/>
    <frame tileid="132" duration="150"/>
    <frame tileid="165" duration="150"/>
   </animation>
  </tile>
  <tile id="1">
   <animation>
    <frame tileid="1" duration="150"/>
    <frame tileid="34" duration="150"/>
    <frame tileid="67" duration="150"/>
    <frame tileid="100" duration="150"/>
    <frame tileid="133" duration="150"/>
    <frame tileid="166" duration="150"/>
   </animation>
  </tile>
  <tile id="2">
   <animation>
    <frame tileid="2" duration="150"/>
    <frame tileid="35" duration="150"/>
    <frame tileid="68" duration="150"/>
    <frame tileid="101" duration="150"/>
    <frame tileid="134" duration="150"/>
    <frame tileid="167" duration="150"/>
   </animation>
  </tile>
  <tile id="3">
   <animation>
    <frame tileid="3" duration="150"/>
    <frame tileid="36" duration="150"/>
    <frame tileid="69" duration="150"/>
    <frame tileid="102" duration="150"/>
    <frame tileid="135" duration="150"/>
    <frame tileid="168" duration="150"/>
   </animation>
  </tile>
  <tile id="4">
   <animation>
    <frame tileid="4" duration="150"/>
    <frame tileid="37" duration="150"/>
    <frame tileid="70" duration="150"/>
    <frame tileid="103" duration="150"/>
    <frame tileid="136" duration="150"/>
    <frame tileid="169" duration="150"/>
   </animation>
  </tile>
  <tile id="5">
   <animation>
    <frame tileid="5" duration="150"/>
    <frame tileid="38" duration="150"/>
    <frame tileid="71" duration="150"/>
    <frame tileid="104" duration="150"/>
    <frame tileid="137" duration="150"/>
    <frame tileid="170" duration="150"/>
   </animation>
  </tile>
  <tile id="6">
   <animation>
    <frame tileid="6" duration="150"/>
    <frame tileid="39" duration="150"/>
    <frame tileid="72" duration="150"/>
    <frame tileid="105" duration="150"/>
    <frame tileid="138" duration="150"/>
    <frame tileid="171" duration="150"/>
   </animation>
  </tile>
  <tile id="7">
   <animation>
    <frame tileid="7" duration="150"/>
    <frame tileid="40" duration="150"/>
    <frame tileid="73" duration="150"/>
    <frame tileid="106" duration="150"/>
    <frame tileid="139" duration="150"/>
    <frame tileid="172" duration="150"/>
   </animation>
  </tile>
  <tile id="8">
   <animation>
    <frame tileid="8" duration="150"/>
    <frame tileid="41" duration="150"/>
    <frame tileid="74" duration="150"/>
    <frame tileid="107" duration="150"/>
    <frame tileid="140" duration="150"/>
    <frame tileid="173" duration="150"/>
   </animation>
  </tile>
  <tile id="9">
   <animation>
    <frame tileid="9" duration="150"/>
    <frame tileid="42" duration="150"/>
    <frame tileid="75" duration="150"/>
    <frame tileid="108" duration="150"/>
    <frame tileid="141" duration="150"/>
    <frame tileid="174" duration="150"/>
   </animation>
  </tile>
  <tile id="10">
   <animation>
    <frame tileid="10" duration="150"/>
    <frame tileid="43" duration="150"/>
    <frame tileid="76" duration="150"/>
    <frame tileid="109" duration="150"/>
    <frame tileid="142" duration="150"/>
    <frame tileid="175" duration="150"/>
   </animation>
  </tile>
  <tile id="11">
   <animation>
    <frame tileid="11" duration="150"/>
    <frame tileid="44" duration="150"/>
    <frame tileid="77" duration="150"/>
    <frame tileid="110" duration="150"/>
    <frame tileid="143" duration="150"/>
    <frame tileid="176" duration="150"/>
   </animation>
  </tile>
  <tile id="12">
   <animation>
    <frame tileid="12" duration="150"/>
    <frame tileid="45" duration="150"/>
    <frame tileid="78" duration="150"/>
    <frame tileid="111" duration="150"/>
    <frame tileid="144" duration="150"/>
    <frame tileid="177" duration="150"/>
   </animation>
  </tile>
  <tile id="13">
   <animation>
    <frame tileid="13" duration="150"/>
    <frame tileid="46" duration="150"/>
    <frame tileid="79" duration="150"/>
    <frame tileid="112" duration="150"/>
    <frame tileid="145" duration="150"/>
    <frame tileid="178" duration="150"/>
   </animation>
  </tile>
  <tile id="14">
   <animation>
    <frame tileid="14" duration="150"/>
    <frame tileid="47" duration="150"/>
    <frame tileid="80" duration="150"/>
    <frame tileid="113" duration="150"/>
    <frame tileid="146" duration="150"/>
    <frame tileid="179" duration="150"/>
   </animation>
  </tile>
  <tile id="15">
   <animation>
    <frame tileid="15" duration="150"/>
    <frame tileid="48" duration="150"/>
    <frame tileid="81" duration="150"/>
    <frame tileid="114" duration="150"/>
    <frame tileid="147" duration="150"/>
    <frame tileid="180" duration="150"/>
   </animation>
  </tile>
  <tile id="16">
   <animation>
    <frame tileid="16" duration="150"/>
    <frame tileid="49" duration="150"/>
    <frame tileid="82" duration="150"/>
    <frame tileid="115" duration="150"/>
    <frame tileid="148" duration="150"/>
    <frame tileid="181" duration="150"/>
   </animation>
  </tile>
  <tile id="17">
   <animation>
    <frame tileid="17" duration="150"/>
    <frame tileid="50" duration="150"/>
    <frame tileid="83" duration="150"/>
    <frame tileid="116" duration="150"/>
    <frame tileid="149" duration="150"/>
    <frame tileid="182" duration="150"/>
   </animation>
  </tile>
  <tile id="18">
   <animation>
    <frame tileid="18" duration="150"/>
    <frame tileid="51" duration="150"/>
    <frame tileid="84" duration="150"/>
    <frame tileid="117" duration="150"/>
    <frame tileid="150" duration="150"/>
    <frame tileid="183" duration="150"/>
   </animation>
  </tile>
  <tile id="19">
   <animation>
    <frame tileid="19" duration="150"/>
    <frame tileid="52" duration="150"/>
    <frame tileid="85" duration="150"/>
    <frame tileid="118" duration="150"/>
    <frame tileid="151" duration="150"/>
    <frame tileid="184" duration="150"/>
   </animation>
  </tile>
  <tile id="20">
   <animation>
    <frame tileid="20" duration="150"/>
    <frame tileid="53" duration="150"/>
    <frame tileid="86" duration="150"/>
    <frame tileid="119" duration="150"/>
    <frame tileid="152" duration="150"/>
    <frame tileid="185" duration="150"/>
   </animation>
  </tile>
  <tile id="21">
   <animation>
    <frame tileid="21" duration="150"/>
    <frame tileid="54" duration="150"/>
    <frame tileid="87" duration="150"/>
    <frame tileid="120" duration="150"/>
    <frame tileid="153" duration="150"/>
    <frame tileid="186" duration="150"/>
   </animation>
  </tile>
  <tile id="22">
   <animation>
    <frame tileid="22" duration="150"/>
    <frame tileid="55" duration="150"/>
    <frame tileid="88" duration="150"/>
    <frame tileid="121" duration="150"/>
    <frame tileid="154" duration="150"/>
    <frame tileid="187" duration="150"/>
   </animation>
  </tile>
  <tile id="23">
   <animation>
    <frame tileid="23" duration="150"/>
    <frame tileid="56" duration="150"/>
    <frame tileid="89" duration="150"/>
    <frame tileid="122" duration="150"/>
    <frame tileid="155" duration="150"/>
    <frame tileid="188" duration="150"/>
   </animation>
  </tile>
  <tile id="24">
   <animation>
    <frame tileid="24" duration="150"/>
    <frame tileid="57" duration="150"/>
    <frame tileid="90" duration="150"/>
    <frame tileid="123" duration="150"/>
    <frame tileid="156" duration="150"/>
    <frame tileid="189" duration="150"/>
   </animation>
  </tile>
  <tile id="25">
   <animation>
    <frame tileid="25" duration="150"/>
    <frame tileid="58" duration="150"/>
    <frame tileid="91" duration="150"/>
    <frame tileid="124" duration="150"/>
    <frame tileid="157" duration="150"/>
    <frame tileid="190" duration="150"/>
   </animation>
  </tile>
  <tile id="26">
   <animation>
    <frame tileid="26" duration="150"/>
    <frame tileid="59" duration="150"/>
    <frame tileid="92" duration="150"/>
    <frame tileid="125" duration="150"/>
    <frame tileid="158" duration="150"/>
    <frame tileid="191" duration="150"/>
   </animation>
  </tile>
  <tile id="27">
   <animation>
    <frame tileid="27" duration="150"/>
    <frame tileid="60" duration="150"/>
    <frame tileid="93" duration="150"/>
    <frame tileid="126" duration="150"/>
    <frame tileid="159" duration="150"/>
    <frame tileid="192" duration="150"/>
   </animation>
  </tile>
  <tile id="28">
   <animation>
    <frame tileid="28" duration="150"/>
    <frame tileid="61" duration="150"/>
    <frame tileid="94" duration="150"/>
    <frame tileid="127" duration="150"/>
    <frame tileid="160" duration="150"/>
    <frame tileid="193" duration="150"/>
   </animation>
  </tile>
  <tile id="29">
   <animation>
    <frame tileid="29" duration="150"/>
    <frame tileid="62" duration="150"/>
    <frame tileid="95" duration="150"/>
    <frame tileid="128" duration="150"/>
    <frame tileid="161" duration="150"/>
    <frame tileid="194" duration="150"/>
   </animation>
  </tile>
  <tile id="30">
   <animation>
    <frame tileid="30" duration="150"/>
    <frame tileid="63" duration="150"/>
    <frame tileid="96" duration="150"/>
    <frame tileid="129" duration="150"/>
    <frame tileid="162" duration="150"/>
    <frame tileid="195" duration="150"/>
   </animation>
  </tile>
  <tile id="31">
   <animation>
    <frame tileid="31" duration="150"/>
    <frame tileid="64" duration="150"/>
    <frame tileid="97" duration="150"/>
    <frame tileid="130" duration="150"/>
    <frame tileid="163" duration="150"/>
    <frame tileid="196" duration="150"/>
   </animation>
  </tile>
  <tile id="32">
   <animation>
    <frame tileid="32" duration="150"/>
    <frame tileid="65" duration="150"/>
    <frame tileid="98" duration="150"/>
    <frame tileid="131" duration="150"/>
    <frame tileid="164" duration="150"/>
    <frame tileid="197" duration="150"/>
   </animation>
  </tile>
 </tileset>
 <tileset firstgid="5357" name="fire_animation2" tilewidth="16" tileheight="16" tilecount="72" columns="6">
  <image source="fire_animation2.png" width="96" height="192"/>
  <tile id="0">
   <animation>
    <frame tileid="0" duration="150"/>
    <frame tileid="24" duration="150"/>
    <frame tileid="48" duration="150"/>
   </animation>
  </tile>
  <tile id="1">
   <animation>
    <frame tileid="1" duration="150"/>
    <frame tileid="25" duration="150"/>
    <frame tileid="49" duration="150"/>
   </animation>
  </tile>
  <tile id="2">
   <animation>
    <frame tileid="2" duration="150"/>
    <frame tileid="26" duration="150"/>
    <frame tileid="50" duration="150"/>
   </animation>
  </tile>
  <tile id="3">
   <animation>
    <frame tileid="3" duration="150"/>
    <frame tileid="27" duration="150"/>
    <frame tileid="51" duration="150"/>
   </animation>
  </tile>
  <tile id="4">
   <animation>
    <frame tileid="4" duration="150"/>
    <frame tileid="28" duration="150"/>
    <frame tileid="52" duration="150"/>
   </animation>
  </tile>
  <tile id="5">
   <animation>
    <frame tileid="5" duration="150"/>
    <frame tileid="29" duration="150"/>
    <frame tileid="53" duration="150"/>
   </animation>
  </tile>
  <tile id="6">
   <animation>
    <frame tileid="6" duration="150"/>
    <frame tileid="30" duration="150"/>
    <frame tileid="54" duration="150"/>
   </animation>
  </tile>
  <tile id="7">
   <animation>
    <frame tileid="7" duration="150"/>
    <frame tileid="31" duration="150"/>
    <frame tileid="55" duration="150"/>
   </animation>
  </tile>
  <tile id="8">
   <animation>
    <frame tileid="8" duration="150"/>
    <frame tileid="32" duration="150"/>
    <frame tileid="56" duration="150"/>
   </animation>
  </tile>
  <tile id="9">
   <animation>
    <frame tileid="9" duration="150"/>
    <frame tileid="33" duration="150"/>
    <frame tileid="57" duration="150"/>
   </animation>
  </tile>
  <tile id="10">
   <animation>
    <frame tileid="10" duration="150"/>
    <frame tileid="34" duration="150"/>
    <frame tileid="58" duration="150"/>
   </animation>
  </tile>
  <tile id="11">
   <animation>
    <frame tileid="11" duration="150"/>
    <frame tileid="35" duration="150"/>
    <frame tileid="59" duration="150"/>
   </animation>
  </tile>
  <tile id="12">
   <animation>
    <frame tileid="12" duration="150"/>
    <frame tileid="36" duration="150"/>
    <frame tileid="60" duration="150"/>
   </animation>
  </tile>
  <tile id="13">
   <animation>
    <frame tileid="13" duration="150"/>
    <frame tileid="37" duration="150"/>
    <frame tileid="61" duration="150"/>
   </animation>
  </tile>
  <tile id="14">
   <animation>
    <frame tileid="14" duration="150"/>
    <frame tileid="38" duration="150"/>
    <frame tileid="62" duration="150"/>
   </animation>
  </tile>
  <tile id="15">
   <animation>
    <frame tileid="15" duration="150"/>
    <frame tileid="39" duration="150"/>
    <frame tileid="63" duration="150"/>
   </animation>
  </tile>
  <tile id="16">
   <animation>
    <frame tileid="16" duration="150"/>
    <frame tileid="40" duration="150"/>
    <frame tileid="64" duration="150"/>
   </animation>
  </tile>
  <tile id="17">
   <animation>
    <frame tileid="17" duration="150"/>
    <frame tileid="41" duration="150"/>
    <frame tileid="65" duration="150"/>
   </animation>
  </tile>
  <tile id="18">
   <animation>
    <frame tileid="18" duration="150"/>
    <frame tileid="42" duration="150"/>
    <frame tileid="66" duration="150"/>
   </animation>
  </tile>
  <tile id="19">
   <animation>
    <frame tileid="19" duration="150"/>
    <frame tileid="43" duration="150"/>
    <frame tileid="67" duration="150"/>
   </animation>
  </tile>
  <tile id="20">
   <animation>
    <frame tileid="20" duration="150"/>
    <frame tileid="44" duration="150"/>
    <frame tileid="68" duration="150"/>
   </animation>
  </tile>
  <tile id="21">
   <animation>
    <frame tileid="21" duration="150"/>
    <frame tileid="45" duration="150"/>
    <frame tileid="69" duration="150"/>
   </animation>
  </tile>
  <tile id="22">
   <animation>
    <frame tileid="22" duration="150"/>
    <frame tileid="46" duration="150"/>
    <frame tileid="70" duration="150"/>
   </animation>
  </tile>
  <tile id="23">
   <animation>
    <frame tileid="23" duration="150"/>
    <frame tileid="47" duration="150"/>
    <frame tileid="71" duration="150"/>
   </animation>
  </tile>
 </tileset>
 <tileset firstgid="5429" name="doors_lever_chest_animation" tilewidth="16" tileheight="16" tilecount="150" columns="10">
  <image source="doors_lever_chest_animation.png" width="160" height="240"/>
  <tile id="0">
   <animation>
    <frame tileid="0" duration="450"/>
    <frame tileid="30" duration="150"/>
    <frame tileid="60" duration="150"/>
    <frame tileid="90" duration="150"/>
    <frame tileid="120" duration="450"/>
    <frame tileid="90" duration="150"/>
    <frame tileid="60" duration="150"/>
    <frame tileid="30" duration="150"/>
   </animation>
  </tile>
  <tile id="8">
   <animation>
    <frame tileid="8" duration="450"/>
    <frame tileid="38" duration="150"/>
    <frame tileid="68" duration="150"/>
    <frame tileid="98" duration="150"/>
    <frame tileid="128" duration="450"/>
    <frame tileid="98" duration="150"/>
    <frame tileid="68" duration="150"/>
    <frame tileid="38" duration="150"/>
   </animation>
  </tile>
  <tile id="9">
   <animation>
    <frame tileid="9" duration="450"/>
    <frame tileid="39" duration="150"/>
    <frame tileid="69" duration="150"/>
    <frame tileid="99" duration="150"/>
    <frame tileid="129" duration="450"/>
    <frame tileid="99" duration="150"/>
    <frame tileid="69" duration="150"/>
    <frame tileid="39" duration="150"/>
   </animation>
  </tile>
  <tile id="10">
   <animation>
    <frame tileid="10" duration="450"/>
    <frame tileid="40" duration="150"/>
    <frame tileid="70" duration="150"/>
    <frame tileid="100" duration="150"/>
    <frame tileid="130" duration="450"/>
    <frame tileid="100" duration="150"/>
    <frame tileid="70" duration="150"/>
    <frame tileid="40" duration="150"/>
   </animation>
  </tile>
  <tile id="11">
   <animation>
    <frame tileid="11" duration="450"/>
    <frame tileid="41" duration="150"/>
    <frame tileid="71" duration="150"/>
    <frame tileid="101" duration="150"/>
    <frame tileid="131" duration="450"/>
    <frame tileid="101" duration="150"/>
    <frame tileid="71" duration="150"/>
    <frame tileid="41" duration="150"/>
   </animation>
  </tile>
  <tile id="12">
   <animation>
    <frame tileid="12" duration="450"/>
    <frame tileid="42" duration="150"/>
    <frame tileid="72" duration="150"/>
    <frame tileid="102" duration="150"/>
    <frame tileid="132" duration="450"/>
    <frame tileid="102" duration="150"/>
    <frame tileid="72" duration="150"/>
    <frame tileid="42" duration="150"/>
   </animation>
  </tile>
  <tile id="13">
   <animation>
    <frame tileid="13" duration="450"/>
    <frame tileid="43" duration="150"/>
    <frame tileid="73" duration="150"/>
    <frame tileid="103" duration="150"/>
    <frame tileid="133" duration="450"/>
    <frame tileid="103" duration="150"/>
    <frame tileid="73" duration="150"/>
    <frame tileid="43" duration="150"/>
   </animation>
  </tile>
  <tile id="14">
   <animation>
    <frame tileid="14" duration="450"/>
    <frame tileid="44" duration="150"/>
    <frame tileid="74" duration="150"/>
    <frame tileid="104" duration="150"/>
    <frame tileid="134" duration="450"/>
    <frame tileid="104" duration="150"/>
    <frame tileid="74" duration="150"/>
    <frame tileid="44" duration="150"/>
   </animation>
  </tile>
  <tile id="15">
   <animation>
    <frame tileid="15" duration="450"/>
    <frame tileid="45" duration="150"/>
    <frame tileid="75" duration="150"/>
    <frame tileid="105" duration="150"/>
    <frame tileid="135" duration="450"/>
    <frame tileid="105" duration="150"/>
    <frame tileid="75" duration="150"/>
    <frame tileid="45" duration="150"/>
   </animation>
  </tile>
  <tile id="16">
   <animation>
    <frame tileid="16" duration="450"/>
    <frame tileid="46" duration="150"/>
    <frame tileid="76" duration="150"/>
    <frame tileid="106" duration="150"/>
    <frame tileid="136" duration="450"/>
    <frame tileid="106" duration="150"/>
    <frame tileid="76" duration="150"/>
    <frame tileid="46" duration="150"/>
   </animation>
  </tile>
  <tile id="17">
   <animation>
    <frame tileid="17" duration="450"/>
    <frame tileid="47" duration="150"/>
    <frame tileid="77" duration="150"/>
    <frame tileid="107" duration="150"/>
    <frame tileid="137" duration="450"/>
    <frame tileid="107" duration="150"/>
    <frame tileid="77" duration="150"/>
    <frame tileid="47" duration="150"/>
   </animation>
  </tile>
  <tile id="18">
   <animation>
    <frame tileid="18" duration="450"/>
    <frame tileid="48" duration="150"/>
    <frame tileid="78" duration="150"/>
    <frame tileid="108" duration="150"/>
    <frame tileid="138" duration="450"/>
    <frame tileid="108" duration="150"/>
    <frame tileid="78" duration="150"/>
    <frame tileid="48" duration="150"/>
   </animation>
  </tile>
  <tile id="19">
   <animation>
    <frame tileid="19" duration="450"/>
    <frame tileid="49" duration="150"/>
    <frame tileid="79" duration="150"/>
    <frame tileid="109" duration="150"/>
    <frame tileid="139" duration="450"/>
    <frame tileid="109" duration="150"/>
    <frame tileid="79" duration="150"/>
    <frame tileid="49" duration="150"/>
   </animation>
  </tile>
  <tile id="20">
   <animation>
    <frame tileid="20" duration="450"/>
    <frame tileid="50" duration="150"/>
    <frame tileid="80" duration="150"/>
    <frame tileid="110" duration="150"/>
    <frame tileid="140" duration="450"/>
    <frame tileid="110" duration="150"/>
    <frame tileid="80" duration="150"/>
    <frame tileid="50" duration="150"/>
   </animation>
  </tile>
  <tile id="21">
   <animation>
    <frame tileid="21" duration="450"/>
    <frame tileid="51" duration="150"/>
    <frame tileid="81" duration="150"/>
    <frame tileid="111" duration="150"/>
    <frame tileid="141" duration="450"/>
    <frame tileid="111" duration="150"/>
    <frame tileid="81" duration="150"/>
    <frame tileid="51" duration="150"/>
   </animation>
  </tile>
  <tile id="22">
   <animation>
    <frame tileid="22" duration="450"/>
    <frame tileid="52" duration="150"/>
    <frame tileid="82" duration="150"/>
    <frame tileid="112" duration="150"/>
    <frame tileid="142" duration="450"/>
    <frame tileid="112" duration="150"/>
    <frame tileid="82" duration="150"/>
    <frame tileid="52" duration="150"/>
   </animation>
  </tile>
  <tile id="23">
   <animation>
    <frame tileid="23" duration="450"/>
    <frame tileid="53" duration="150"/>
    <frame tileid="83" duration="150"/>
    <frame tileid="113" duration="150"/>
    <frame tileid="143" duration="450"/>
    <frame tileid="113" duration="150"/>
    <frame tileid="83" duration="150"/>
    <frame tileid="53" duration="150"/>
   </animation>
  </tile>
  <tile id="24">
   <animation>
    <frame tileid="24" duration="450"/>
    <frame tileid="54" duration="150"/>
    <frame tileid="84" duration="150"/>
    <frame tileid="114" duration="150"/>
    <frame tileid="144" duration="450"/>
    <frame tileid="114" duration="150"/>
    <frame tileid="84" duration="150"/>
    <frame tileid="54" duration="150"/>
   </animation>
  </tile>
  <tile id="25">
   <animation>
    <frame tileid="25" duration="450"/>
    <frame tileid="55" duration="150"/>
    <frame tileid="85" duration="150"/>
    <frame tileid="115" duration="150"/>
    <frame tileid="145" duration="450"/>
    <frame tileid="115" duration="150"/>
    <frame tileid="85" duration="150"/>
    <frame tileid="55" duration="150"/>
   </animation>
  </tile>
  <tile id="26">
   <animation>
    <frame tileid="26" duration="450"/>
    <frame tileid="56" duration="150"/>
    <frame tileid="86" duration="150"/>
    <frame tileid="116" duration="150"/>
    <frame tileid="146" duration="450"/>
    <frame tileid="116" duration="150"/>
    <frame tileid="86" duration="150"/>
    <frame tileid="56" duration="150"/>
   </animation>
  </tile>
  <tile id="27">
   <animation>
    <frame tileid="27" duration="450"/>
    <frame tileid="57" duration="150"/>
    <frame tileid="87" duration="150"/>
    <frame tileid="117" duration="150"/>
    <frame tileid="147" duration="450"/>
    <frame tileid="117" duration="150"/>
    <frame tileid="87" duration="150"/>
    <frame tileid="57" duration="150"/>
   </animation>
  </tile>
  <tile id="28">
   <animation>
    <frame tileid="28" duration="450"/>
    <frame tileid="58" duration="150"/>
    <frame tileid="88" duration="150"/>
    <frame tileid="118" duration="150"/>
    <frame tileid="148" duration="450"/>
    <frame tileid="118" duration="150"/>
    <frame tileid="88" duration="150"/>
    <frame tileid="58" duration="150"/>
   </animation>
  </tile>
  <tile id="29">
   <animation>
    <frame tileid="29" duration="450"/>
    <frame tileid="59" duration="150"/>
    <frame tileid="89" duration="150"/>
    <frame tileid="119" duration="150"/>
    <frame tileid="149" duration="450"/>
    <frame tileid="119" duration="150"/>
    <frame tileid="89" duration="150"/>
    <frame tileid="59" duration="150"/>
   </animation>
  </tile>
 </tileset>
 <tileset firstgid="5579" name="Objects" tilewidth="16" tileheight="16" tilecount="216" columns="24">
  <image source="Objects.png" width="384" height="144"/>
 </tileset>
 <tileset firstgid="5795" name="trap_animation" tilewidth="16" tileheight="16" tilecount="403" columns="13">
  <image source="trap_animation.png" width="208" height="496"/>
  <tile id="14">
   <animation>
    <frame tileid="14" duration="450"/>
    <frame tileid="92" duration="150"/>
    <frame tileid="170" duration="150"/>
    <frame tileid="248" duration="150"/>
    <frame tileid="326" duration="450"/>
    <frame tileid="248" duration="150"/>
    <frame tileid="170" duration="150"/>
    <frame tileid="92" duration="150"/>
   </animation>
  </tile>
  <tile id="15">
   <animation>
    <frame tileid="15" duration="450"/>
    <frame tileid="93" duration="150"/>
    <frame tileid="171" duration="150"/>
    <frame tileid="249" duration="150"/>
    <frame tileid="327" duration="450"/>
    <frame tileid="249" duration="150"/>
    <frame tileid="171" duration="150"/>
    <frame tileid="93" duration="150"/>
   </animation>
  </tile>
  <tile id="16">
   <animation>
    <frame tileid="16" duration="450"/>
    <frame tileid="94" duration="150"/>
    <frame tileid="172" duration="150"/>
    <frame tileid="250" duration="150"/>
    <frame tileid="328" duration="450"/>
    <frame tileid="250" duration="150"/>
    <frame tileid="172" duration="150"/>
    <frame tileid="94" duration="150"/>
   </animation>
  </tile>
  <tile id="18">
   <animation>
    <frame tileid="18" duration="450"/>
    <frame tileid="96" duration="150"/>
    <frame tileid="174" duration="150"/>
    <frame tileid="252" duration="150"/>
    <frame tileid="330" duration="450"/>
    <frame tileid="252" duration="150"/>
    <frame tileid="174" duration="150"/>
    <frame tileid="96" duration="150"/>
   </animation>
  </tile>
  <tile id="19">
   <animation>
    <frame tileid="19" duration="450"/>
    <frame tileid="97" duration="150"/>
    <frame tileid="175" duration="150"/>
    <frame tileid="253" duration="150"/>
    <frame tileid="331" duration="450"/>
    <frame tileid="253" duration="150"/>
    <frame tileid="175" duration="150"/>
    <frame tileid="97" duration="150"/>
   </animation>
  </tile>
  <tile id="20">
   <animation>
    <frame tileid="20" duration="450"/>
    <frame tileid="98" duration="150"/>
    <frame tileid="176" duration="150"/>
    <frame tileid="254" duration="150"/>
    <frame tileid="332" duration="450"/>
    <frame tileid="254" duration="150"/>
    <frame tileid="176" duration="150"/>
    <frame tileid="98" duration="150"/>
   </animation>
  </tile>
  <tile id="23">
   <animation>
    <frame tileid="23" duration="450"/>
    <frame tileid="101" duration="150"/>
    <frame tileid="179" duration="150"/>
    <frame tileid="257" duration="150"/>
    <frame tileid="335" duration="450"/>
    <frame tileid="257" duration="150"/>
    <frame tileid="179" duration="150"/>
    <frame tileid="101" duration="150"/>
   </animation>
  </tile>
  <tile id="27">
   <animation>
    <frame tileid="27" duration="450"/>
    <frame tileid="105" duration="150"/>
    <frame tileid="183" duration="150"/>
    <frame tileid="261" duration="150"/>
    <frame tileid="339" duration="450"/>
    <frame tileid="261" duration="150"/>
    <frame tileid="183" duration="150"/>
    <frame tileid="105" duration="150"/>
   </animation>
  </tile>
  <tile id="28">
   <animation>
    <frame tileid="28" duration="450"/>
    <frame tileid="106" duration="150"/>
    <frame tileid="184" duration="150"/>
    <frame tileid="262" duration="150"/>
    <frame tileid="340" duration="450"/>
    <frame tileid="262" duration="150"/>
    <frame tileid="184" duration="150"/>
    <frame tileid="106" duration="150"/>
   </animation>
  </tile>
  <tile id="29">
   <animation>
    <frame tileid="29" duration="450"/>
    <frame tileid="107" duration="150"/>
    <frame tileid="185" duration="150"/>
    <frame tileid="263" duration="150"/>
    <frame tileid="341" duration="450"/>
    <frame tileid="263" duration="150"/>
    <frame tileid="185" duration="150"/>
    <frame tileid="107" duration="150"/>
   </animation>
  </tile>
  <tile id="31">
   <animation>
    <frame tileid="31" duration="450"/>
    <frame tileid="109" duration="150"/>
    <frame tileid="187" duration="150"/>
    <frame tileid="265" duration="150"/>
    <frame tileid="343" duration="450"/>
    <frame tileid="265" duration="150"/>
    <frame tileid="187" duration="150"/>
    <frame tileid="109" duration="150"/>
   </animation>
  </tile>
  <tile id="32">
   <animation>
    <frame tileid="32" duration="450"/>
    <frame tileid="110" duration="150"/>
    <frame tileid="188" duration="150"/>
    <frame tileid="266" duration="150"/>
    <frame tileid="344" duration="450"/>
    <frame tileid="266" duration="150"/>
    <frame tileid="188" duration="150"/>
    <frame tileid="110" duration="150"/>
   </animation>
  </tile>
  <tile id="33">
   <animation>
    <frame tileid="33" duration="450"/>
    <frame tileid="111" duration="150"/>
    <frame tileid="189" duration="150"/>
    <frame tileid="267" duration="150"/>
    <frame tileid="345" duration="450"/>
    <frame tileid="267" duration="150"/>
    <frame tileid="189" duration="150"/>
    <frame tileid="111" duration="150"/>
   </animation>
  </tile>
  <tile id="35">
   <animation>
    <frame tileid="35" duration="450"/>
    <frame tileid="113" duration="150"/>
    <frame tileid="191" duration="150"/>
    <frame tileid="269" duration="150"/>
    <frame tileid="347" duration="450"/>
    <frame tileid="269" duration="150"/>
    <frame tileid="191" duration="150"/>
    <frame tileid="113" duration="150"/>
   </animation>
  </tile>
  <tile id="36">
   <animation>
    <frame tileid="36" duration="450"/>
    <frame tileid="114" duration="150"/>
    <frame tileid="192" duration="150"/>
    <frame tileid="270" duration="150"/>
    <frame tileid="348" duration="450"/>
    <frame tileid="270" duration="150"/>
    <frame tileid="192" duration="150"/>
    <frame tileid="114" duration="150"/>
   </animation>
  </tile>
  <tile id="37">
   <animation>
    <frame tileid="37" duration="450"/>
    <frame tileid="115" duration="150"/>
    <frame tileid="193" duration="150"/>
    <frame tileid="271" duration="150"/>
    <frame tileid="349" duration="450"/>
    <frame tileid="271" duration="150"/>
    <frame tileid="193" duration="150"/>
    <frame tileid="115" duration="150"/>
   </animation>
  </tile>
  <tile id="40">
   <animation>
    <frame tileid="40" duration="450"/>
    <frame tileid="118" duration="150"/>
    <frame tileid="196" duration="150"/>
    <frame tileid="274" duration="150"/>
    <frame tileid="352" duration="450"/>
    <frame tileid="274" duration="150"/>
    <frame tileid="196" duration="150"/>
    <frame tileid="118" duration="150"/>
   </animation>
  </tile>
  <tile id="42">
   <animation>
    <frame tileid="42" duration="450"/>
    <frame tileid="120" duration="150"/>
    <frame tileid="198" duration="150"/>
    <frame tileid="276" duration="150"/>
    <frame tileid="354" duration="450"/>
    <frame tileid="276" duration="150"/>
    <frame tileid="198" duration="150"/>
    <frame tileid="120" duration="150"/>
   </animation>
  </tile>
  <tile id="44">
   <animation>
    <frame tileid="44" duration="450"/>
    <frame tileid="122" duration="150"/>
    <frame tileid="200" duration="150"/>
    <frame tileid="278" duration="150"/>
    <frame tileid="356" duration="450"/>
    <frame tileid="278" duration="150"/>
    <frame tileid="200" duration="150"/>
    <frame tileid="122" duration="150"/>
   </animation>
  </tile>
  <tile id="45">
   <animation>
    <frame tileid="45" duration="450"/>
    <frame tileid="123" duration="150"/>
    <frame tileid="201" duration="150"/>
    <frame tileid="279" duration="150"/>
    <frame tileid="357" duration="450"/>
    <frame tileid="279" duration="150"/>
    <frame tileid="201" duration="150"/>
    <frame tileid="123" duration="150"/>
   </animation>
  </tile>
  <tile id="46">
   <animation>
    <frame tileid="46" duration="450"/>
    <frame tileid="124" duration="150"/>
    <frame tileid="202" duration="150"/>
    <frame tileid="280" duration="150"/>
    <frame tileid="358" duration="450"/>
    <frame tileid="280" duration="150"/>
    <frame tileid="202" duration="150"/>
    <frame tileid="124" duration="150"/>
   </animation>
  </tile>
  <tile id="48">
   <animation>
    <frame tileid="48" duration="450"/>
    <frame tileid="126" duration="150"/>
    <frame tileid="204" duration="150"/>
    <frame tileid="282" duration="150"/>
    <frame tileid="360" duration="450"/>
    <frame tileid="282" duration="150"/>
    <frame tileid="204" duration="150"/>
    <frame tileid="126" duration="150"/>
   </animation>
  </tile>
  <tile id="49">
   <animation>
    <frame tileid="49" duration="450"/>
    <frame tileid="127" duration="150"/>
    <frame tileid="205" duration="150"/>
    <frame tileid="283" duration="150"/>
    <frame tileid="361" duration="450"/>
    <frame tileid="283" duration="150"/>
    <frame tileid="205" duration="150"/>
    <frame tileid="127" duration="150"/>
   </animation>
  </tile>
  <tile id="50">
   <animation>
    <frame tileid="50" duration="450"/>
    <frame tileid="128" duration="150"/>
    <frame tileid="206" duration="150"/>
    <frame tileid="284" duration="150"/>
    <frame tileid="362" duration="450"/>
    <frame tileid="284" duration="150"/>
    <frame tileid="206" duration="150"/>
    <frame tileid="128" duration="150"/>
   </animation>
  </tile>
  <tile id="53">
   <animation>
    <frame tileid="53" duration="450"/>
    <frame tileid="131" duration="150"/>
    <frame tileid="209" duration="150"/>
    <frame tileid="287" duration="150"/>
    <frame tileid="365" duration="450"/>
    <frame tileid="287" duration="150"/>
    <frame tileid="209" duration="150"/>
    <frame tileid="131" duration="150"/>
   </animation>
  </tile>
  <tile id="54">
   <animation>
    <frame tileid="54" duration="450"/>
    <frame tileid="132" duration="150"/>
    <frame tileid="210" duration="150"/>
    <frame tileid="288" duration="150"/>
    <frame tileid="366" duration="450"/>
    <frame tileid="288" duration="150"/>
    <frame tileid="210" duration="150"/>
    <frame tileid="132" duration="150"/>
   </animation>
  </tile>
  <tile id="55">
   <animation>
    <frame tileid="55" duration="450"/>
    <frame tileid="133" duration="150"/>
    <frame tileid="211" duration="150"/>
    <frame tileid="289" duration="150"/>
    <frame tileid="367" duration="450"/>
    <frame tileid="289" duration="150"/>
    <frame tileid="211" duration="150"/>
    <frame tileid="133" duration="150"/>
   </animation>
  </tile>
  <tile id="57">
   <animation>
    <frame tileid="57" duration="450"/>
    <frame tileid="135" duration="150"/>
    <frame tileid="213" duration="150"/>
    <frame tileid="291" duration="150"/>
    <frame tileid="369" duration="450"/>
    <frame tileid="291" duration="150"/>
    <frame tileid="213" duration="150"/>
    <frame tileid="135" duration="150"/>
   </animation>
  </tile>
  <tile id="58">
   <animation>
    <frame tileid="58" duration="450"/>
    <frame tileid="136" duration="150"/>
    <frame tileid="214" duration="150"/>
    <frame tileid="292" duration="150"/>
    <frame tileid="370" duration="450"/>
    <frame tileid="292" duration="150"/>
    <frame tileid="214" duration="150"/>
    <frame tileid="136" duration="150"/>
   </animation>
  </tile>
  <tile id="59">
   <animation>
    <frame tileid="59" duration="450"/>
    <frame tileid="137" duration="150"/>
    <frame tileid="215" duration="150"/>
    <frame tileid="293" duration="150"/>
    <frame tileid="371" duration="450"/>
    <frame tileid="293" duration="150"/>
    <frame tileid="215" duration="150"/>
    <frame tileid="137" duration="150"/>
   </animation>
  </tile>
  <tile id="60">
   <animation>
    <frame tileid="60" duration="450"/>
    <frame tileid="138" duration="150"/>
    <frame tileid="216" duration="150"/>
    <frame tileid="294" duration="150"/>
    <frame tileid="372" duration="450"/>
    <frame tileid="294" duration="150"/>
    <frame tileid="216" duration="150"/>
    <frame tileid="138" duration="150"/>
   </animation>
  </tile>
  <tile id="62">
   <animation>
    <frame tileid="62" duration="450"/>
    <frame tileid="140" duration="150"/>
    <frame tileid="218" duration="150"/>
    <frame tileid="296" duration="150"/>
    <frame tileid="374" duration="450"/>
    <frame tileid="296" duration="150"/>
    <frame tileid="218" duration="150"/>
    <frame tileid="140" duration="150"/>
   </animation>
  </tile>
  <tile id="66">
   <animation>
    <frame tileid="66" duration="450"/>
    <frame tileid="144" duration="150"/>
    <frame tileid="222" duration="150"/>
    <frame tileid="300" duration="150"/>
    <frame tileid="378" duration="450"/>
    <frame tileid="300" duration="150"/>
    <frame tileid="222" duration="150"/>
    <frame tileid="144" duration="150"/>
   </animation>
  </tile>
  <tile id="67">
   <animation>
    <frame tileid="67" duration="450"/>
    <frame tileid="145" duration="150"/>
    <frame tileid="223" duration="150"/>
    <frame tileid="301" duration="150"/>
    <frame tileid="379" duration="450"/>
    <frame tileid="301" duration="150"/>
    <frame tileid="223" duration="150"/>
    <frame tileid="145" duration="150"/>
   </animation>
  </tile>
  <tile id="68">
   <animation>
    <frame tileid="68" duration="450"/>
    <frame tileid="146" duration="150"/>
    <frame tileid="224" duration="150"/>
    <frame tileid="302" duration="150"/>
    <frame tileid="380" duration="450"/>
    <frame tileid="302" duration="150"/>
    <frame tileid="224" duration="150"/>
    <frame tileid="146" duration="150"/>
   </animation>
  </tile>
  <tile id="70">
   <animation>
    <frame tileid="70" duration="450"/>
    <frame tileid="148" duration="150"/>
    <frame tileid="226" duration="150"/>
    <frame tileid="304" duration="150"/>
    <frame tileid="382" duration="450"/>
    <frame tileid="304" duration="150"/>
    <frame tileid="226" duration="150"/>
    <frame tileid="148" duration="150"/>
   </animation>
  </tile>
  <tile id="71">
   <animation>
    <frame tileid="71" duration="450"/>
    <frame tileid="149" duration="150"/>
    <frame tileid="227" duration="150"/>
    <frame tileid="305" duration="150"/>
    <frame tileid="383" duration="450"/>
    <frame tileid="305" duration="150"/>
    <frame tileid="227" duration="150"/>
    <frame tileid="149" duration="150"/>
   </animation>
  </tile>
  <tile id="72">
   <animation>
    <frame tileid="72" duration="450"/>
    <frame tileid="150" duration="150"/>
    <frame tileid="228" duration="150"/>
    <frame tileid="306" duration="150"/>
    <frame tileid="384" duration="450"/>
    <frame tileid="306" duration="150"/>
    <frame tileid="228" duration="150"/>
    <frame tileid="150" duration="150"/>
   </animation>
  </tile>
  <tile id="73">
   <animation>
    <frame tileid="73" duration="450"/>
    <frame tileid="151" duration="150"/>
    <frame tileid="229" duration="150"/>
    <frame tileid="307" duration="150"/>
    <frame tileid="385" duration="450"/>
    <frame tileid="307" duration="150"/>
    <frame tileid="229" duration="150"/>
    <frame tileid="151" duration="150"/>
   </animation>
  </tile>
  <tile id="75">
   <animation>
    <frame tileid="75" duration="450"/>
    <frame tileid="153" duration="150"/>
    <frame tileid="231" duration="150"/>
    <frame tileid="309" duration="150"/>
    <frame tileid="387" duration="450"/>
    <frame tileid="309" duration="150"/>
    <frame tileid="231" duration="150"/>
    <frame tileid="153" duration="150"/>
   </animation>
  </tile>
 </tileset>
 <layer id="21" name="water_floor3" width="48" height="48">
  <data encoding="csv">
0,0,0,0,0,0,0,0,0,0,0,0,0,0,0,0,0,0,0,0,0,0,0,0,0,0,0,0,0,0,0,0,0,0,0,0,0,0,0,0,0,0,0,0,0,0,0,0,
0,0,0,0,0,0,0,0,0,0,0,0,0,0,0,0,0,0,0,0,0,0,0,0,0,0,0,0,0,0,0,0,0,0,0,0,0,0,0,0,0,0,0,0,0,0,0,0,
0,0,0,0,0,0,0,0,0,0,0,0,0,0,0,0,0,0,0,0,0,0,0,0,0,0,0,0,0,0,0,0,0,0,0,0,0,0,0,0,0,0,0,0,0,0,0,0,
0,0,0,0,0,0,0,0,0,0,0,0,0,0,0,0,0,0,0,0,0,0,0,0,0,0,0,0,0,0,0,0,0,0,0,0,0,0,0,0,0,0,0,0,0,0,0,0,
0,0,0,0,0,0,0,0,0,0,0,0,0,0,0,0,0,0,0,0,0,0,0,0,0,0,0,0,0,0,0,0,0,0,0,0,0,0,0,0,0,0,0,0,0,0,0,0,
0,0,0,0,0,0,0,0,0,0,0,0,0,0,0,0,0,0,0,0,0,0,0,0,0,0,0,0,0,0,0,0,0,0,0,0,0,0,0,0,0,0,0,0,0,0,0,0,
0,0,0,0,0,0,0,0,0,0,0,0,0,0,0,0,0,0,0,0,0,0,0,0,0,0,0,0,0,0,0,0,0,0,0,0,0,0,0,0,0,0,0,0,0,0,0,0,
0,0,0,0,0,0,0,0,0,0,0,0,0,0,0,0,0,0,0,0,0,0,0,0,0,0,0,0,0,0,0,0,0,0,0,0,0,0,0,0,0,0,0,0,0,0,0,0,
0,0,0,0,0,0,0,0,0,0,0,0,0,0,0,0,0,0,0,0,0,0,0,0,0,0,0,0,0,0,0,0,0,0,0,0,0,0,0,0,0,0,0,0,0,0,0,0,
0,0,0,0,0,0,0,0,0,0,0,0,0,0,0,0,0,0,0,0,0,0,0,0,0,0,0,0,0,0,0,0,0,0,0,0,0,0,0,0,0,0,0,0,0,0,0,0,
0,0,0,0,0,0,0,0,0,0,0,0,0,0,0,0,0,0,0,0,0,0,0,0,0,0,0,0,0,0,0,0,0,0,0,0,0,0,0,0,0,0,0,0,0,0,0,0,
0,0,0,0,0,0,0,0,0,0,0,0,0,0,0,0,0,0,0,0,0,0,0,0,0,0,0,0,0,0,0,0,0,0,0,0,0,0,0,0,0,0,0,0,0,0,0,0,
0,0,0,0,0,0,0,0,0,0,0,0,0,0,0,0,0,0,0,0,0,0,0,0,0,0,0,0,0,0,0,0,0,0,0,0,0,0,0,0,0,0,0,0,0,0,0,0,
0,0,0,0,0,0,0,0,0,0,0,0,0,0,0,0,0,0,0,0,0,0,0,0,0,0,0,0,0,0,0,0,0,0,0,0,0,0,0,0,0,0,0,0,0,0,0,0,
0,0,0,0,0,0,0,0,0,0,0,0,0,0,0,0,0,0,0,0,0,0,0,0,0,0,0,0,0,0,0,0,0,0,0,0,0,0,0,0,0,0,0,0,0,0,0,0,
0,0,0,0,0,0,0,0,0,0,0,0,0,0,0,0,0,0,0,0,0,0,0,0,0,0,0,0,0,0,0,0,0,0,0,0,0,0,0,0,0,0,0,0,0,0,0,0,
0,0,0,0,0,0,0,0,0,0,0,0,0,0,0,0,0,0,0,0,0,0,0,0,0,0,0,0,0,0,0,0,0,0,0,0,0,0,0,0,0,0,0,0,0,0,0,0,
0,0,0,0,0,0,0,0,0,0,0,0,0,0,0,0,0,0,0,0,0,0,0,0,0,0,0,0,0,0,0,0,0,0,0,0,0,0,0,0,0,0,0,0,0,0,0,0,
0,0,0,0,0,0,0,0,0,0,0,0,0,0,0,0,0,0,0,0,0,0,0,0,0,0,0,0,0,0,0,0,0,0,0,0,0,0,0,0,0,0,0,0,0,0,0,0,
0,0,0,0,0,0,0,0,0,0,0,0,0,0,0,0,0,0,0,0,0,1751,1751,0,0,0,0,0,0,0,0,0,0,0,0,0,0,0,0,0,0,0,0,0,0,0,0,0,
0,0,0,0,0,0,0,0,0,0,0,0,0,0,0,0,0,0,0,0,0,1751,1751,1751,0,0,0,0,0,0,0,0,0,0,0,0,0,0,0,0,0,0,0,0,0,0,0,0,
0,0,0,0,0,0,0,0,0,0,0,0,0,0,0,0,0,0,1751,1751,1751,1751,1750,1751,0,0,0,0,0,0,0,0,0,0,0,0,0,0,0,0,0,0,0,0,0,0,0,0,
0,0,0,0,0,0,0,0,0,0,0,0,0,0,0,0,0,0,1751,1751,1751,1751,1751,1751,1751,1751,1751,1751,0,0,0,0,0,0,0,0,0,0,0,0,0,0,0,0,0,0,0,0,
0,0,0,0,0,0,0,0,0,0,0,0,0,0,0,0,0,0,1751,1751,1751,1751,1751,1751,1751,1751,1751,1751,1751,1751,1751,1751,1751,1751,0,0,0,0,0,0,0,0,0,0,0,0,0,0,
0,0,0,0,0,0,0,0,0,0,0,0,0,0,0,0,0,0,0,1751,1751,1751,1751,1747,1751,1751,1751,1751,1751,1751,1751,1751,1748,1751,0,0,0,0,0,0,0,0,0,0,0,0,0,0,
0,0,0,0,0,0,0,0,0,0,0,0,0,0,0,0,0,0,0,0,0,1751,1751,1751,1751,1751,1751,1751,1751,1751,1750,1751,1751,1751,0,0,0,0,0,0,0,0,0,0,0,0,0,0,
0,0,0,0,0,0,0,0,0,0,0,0,0,0,0,0,0,0,0,0,0,1751,1751,1751,1751,1751,1751,1751,1751,1751,0,0,0,0,0,0,0,0,0,0,0,0,0,0,0,0,0,0,
0,0,0,0,0,0,0,0,0,0,0,0,0,0,0,0,0,0,0,0,0,1751,0,0,1751,1751,1751,0,0,0,0,0,0,0,0,0,0,0,0,0,0,0,0,0,0,0,0,0,
0,0,0,0,0,0,0,0,0,0,0,0,0,0,0,0,0,0,0,0,0,0,0,0,1751,1751,1751,0,0,0,0,0,0,0,0,0,0,0,0,0,0,0,0,0,0,0,0,0,
0,0,0,0,0,0,0,0,0,0,0,0,0,0,0,0,0,0,0,0,0,0,0,0,0,0,1751,0,0,0,0,0,0,0,0,0,0,0,0,0,0,0,0,0,0,0,0,0,
0,0,0,0,0,0,0,0,0,0,0,0,0,0,0,627,0,0,0,0,0,1751,1751,1747,1751,0,0,0,0,0,0,0,0,0,0,0,0,0,0,0,0,0,0,0,0,0,0,0,
0,0,0,0,0,0,0,0,0,0,0,0,0,0,0,627,627,627,627,0,0,1751,1751,1751,1751,0,0,0,0,0,0,0,0,0,0,0,0,0,0,0,0,0,0,0,0,0,0,0,
0,0,0,0,0,0,0,0,0,0,0,0,0,0,0,627,627,627,627,0,0,1751,1748,1751,1751,0,0,0,0,0,0,0,0,0,0,0,0,0,0,0,0,0,0,0,0,0,0,0,
0,0,0,0,0,0,0,0,0,0,0,0,0,0,0,0,627,627,627,1751,0,1751,1751,1751,627,627,0,627,627,0,0,0,0,0,0,0,0,0,0,0,0,0,0,0,0,0,0,0,
0,0,0,0,0,0,0,0,0,0,0,0,0,0,0,1751,1751,1751,0,1751,0,1751,1751,1751,627,627,627,627,627,0,0,0,0,0,0,0,0,0,0,0,0,0,0,0,0,0,0,0,
0,0,0,0,0,0,0,0,0,0,0,0,0,0,0,1751,1751,1751,1751,1747,1751,1751,1751,1751,627,625,627,627,627,0,0,0,0,0,0,0,0,0,0,0,0,0,0,0,0,0,0,0,
0,0,0,0,0,0,0,0,0,0,0,0,0,0,0,1751,1751,1751,1751,1751,0,0,1751,1751,627,627,608,627,627,0,0,0,0,0,0,0,0,0,0,0,0,0,0,0,0,0,0,0,
0,0,0,0,0,0,0,0,0,0,0,0,0,0,0,0,1751,0,0,0,0,0,0,0,0,0,0,0,0,0,0,0,0,0,0,0,0,0,0,0,0,0,0,0,0,0,0,0,
0,0,0,0,0,0,0,0,0,0,0,0,0,0,0,0,1751,0,0,0,0,0,0,0,0,0,0,0,0,0,0,0,0,0,0,0,0,0,0,0,0,0,0,0,0,0,0,0,
0,0,0,0,0,0,0,0,0,0,0,0,0,0,0,0,1751,0,0,0,0,0,0,0,0,0,0,0,0,0,0,0,0,0,0,0,0,0,0,0,0,0,0,0,0,0,0,0,
0,0,0,0,0,0,0,0,0,0,0,0,0,0,0,0,1751,0,0,0,0,0,0,0,0,0,0,0,0,0,0,0,0,0,0,0,0,0,0,0,0,0,0,0,0,0,0,0,
0,0,0,0,0,0,0,0,0,0,0,0,0,0,0,0,1751,1751,1751,1751,1751,1751,1751,1751,1751,0,0,0,0,0,0,0,0,0,0,0,0,0,0,0,0,0,0,0,0,0,0,0,
0,0,0,0,0,0,0,0,0,0,0,0,0,0,0,0,1751,1751,1751,1751,1751,1751,1751,1751,1751,0,0,0,0,0,0,0,0,0,0,0,0,0,0,0,0,0,0,0,0,0,0,0,
0,0,0,0,0,0,0,0,0,0,0,0,0,0,0,0,1751,1751,1751,1751,1751,1751,1751,1751,1751,0,0,0,0,0,0,0,0,0,0,0,0,0,0,0,0,0,0,0,0,0,0,0,
0,0,0,0,0,0,0,0,0,0,0,0,0,0,0,0,1751,1751,1751,1751,1751,1751,1751,1751,1751,0,0,0,0,0,0,0,0,0,0,0,0,0,0,0,0,0,0,0,0,0,0,0,
0,0,0,0,0,0,0,0,0,0,0,0,0,0,0,0,0,0,0,0,0,0,0,0,0,0,0,0,0,0,0,0,0,0,0,0,0,0,0,0,0,0,0,0,0,0,0,0,
0,0,0,0,0,0,0,0,0,0,0,0,0,0,0,0,0,0,0,0,0,0,0,0,0,0,0,0,0,0,0,0,0,0,0,0,0,0,0,0,0,0,0,0,0,0,0,0,
0,0,0,0,0,0,0,0,0,0,0,0,0,0,0,0,0,0,0,0,0,0,0,0,0,0,0,0,0,0,0,0,0,0,0,0,0,0,0,0,0,0,0,0,0,0,0,0
</data>
 </layer>
 <layer id="19" name="walls_under_water" width="48" height="48">
  <data encoding="csv">
0,0,0,0,0,0,0,0,0,0,0,0,0,0,0,0,0,0,0,0,0,0,0,0,0,0,0,0,0,0,0,0,0,0,0,0,0,0,0,0,0,0,0,0,0,0,0,0,
0,0,0,0,0,0,0,0,0,0,0,0,0,0,0,0,0,0,0,0,0,0,0,0,0,0,0,0,0,0,0,0,0,0,0,0,0,0,0,0,0,0,0,0,0,0,0,0,
0,0,0,0,0,0,0,0,0,0,0,0,0,0,0,0,0,0,0,0,0,0,0,0,0,0,0,0,0,0,0,0,0,0,0,0,0,0,0,0,0,0,0,0,0,0,0,0,
0,0,0,0,0,0,0,0,0,0,0,0,0,0,0,0,0,0,0,0,0,0,0,0,0,0,0,0,0,0,0,0,0,0,0,0,0,0,0,0,0,0,0,0,0,0,0,0,
0,0,0,0,0,0,0,0,0,0,0,0,0,0,0,0,0,0,0,0,0,0,0,0,0,0,0,0,0,0,0,0,0,0,0,0,0,0,0,0,0,0,0,0,0,0,0,0,
0,0,0,0,0,0,0,0,0,0,0,0,0,0,0,0,0,0,0,0,0,0,0,0,0,0,0,0,0,0,0,0,0,0,0,0,0,0,0,0,0,0,0,0,0,0,0,0,
0,0,0,0,0,0,0,0,0,0,0,0,0,0,0,0,0,0,0,0,0,0,0,0,0,0,0,0,0,0,0,0,0,0,0,0,0,0,0,0,0,0,0,0,0,0,0,0,
0,0,0,0,0,0,0,0,0,0,0,0,0,0,0,0,0,0,0,0,0,0,0,0,0,0,0,0,0,0,0,0,0,0,0,0,0,0,0,0,0,0,0,0,0,0,0,0,
0,0,0,0,0,0,0,0,0,0,0,0,0,0,0,0,0,0,0,0,0,0,0,0,0,0,0,0,0,0,0,0,0,0,0,0,0,0,0,0,0,0,0,0,0,0,0,0,
0,0,0,0,0,0,0,0,0,0,0,0,0,0,0,0,0,0,0,0,0,0,0,0,0,0,0,0,0,0,0,0,0,0,0,0,0,0,0,0,0,0,0,0,0,0,0,0,
0,0,0,0,0,0,0,0,0,0,0,0,0,0,0,0,0,0,0,0,0,0,0,0,0,0,0,0,0,0,0,0,0,0,0,0,0,0,0,0,0,0,0,0,0,0,0,0,
0,0,0,0,0,0,0,0,0,0,0,0,0,0,0,0,0,0,0,0,0,0,0,0,0,0,0,0,0,0,0,0,0,0,0,0,0,0,0,0,0,0,0,0,0,0,0,0,
0,0,0,0,0,0,0,0,0,0,0,0,0,0,0,0,0,0,0,0,0,0,0,0,0,0,0,0,0,0,0,0,0,0,0,0,0,0,0,0,0,0,0,0,0,0,0,0,
0,0,0,0,0,0,0,0,0,0,0,0,0,0,0,0,0,0,0,0,0,0,0,0,0,0,0,0,0,0,0,0,0,0,0,0,0,0,0,0,0,0,0,0,0,0,0,0,
0,0,0,0,0,0,0,0,0,0,0,0,0,0,0,0,0,0,0,0,0,0,0,0,0,0,0,0,0,0,0,0,0,0,0,0,0,0,0,0,0,0,0,0,0,0,0,0,
0,0,0,0,0,0,0,0,0,0,0,0,0,0,0,0,0,0,0,0,0,0,0,0,0,0,0,0,0,0,0,0,0,0,0,0,0,0,0,0,0,0,0,0,0,0,0,0,
0,0,0,0,0,0,0,0,0,0,0,0,0,0,0,0,0,0,0,0,0,0,0,0,0,0,0,0,0,0,0,0,0,0,0,0,0,0,0,0,0,0,0,0,0,0,0,0,
0,0,0,0,0,0,0,0,0,0,0,0,0,0,0,0,0,0,0,0,0,0,0,0,0,0,0,0,0,0,0,0,0,0,0,0,0,0,0,0,0,0,0,0,0,0,0,0,
0,0,0,0,0,0,0,0,0,0,0,0,0,0,0,0,0,0,0,0,0,0,0,0,0,0,0,0,0,0,0,0,0,0,0,0,0,0,0,0,0,0,0,0,0,0,0,0,
0,0,0,0,0,0,0,0,0,0,0,0,0,0,0,0,0,0,0,0,0,0,0,0,0,0,0,0,0,0,0,0,0,0,0,0,0,0,0,0,0,0,0,0,0,0,0,0,
0,0,0,0,0,0,0,0,0,0,0,0,0,0,0,0,0,0,0,0,0,1741,1745,1743,0,0,0,0,0,0,0,0,0,0,0,0,0,0,0,0,0,0,0,0,0,0,0,0,
0,0,0,0,0,0,0,0,0,0,0,0,0,0,0,0,0,0,0,0,0,0,0,0,0,0,0,0,0,0,0,0,0,0,0,0,0,0,0,0,0,0,0,0,0,0,0,0,
0,0,0,0,0,0,0,0,0,0,0,0,0,0,0,0,0,0,1741,1745,1745,1746,0,1744,1745,1745,1745,1743,0,0,0,0,0,0,0,0,0,0,0,0,0,0,0,0,0,0,0,0,
0,0,0,0,0,0,0,0,0,0,0,0,0,0,0,0,0,0,0,0,0,0,0,0,0,0,0,1744,1745,1745,1745,1745,1745,1745,0,0,0,0,0,0,0,0,0,0,0,0,0,0,
0,0,0,0,0,0,0,0,0,0,0,0,0,0,0,0,0,0,0,0,0,0,0,0,0,0,0,0,0,0,0,0,0,0,0,0,0,0,0,0,0,0,0,0,0,0,0,0,
0,0,0,0,0,0,0,0,0,0,0,0,0,0,0,0,0,0,0,0,0,0,0,0,0,0,0,0,0,0,0,0,0,0,0,0,0,0,0,0,0,0,0,0,0,0,0,0,
0,0,0,0,0,0,0,0,0,0,0,0,0,0,0,0,0,0,0,0,0,0,0,0,0,0,0,0,0,0,0,0,0,0,0,0,0,0,0,0,0,0,0,0,0,0,0,0,
0,0,0,0,0,0,0,0,0,0,0,0,0,0,0,0,0,0,0,0,0,0,0,0,0,0,0,0,0,0,0,0,0,0,0,0,0,0,0,0,0,0,0,0,0,0,0,0,
0,0,0,0,0,0,0,0,0,0,0,0,0,0,0,0,0,0,0,0,0,0,0,0,0,0,0,0,0,0,0,0,0,0,0,0,0,0,0,0,0,0,0,0,0,0,0,0,
0,0,0,0,0,0,0,0,0,0,0,0,0,0,0,0,0,0,0,0,0,0,0,0,0,0,0,0,0,0,0,0,0,0,0,0,0,0,0,0,0,0,0,0,0,0,0,0,
0,0,0,0,0,0,0,0,0,0,0,0,0,0,0,0,0,0,0,0,0,0,0,0,0,0,0,0,0,0,0,0,0,0,0,0,0,0,0,0,0,0,0,0,0,0,0,0,
0,0,0,0,0,0,0,0,0,0,0,0,0,0,0,0,0,0,0,0,0,0,0,0,0,0,0,0,0,0,0,0,0,0,0,0,0,0,0,0,0,0,0,0,0,0,0,0,
0,0,0,0,0,0,0,0,0,0,0,0,0,0,0,0,0,0,0,0,0,0,0,0,0,0,0,0,0,0,0,0,0,0,0,0,0,0,0,0,0,0,0,0,0,0,0,0,
0,0,0,0,0,0,0,0,0,0,0,0,0,0,0,0,0,0,0,0,0,0,0,0,0,0,0,0,0,0,0,0,0,0,0,0,0,0,0,0,0,0,0,0,0,0,0,0,
0,0,0,0,0,0,0,0,0,0,0,0,0,0,0,0,0,1835,0,0,0,0,0,0,0,0,0,0,0,0,0,0,0,0,0,0,0,0,0,0,0,0,0,0,0,0,0,0,
0,0,0,0,0,0,0,0,0,0,0,0,0,0,0,0,0,0,0,0,0,0,0,0,0,0,0,0,0,0,0,0,0,0,0,0,0,0,0,0,0,0,0,0,0,0,0,0,
0,0,0,0,0,0,0,0,0,0,0,0,0,0,0,0,0,0,0,0,0,0,0,0,0,0,0,0,0,0,0,0,0,0,0,0,0,0,0,0,0,0,0,0,0,0,0,0,
0,0,0,0,0,0,0,0,0,0,0,0,0,0,0,0,0,0,0,0,0,0,0,0,0,0,0,0,0,0,0,0,0,0,0,0,0,0,0,0,0,0,0,0,0,0,0,0,
0,0,0,0,0,0,0,0,0,0,0,0,0,0,0,0,0,0,0,0,0,0,0,0,0,0,0,0,0,0,0,0,0,0,0,0,0,0,0,0,0,0,0,0,0,0,0,0,
0,0,0,0,0,0,0,0,0,0,0,0,0,0,0,0,0,0,0,0,0,0,0,0,0,0,0,0,0,0,0,0,0,0,0,0,0,0,0,0,0,0,0,0,0,0,0,0,
0,0,0,0,0,0,0,0,0,0,0,0,0,0,0,0,0,0,0,0,0,0,0,0,0,0,0,0,0,0,0,0,0,0,0,0,0,0,0,0,0,0,0,0,0,0,0,0,
0,0,0,0,0,0,0,0,0,0,0,0,0,0,0,0,0,0,0,0,0,0,0,0,0,0,0,0,0,0,0,0,0,0,0,0,0,0,0,0,0,0,0,0,0,0,0,0,
0,0,0,0,0,0,0,0,0,0,0,0,0,0,0,0,0,0,0,0,0,0,0,0,0,0,0,0,0,0,0,0,0,0,0,0,0,0,0,0,0,0,0,0,0,0,0,0,
0,0,0,0,0,0,0,0,0,0,0,0,0,0,0,0,0,0,0,0,0,0,0,0,0,0,0,0,0,0,0,0,0,0,0,0,0,0,0,0,0,0,0,0,0,0,0,0,
0,0,0,0,0,0,0,0,0,0,0,0,0,0,0,0,0,0,0,0,0,0,0,0,0,0,0,0,0,0,0,0,0,0,0,0,0,0,0,0,0,0,0,0,0,0,0,0,
0,0,0,0,0,0,0,0,0,0,0,0,0,0,0,0,0,0,0,0,0,0,0,0,0,0,0,0,0,0,0,0,0,0,0,0,0,0,0,0,0,0,0,0,0,0,0,0,
0,0,0,0,0,0,0,0,0,0,0,0,0,0,0,0,0,0,0,0,0,0,0,0,0,0,0,0,0,0,0,0,0,0,0,0,0,0,0,0,0,0,0,0,0,0,0,0,
0,0,0,0,0,0,0,0,0,0,0,0,0,0,0,0,0,0,0,0,0,0,0,0,0,0,0,0,0,0,0,0,0,0,0,0,0,0,0,0,0,0,0,0,0,0,0,0
</data>
 </layer>
 <layer id="23" name="water_detailization2" width="48" height="48">
  <data encoding="csv">
0,0,0,0,0,0,0,0,0,0,0,0,0,0,0,0,0,0,0,0,0,0,0,0,0,0,0,0,0,0,0,0,0,0,0,0,0,0,0,0,0,0,0,0,0,0,0,0,
0,0,0,0,0,0,0,0,0,0,0,0,0,0,0,0,0,0,0,0,0,0,0,0,0,0,0,0,0,0,0,0,0,0,0,0,0,0,0,0,0,0,0,0,0,0,0,0,
0,0,0,0,0,0,0,0,0,0,0,0,0,0,0,0,0,0,0,0,0,0,0,0,0,0,0,0,0,0,0,0,0,0,0,0,0,0,0,0,0,0,0,0,0,0,0,0,
0,0,0,0,0,0,0,0,0,0,0,0,0,0,0,0,0,0,0,0,0,0,0,0,0,0,0,0,0,0,0,0,0,0,0,0,0,0,0,0,0,0,0,0,0,0,0,0,
0,0,0,0,0,0,0,0,0,0,0,0,0,0,0,0,0,0,0,0,0,0,0,0,0,0,0,0,0,0,0,0,0,0,0,0,0,0,0,0,0,0,0,0,0,0,0,0,
0,0,0,0,0,0,0,0,0,0,0,0,0,0,0,0,0,0,0,0,0,0,0,0,0,0,0,0,0,0,0,0,0,0,0,0,0,0,0,0,0,0,0,0,0,0,0,0,
0,0,0,0,0,0,0,0,0,0,0,0,0,0,0,0,0,0,0,0,0,0,0,0,0,0,0,0,0,0,0,0,0,0,0,0,0,0,0,0,0,0,0,0,0,0,0,0,
0,0,0,0,0,0,0,0,0,0,0,0,0,0,0,0,0,0,0,0,0,0,0,0,0,0,0,0,0,0,0,0,0,0,0,0,0,0,0,0,0,0,0,0,0,0,0,0,
0,0,0,0,0,0,0,0,0,0,0,0,0,0,0,0,0,0,0,0,0,0,0,0,0,0,0,0,0,0,0,0,0,0,0,0,0,0,0,0,0,0,0,0,0,0,0,0,
0,0,0,0,0,0,0,0,0,0,0,0,0,0,0,0,0,0,0,0,0,0,0,0,0,0,0,0,0,0,0,0,0,0,0,0,0,0,0,0,0,0,0,0,0,0,0,0,
0,0,0,0,0,0,0,0,0,0,0,0,0,0,0,0,0,0,0,0,0,0,0,0,0,0,0,0,0,0,0,0,0,0,0,0,0,0,0,0,0,0,0,0,0,0,0,0,
0,0,0,0,0,0,0,0,0,0,0,0,0,0,0,0,0,0,0,0,0,0,0,0,0,0,0,0,0,0,0,0,0,0,0,0,0,0,0,0,0,0,0,0,0,0,0,0,
0,0,0,0,0,0,0,0,0,0,0,0,0,0,0,0,0,0,0,0,0,0,0,0,0,0,0,0,0,0,0,0,0,0,0,0,0,0,0,0,0,0,0,0,0,0,0,0,
0,0,1853,1854,1855,1856,1857,1858,1859,1860,1861,1862,1863,0,0,0,0,0,0,0,0,0,0,0,0,0,0,0,0,0,0,0,0,0,0,0,0,0,0,0,0,0,0,0,0,0,0,0,
0,0,1890,1891,1892,1893,1894,1895,1896,1897,1898,1899,1900,0,0,0,0,0,0,0,0,0,0,0,0,0,0,0,0,0,0,0,0,0,0,0,0,0,0,0,0,0,0,0,0,0,0,0,
0,0,1927,1928,1929,1930,1931,1932,1933,1934,1935,1936,1937,0,0,0,0,0,0,0,0,0,0,0,0,0,0,0,0,0,0,0,0,0,0,0,0,0,0,0,0,0,0,0,0,0,0,0,
0,0,0,0,0,0,0,0,0,0,0,0,0,0,0,0,0,0,0,0,0,0,0,0,0,0,0,0,0,0,0,0,0,0,0,0,0,0,0,0,0,0,0,0,0,0,0,0,
0,0,0,0,0,0,0,0,0,0,0,0,0,0,0,0,0,0,0,0,0,0,0,0,0,0,0,0,0,0,0,0,0,0,0,0,0,0,0,0,0,0,0,0,0,0,0,0,
0,0,0,0,0,0,0,0,0,0,0,0,0,0,0,0,0,0,0,0,0,0,0,0,0,0,0,0,0,0,0,0,0,0,0,0,0,0,0,0,0,0,0,0,0,0,0,0,
0,0,0,0,0,0,0,0,0,0,0,0,0,0,0,0,0,0,0,0,0,0,0,0,0,0,0,0,0,0,0,0,0,0,0,0,0,0,0,0,0,0,0,0,0,0,0,0,
0,0,0,0,0,0,0,0,0,0,0,0,0,0,0,0,0,0,0,0,2121,2122,2123,2124,2125,0,0,0,0,0,0,0,0,0,0,0,0,0,0,0,0,0,0,0,0,0,0,0,
0,0,0,0,0,0,0,0,0,0,0,0,0,0,0,0,0,0,0,0,2158,2159,2160,2161,2162,0,0,0,0,0,0,0,0,0,0,0,0,0,0,0,0,0,0,0,0,0,0,0,
0,0,0,0,0,0,0,0,0,0,0,0,0,0,0,0,0,1903,1904,1905,1906,1907,1908,0,0,0,0,0,0,0,0,0,0,0,0,0,0,0,0,0,0,0,0,0,0,0,0,0,
0,0,0,0,0,0,0,0,0,0,0,0,0,0,0,0,0,0,0,0,0,0,0,0,0,0,0,0,0,0,0,0,0,0,0,0,0,0,0,0,0,0,0,0,0,0,0,0,
0,0,0,0,0,0,0,0,0,0,0,0,0,0,0,0,0,0,0,0,0,0,0,0,0,0,0,0,2111,2112,2113,2114,2115,2116,0,0,0,0,0,0,0,0,0,0,0,0,0,0,
0,0,0,0,0,0,0,0,0,0,0,0,0,0,0,0,0,0,0,0,0,0,2053,2054,2055,0,0,0,2148,2149,2150,2151,2152,2153,0,0,0,0,0,0,0,0,0,0,0,0,0,0,
0,0,0,0,0,0,0,0,0,0,0,0,0,0,0,0,0,0,0,0,0,0,0,0,0,0,0,0,2185,2186,2187,2188,2189,2190,0,0,0,0,0,0,0,0,0,0,0,0,0,0,
0,0,0,0,0,0,0,0,0,0,0,0,0,0,0,0,0,0,0,0,0,0,0,0,0,0,0,0,0,0,0,0,0,0,0,0,0,0,0,0,0,0,0,0,0,0,0,0,
0,0,0,0,0,0,0,0,0,0,0,0,0,0,0,0,0,0,0,0,0,0,0,0,0,0,0,0,0,0,0,0,0,0,0,0,0,0,0,0,0,0,0,0,0,0,0,0,
0,0,0,0,0,0,0,0,0,0,0,0,0,0,0,0,0,0,0,0,0,0,0,0,0,0,0,0,0,0,0,0,0,0,0,0,0,0,0,0,0,0,0,0,0,0,0,0,
0,0,0,0,0,0,0,0,0,0,0,0,0,0,0,0,0,0,0,0,0,0,0,0,0,0,0,0,0,0,0,0,0,0,0,0,0,0,0,0,0,0,0,0,0,0,0,0,
0,0,0,0,0,0,0,0,0,0,0,0,0,0,0,0,0,0,0,0,0,0,0,0,0,0,0,0,0,0,0,0,0,0,0,0,0,0,0,0,0,0,0,0,0,0,0,0,
0,0,0,0,0,0,0,0,0,0,0,0,0,0,0,0,0,0,0,0,0,0,0,0,0,0,0,0,0,0,0,0,0,0,0,0,0,0,0,0,0,0,0,0,0,0,0,0,
0,0,0,0,0,0,0,0,0,0,0,0,0,0,0,0,0,0,0,0,0,0,0,0,0,0,0,0,0,0,0,0,0,0,0,0,0,0,0,0,0,0,0,0,0,0,0,0,
0,0,0,0,0,0,0,0,0,0,0,0,0,0,0,0,0,0,0,0,0,0,0,0,0,0,0,0,0,0,0,0,0,0,0,0,0,0,0,0,0,0,0,0,0,0,0,0,
0,0,0,0,0,0,0,0,0,0,0,0,0,0,0,0,0,0,0,0,0,0,0,0,0,0,0,0,0,0,0,0,0,0,0,0,0,0,0,0,0,0,0,0,0,0,0,0,
0,0,0,0,0,0,0,0,0,0,0,0,0,0,0,0,0,0,0,0,0,0,0,0,0,0,0,0,0,0,0,0,0,0,0,0,0,0,0,0,0,0,0,0,0,0,0,0,
0,0,0,0,0,0,0,0,0,0,0,0,0,0,0,0,0,0,0,0,0,0,0,0,0,0,0,0,0,0,0,0,0,0,0,0,0,0,0,0,0,0,0,0,0,0,0,0,
0,0,0,1853,1854,1855,1856,1857,1858,1859,1860,1861,1862,1863,0,0,0,0,0,0,0,0,0,0,0,0,0,0,0,0,0,0,0,0,0,0,0,0,0,0,0,0,0,0,0,0,0,0,
0,0,0,1890,1891,1892,1893,1894,1895,1896,1897,1898,1899,1900,0,0,0,0,0,0,0,0,0,0,0,0,0,0,0,0,0,0,0,0,0,0,0,0,0,0,0,0,0,0,0,0,0,0,
0,0,0,1927,1928,1929,1930,1931,1932,1933,1934,1935,1936,1937,0,0,0,0,0,0,0,0,0,0,0,0,0,0,0,0,0,0,0,0,0,0,0,0,0,0,0,0,0,0,0,0,0,0,
0,0,0,0,0,0,0,0,0,0,0,0,0,0,0,0,0,0,0,0,0,0,0,0,0,0,0,0,0,0,0,0,0,0,0,0,0,0,0,0,0,0,0,0,0,0,0,0,
0,0,0,0,0,0,0,0,0,0,0,0,0,0,0,0,0,0,0,0,0,0,0,0,0,0,0,0,0,0,0,0,0,0,0,0,0,0,0,0,0,0,0,0,0,0,0,0,
0,0,0,0,0,0,0,0,0,0,0,0,0,0,0,0,0,0,0,0,0,0,0,0,0,0,0,0,0,0,0,0,0,0,0,0,0,0,0,0,0,0,0,0,0,0,0,0,
0,0,0,0,0,0,0,0,0,0,0,0,0,0,0,0,0,0,0,0,0,0,0,0,0,0,0,0,0,0,0,0,0,0,0,0,0,0,0,0,0,0,0,0,0,0,0,0,
0,0,0,0,0,0,0,0,0,0,0,0,0,0,0,0,0,0,0,0,0,0,0,0,0,0,0,0,0,0,0,0,0,0,0,0,0,0,0,0,0,0,0,0,0,0,0,0,
0,0,0,0,0,0,0,0,0,0,0,0,0,0,0,0,0,0,0,0,0,0,0,0,0,0,0,0,0,0,0,0,0,0,0,0,0,0,0,0,0,0,0,0,0,0,0,0,
0,0,0,0,0,0,0,0,0,0,0,0,0,0,0,0,0,0,0,0,0,0,0,0,0,0,0,0,0,0,0,0,0,0,0,0,0,0,0,0,0,0,0,0,0,0,0,0
</data>
 </layer>
 <layer id="14" name="Floor2_pool" width="48" height="48">
  <data encoding="csv">
1751,1751,1751,1751,1751,1751,1751,1751,1751,1751,1751,1751,1751,1751,1751,1751,1751,1751,1751,1751,1751,1751,1751,1751,1751,1751,1751,1751,1751,1751,1751,1751,1751,1751,1751,1751,1751,1751,1751,1751,1751,1751,1751,1751,1751,1751,1751,0,
1751,1751,1751,1751,1751,1751,1751,1751,1751,1751,1751,1751,1751,1751,1751,1751,1751,1751,1751,1751,1751,1751,1751,1751,1751,1751,1751,1751,1751,1751,1751,1751,1751,1751,1751,1751,1751,1751,1751,1751,1751,1751,1751,1751,1751,1751,1751,0,
1751,1751,1751,1751,1751,1751,1751,1751,1751,1751,1751,1751,1751,1751,1751,1751,1751,1751,1751,1751,1751,1751,1751,1751,1751,1751,1751,1751,1751,1751,1751,1751,1751,1751,1751,1751,1751,1751,1751,1751,1751,1751,1751,1751,1751,1751,1751,0,
1751,1751,1751,1751,1751,1751,1751,1751,1751,1751,1751,1751,1751,1751,1751,1751,1751,1751,1751,1751,1751,1751,1751,1751,1751,1751,1751,1751,1751,1751,1751,1751,1751,1751,1751,1751,1751,1751,1751,1751,1751,1751,1751,1751,1751,1751,1751,0,
1751,1751,1751,1751,1751,1751,1751,1751,1751,1751,1751,1751,1751,1751,1751,1751,1751,1751,1751,1751,1751,1751,1751,1751,1751,1751,1751,1751,1751,1751,1751,1751,1751,1751,1751,1751,1751,1751,1751,1751,1751,1751,1751,1751,1751,1751,1751,0,
1751,1751,1751,1751,1751,1751,1751,1751,1751,1751,1751,1751,1751,1751,1751,1751,1751,1751,1751,1751,1751,1751,1751,1751,1751,1751,1751,1751,1751,1751,1751,1751,1751,1751,1751,1751,1751,1751,1751,1751,1751,1751,1751,1751,1751,1751,1751,0,
1751,1751,1751,1751,1751,1751,1751,1751,1751,1751,1751,1751,1751,1751,1751,1751,1751,1751,1751,1751,1751,1751,1751,1751,1751,1751,1751,1751,1751,1751,1751,1751,1751,1751,1751,1751,1751,1751,1751,1751,1751,1751,1751,1751,1751,1751,1751,0,
1751,1751,1751,1751,1751,1751,1751,1751,1751,1751,1751,1751,1751,1751,515,1751,1751,1751,1751,1751,1751,1751,1751,1751,1751,1751,1751,1751,1751,1751,1751,1751,1751,1751,1751,1751,1751,1751,1751,1751,1751,1751,1751,1751,1751,1751,1751,0,
1751,1751,1751,1751,1751,1751,1751,1751,1751,1751,1751,1751,1751,515,515,515,1751,1751,1751,1751,1751,1751,1751,1751,1751,1751,1751,1751,1751,1751,1751,1751,1751,1751,1751,1751,1751,1751,1751,1751,1751,1751,1751,1751,1751,1751,1751,0,
1751,1751,1751,1751,1751,1751,1751,1751,1751,1751,1751,1751,1751,515,515,515,1751,1751,1751,1751,1751,1751,1751,1751,1751,1751,1751,1751,1751,1751,1751,1751,1751,1751,1751,1751,1751,1751,1751,1751,1751,1751,1751,1751,1751,1751,1751,0,
1751,1751,1751,1751,1751,1751,1751,1751,1751,1751,1751,1751,515,515,0,515,515,1751,1751,1751,1751,1751,1751,1751,1751,1751,1751,1751,1751,1751,1751,1751,1751,1751,1751,1751,1751,1751,1751,1751,1751,1751,1751,1751,1751,1751,1751,0,
1751,1751,1751,1751,1751,1751,1751,1751,1751,1751,1751,1751,515,515,515,515,515,1751,1751,1751,1751,1751,1751,1751,1751,1751,1751,1751,1751,1751,1751,1751,1751,1751,1751,1751,1751,1751,1751,1751,1751,1751,1751,1751,1751,1751,1751,0,
1751,1751,1751,1751,1751,1751,1751,1751,1751,1751,1751,1751,515,515,515,1751,1751,1751,1751,1751,1751,1751,1751,1751,1751,1751,1751,1751,1751,1751,1751,1751,1751,1751,1751,1751,1751,1751,1751,1751,1751,1751,1751,1751,1751,1751,1751,0,
1751,1751,1751,1751,1751,1751,1751,1751,1751,1751,1751,1751,1751,1751,1751,1751,1751,1751,1751,1751,1751,1751,1751,0,0,1751,1751,1751,0,0,0,0,1751,1751,1751,1751,1751,1751,1751,1751,1751,1751,1751,1751,1751,1751,1751,0,
1751,1751,1751,1751,1751,1751,1751,1751,1751,1751,1751,1751,1751,1751,1751,1751,1751,1751,1751,1751,1751,1751,1751,0,0,0,515,1751,0,1751,1751,1751,0,1751,1751,1751,1751,1751,1751,1751,1751,1751,1751,1751,1751,1751,1751,0,
1751,1751,1751,1751,1751,1751,1751,1751,1751,1751,1751,1751,1751,1751,1751,1751,1751,1751,1751,1751,1751,1751,1751,0,0,0,1751,1751,0,1751,1751,1751,0,0,1751,1751,1751,1751,1751,1751,1751,1751,1751,1751,1751,1751,1751,0,
1751,1751,1751,1751,1751,1751,1751,1751,1751,1751,1751,1751,0,0,0,0,0,0,0,0,0,0,0,0,0,0,515,515,515,1751,1751,1751,515,515,1751,1751,1751,1751,1751,1751,1751,1751,1751,1751,1751,1751,1751,0,
1751,1751,1751,1751,1751,1751,1751,1751,1751,1751,1751,0,0,0,0,0,0,1075,1075,1075,1075,1075,0,0,0,0,515,515,515,1751,1751,1751,515,515,1751,1751,1751,1751,1751,1751,1751,1751,1751,1751,1751,1751,1751,0,
1751,1751,1751,1751,1751,1751,1751,1751,1751,1751,1751,0,0,0,0,0,0,1075,1075,1075,1075,1075,1075,1075,515,515,515,515,515,515,515,515,515,515,1751,1751,1751,1751,1751,1751,1751,1751,1751,1751,1751,1751,1751,0,
1751,1751,1751,1751,1751,1751,1751,1751,1751,1751,1751,0,0,0,0,0,1075,1075,1075,1075,1075,1020,262,911,0,0,0,0,0,0,515,0,0,1751,1751,1751,1751,1751,1751,1751,1751,1751,1751,1751,1751,1751,1751,0,
1751,1751,1751,1751,1751,1751,1751,1751,1751,1751,1751,0,0,0,0,1075,1075,1075,1075,1075,1075,1023,1133,1027,959,959,959,906,0,0,0,0,0,0,1751,1751,1751,1751,1751,1751,1751,1751,1751,1751,1751,1751,1751,0,
1751,1751,1751,1751,1751,1751,1751,1751,1751,1751,1751,1751,1751,1751,1751,623,1075,1075,1020,1104,1104,1052,0,4761,988,988,988,935,959,959,959,959,959,959,1751,1751,1751,1751,1751,1751,1751,1751,1751,1751,1751,1751,1751,0,
1751,1751,1751,1751,1751,1751,1751,1751,1751,1751,1751,1751,1751,1751,1751,1075,1075,1075,1023,1050,1050,1081,0,1016,1017,1017,1017,964,988,988,988,988,988,988,1751,1751,1751,1751,1751,1751,1751,1751,1751,1751,1751,1751,1751,0,
1751,1751,1751,1751,1751,1751,1751,1751,1751,1751,1751,0,0,0,0,1075,0,1075,4806,0,0,0,0,0,0,0,0,1016,963,1133,1024,1017,1144,1046,0,0,0,0,0,0,0,0,1751,1751,1751,1751,1751,0,
1751,1751,1751,1751,1751,1751,1751,1751,1751,1751,1751,0,0,0,0,0,0,1075,1136,260,1046,1047,0,0,0,0,0,0,0,0,0,0,4803,1075,0,0,0,0,0,0,0,0,1751,1751,1751,1751,1751,0,
1751,1751,1751,1751,1751,1751,1751,1751,1751,1751,1751,0,0,0,0,0,0,1075,1075,1075,1075,1076,0,0,0,0,0,0,0,0,0,0,1109,1075,0,0,0,0,0,0,0,0,1751,1751,1751,1751,1751,0,
1751,1751,1751,1751,1751,1751,1751,1751,1751,1751,1751,0,0,0,0,0,0,1075,622,1075,1075,1136,1137,259,1047,0,1045,259,260,1137,1137,1137,1138,1075,0,0,0,0,0,0,0,0,1751,1751,1751,1751,1751,0,
1751,1751,1751,1751,1751,1751,1751,1751,1751,1751,1751,0,0,0,0,0,1075,1075,1075,1075,1075,1075,1075,1075,1076,0,1074,1075,0,0,0,0,0,0,0,0,0,0,0,0,0,0,1751,1751,1751,1751,1751,0,
1751,1751,1751,1751,1751,1751,1751,1751,1751,1751,1751,0,0,0,0,0,1075,1075,1075,1075,1075,606,1075,1075,1075,0,0,0,0,0,0,0,0,1751,1751,0,0,0,0,0,0,0,1751,1751,1751,1751,1751,0,
1751,1751,1751,1751,1751,1751,1751,1751,1751,0,0,0,0,0,0,1075,1075,1075,1075,1075,1075,1020,262,1104,1104,0,0,0,0,0,0,0,0,1751,1751,1751,0,0,0,0,0,0,1751,1751,1751,1751,1751,0,
1751,1751,1751,1751,1751,1751,1751,1751,1751,0,0,0,0,0,0,1075,1075,1075,1075,1075,623,1023,1024,1133,1133,0,0,0,0,0,0,0,0,1751,1751,1751,0,0,0,0,0,0,1751,1751,1751,1751,1751,0,
1751,1751,1751,1751,1751,1751,1751,1751,1751,1751,0,0,0,0,0,0,0,0,514,1075,1075,1076,0,1045,1046,1075,1075,1075,0,1075,0,0,0,0,1751,1751,1751,1751,1751,1751,1751,1751,1751,1751,1751,1751,1751,0,
1751,1751,1751,1751,1751,1751,1751,1751,1751,1751,1074,0,0,0,0,0,555,556,514,1075,1075,1136,1137,1138,623,1075,1075,1075,1075,1075,1075,1075,1075,1075,1751,1751,1751,1751,1751,1751,1751,1751,1751,1751,1751,1751,1751,0,
1751,1751,1751,1751,1751,1751,1751,1751,1751,1751,1751,1751,1394,1394,497,498,572,573,537,1075,605,1020,1104,1022,501,532,582,261,503,1075,1075,1075,1075,1075,1751,1751,1751,1751,1751,1751,1751,1751,1751,1751,1751,1751,1751,0,
1751,1751,1751,1751,1751,1751,1751,1751,1751,1751,1751,1751,1751,1751,1751,1020,262,1104,1104,1104,264,1049,1133,1025,1751,1751,599,549,520,1075,1075,1075,1075,1075,1751,1751,1751,1751,1751,1751,1751,1751,1751,1751,1751,1751,1751,0,
1751,1751,1751,1751,1751,1751,1751,1751,1751,1751,1751,1751,1751,1751,1751,1023,1133,1017,1133,963,1133,1134,0,1074,1751,1751,616,0,514,1075,1075,1075,1075,1075,1751,1751,1751,1751,1751,1751,1751,1751,1751,1751,1751,1751,1751,0,
1751,1751,1751,1751,1751,1751,1751,1751,1751,1751,1751,1751,1751,1751,1751,1076,0,1045,1046,1046,1046,1046,1046,1138,1751,1751,0,0,514,1075,1075,1075,1075,1075,1751,1751,1751,1751,1751,1751,1751,1751,1751,1751,1751,1751,1751,0,
1751,1751,1751,1751,1751,1751,1751,1751,1751,1751,1751,1751,1751,1751,1751,0,0,0,0,0,0,0,0,0,1751,1751,1751,1751,1751,0,0,0,0,0,1751,1751,1751,1751,1751,1751,1751,1751,1751,1751,1751,1751,1751,0,
1751,1751,1751,1751,1751,1751,1751,1751,1751,1751,1751,1751,1751,1751,1751,0,0,0,0,0,0,0,0,0,1751,1751,1751,1751,1751,1751,1751,1751,1751,1751,1751,1751,1751,1751,1751,1751,1751,1751,1751,1751,1751,1751,1751,0,
1751,1751,1751,1751,1751,1751,1751,1751,1751,1751,1751,1751,1751,1751,1751,1751,0,0,0,0,0,0,0,0,0,1751,1751,1751,1751,1751,1751,1751,1751,1751,1751,1751,1751,1751,1751,1751,1751,1751,1751,1751,1751,1751,1751,0,
1751,1751,1751,1751,1751,1751,1751,1751,1751,1751,1751,1751,1751,1751,1751,1751,0,1751,1751,1751,1751,1751,1751,1751,1751,1751,1751,1751,1751,1751,1751,1751,1751,1751,1751,1751,1751,1751,1751,1751,1751,1751,1751,1751,1751,1751,1751,0,
1751,1751,1751,1751,1751,1751,1751,1751,1751,1751,1751,1751,1751,1751,1751,1751,1751,0,0,0,0,0,0,0,1751,1751,1751,1751,1751,1751,1751,1751,1751,1751,1751,1751,1751,1751,1751,1751,1751,1751,1751,1751,1751,1751,1751,0,
1751,1751,1751,1751,1751,1751,1751,1751,1751,1751,1751,1751,1751,1751,1751,1751,1751,1751,0,0,0,0,0,0,0,1751,1751,1751,1751,1751,1751,1751,1751,1751,1751,1751,1751,1751,1751,1751,1751,1751,1751,1751,1751,1751,1751,0,
1751,1751,1751,1751,1751,1751,1751,1751,1751,1751,1751,1751,1751,1751,1751,1751,0,1751,0,0,0,0,0,1751,1751,1751,1751,1751,1751,1751,1751,1751,1751,1751,1751,1751,1751,1751,1751,1751,1751,1751,1751,1751,1751,1751,1751,0,
1751,1751,1751,1751,1751,1751,1751,1751,1751,1751,1751,1751,1751,1751,1751,1751,1751,1751,0,0,0,1751,1751,1751,1751,1751,1751,1751,1751,1751,1751,1751,1751,1751,1751,1751,1751,1751,1751,1751,1751,1751,1751,1751,1751,1751,1751,0,
1751,1751,1751,1751,1751,1751,1751,1751,1751,1751,1751,1751,1751,1751,1751,1751,1751,1751,1751,1751,1751,1751,1751,1751,1751,1751,1751,1751,1751,1751,1751,1751,1751,1751,1751,1751,1751,1751,1751,1751,1751,1751,1751,1751,1751,1751,1751,0,
1751,1751,1751,1751,1751,1751,1751,1751,1751,1751,1751,1751,1751,1751,1751,1751,1751,1751,1751,1751,1751,1751,1751,1751,1751,1751,1751,1751,1751,1751,1751,1751,1751,1751,1751,1751,1751,1751,1751,1751,1751,1751,1751,1751,1751,1751,1751,0,
1751,1751,1751,1751,1751,1751,1751,1751,1751,1751,1751,1751,1751,1751,1751,1751,1751,1751,1751,1751,1751,1751,1751,1751,1751,1751,1751,1751,1751,1751,1751,1751,1751,1751,1751,1751,1751,1751,1751,1751,1751,1751,1751,1751,1751,1751,1751,0
</data>
 </layer>
 <layer id="20" name="water_detailization" width="48" height="48">
  <data encoding="csv">
0,0,0,0,0,0,0,0,0,0,0,0,0,0,0,0,1903,1904,1905,1906,1907,1908,0,0,0,0,0,0,0,0,0,0,0,0,0,0,0,0,0,0,0,0,0,0,0,0,0,0,
0,0,0,0,0,0,0,0,2111,2112,2113,2114,2115,2116,2117,2118,2119,0,0,0,0,1984,1985,1986,1987,1988,1989,1990,1991,1992,1993,1994,1903,1904,1905,1906,1907,1908,0,1903,1904,1905,1906,1907,1908,0,0,0,
0,0,0,0,0,0,0,0,2148,2149,2150,2151,2152,2153,2154,1903,1904,1905,1906,1907,1908,2021,2022,2023,2024,2025,2026,2027,2028,2029,2030,2031,2032,2033,0,0,0,0,0,0,0,0,0,0,0,0,0,0,
0,2111,2112,2113,2114,2115,2116,2117,2118,2119,2187,2188,2189,2190,2191,2192,2193,0,0,0,0,2058,2059,2060,2061,2062,2063,2064,2065,2066,2067,2068,2069,2070,0,0,0,0,2121,2122,2123,2124,2125,0,0,0,0,0,
0,2148,2149,2150,2151,2152,2153,2154,2155,2156,0,0,0,0,0,0,0,0,0,0,0,2095,2096,2097,2098,2099,2100,2101,2102,2103,2104,2105,2106,2107,0,0,0,0,2158,2159,2160,2161,2162,0,0,0,0,0,
0,2185,2186,2187,2188,2189,2190,2191,2192,2193,0,0,0,0,0,0,0,0,0,0,0,0,0,0,0,0,0,0,0,0,0,0,0,0,0,0,0,0,2111,2112,2113,2114,2115,2116,2117,2118,2119,0,
0,0,0,0,0,0,0,0,0,0,0,0,0,0,0,0,0,0,0,0,0,0,0,0,0,0,0,0,0,0,0,0,0,0,0,0,0,0,2148,2149,2150,2151,2152,2153,2154,2155,2156,0,
1836,1837,1838,1839,1840,1841,1842,1843,1844,1845,0,0,0,0,0,0,0,0,0,0,0,0,0,0,0,0,0,0,0,0,0,0,0,0,0,0,0,0,2185,2186,2187,2121,2122,2123,2124,2125,2193,0,
1873,1874,1875,1876,1877,1878,1879,1880,1881,1882,0,0,0,0,0,0,0,0,0,0,0,0,0,0,0,0,0,0,0,0,0,0,0,0,0,0,0,0,0,0,0,2158,2159,2160,2161,2162,0,0,
1910,1911,1912,1913,1914,1915,1916,1917,1918,1919,0,0,0,0,0,0,0,0,0,0,0,0,0,0,0,0,0,0,0,0,0,0,0,0,0,0,0,0,0,0,0,2195,1903,1904,1905,1906,1907,1908,
2016,2017,2018,1950,1951,1952,1953,2016,2017,2018,0,0,0,0,0,0,0,0,0,0,0,0,0,0,0,0,0,0,0,0,0,0,0,0,0,0,0,1903,1904,1905,1906,1907,1908,0,0,0,0,0,
2053,2054,2055,0,0,0,0,2053,2054,2055,0,0,0,0,0,0,0,0,0,0,0,0,0,0,0,0,0,0,0,0,0,0,0,0,0,0,0,0,0,0,0,0,0,0,0,0,0,0,
0,0,0,0,0,0,0,0,0,0,0,0,0,0,0,0,0,0,0,0,0,0,0,0,0,0,0,0,0,0,0,0,0,0,0,0,1984,1985,1986,1987,1988,1989,1990,1991,1992,1993,1994,1995,
0,0,0,1853,1854,1855,1856,1857,1858,1859,1860,1861,1862,1863,0,0,0,0,0,0,0,0,0,0,0,0,0,0,0,0,0,0,0,0,0,0,2021,2022,2023,2024,2025,2026,2027,2028,2029,2030,2031,0,
0,0,0,1890,1891,1892,1893,1894,1895,1896,1897,1898,1899,1900,0,0,0,0,0,0,0,0,0,0,0,0,0,0,0,0,0,0,0,0,2121,2122,2123,2124,2125,2061,2062,2063,2064,2065,2066,2067,2068,2069,
0,0,0,1927,1928,1929,1930,1931,1932,1933,1934,1935,1936,1937,0,0,0,0,0,0,0,0,0,0,0,0,0,0,0,0,0,0,0,0,2158,2159,2160,2161,2162,2098,2099,2100,2101,2102,2103,2104,2105,2106,
1853,1854,1855,1856,1857,1858,1859,1860,1861,1862,1863,0,0,0,0,0,0,0,0,0,0,0,0,0,0,0,0,0,0,0,0,0,0,0,2195,2196,2197,2198,2199,0,0,0,0,0,0,0,0,0,
1890,1891,1892,1893,1894,1895,1896,1897,1898,1899,1900,0,0,0,0,0,0,0,0,0,0,0,0,0,0,0,0,0,0,0,0,0,0,0,0,1853,1854,1855,1856,1857,1858,1859,1860,1861,1862,1863,0,0,
1927,1928,2016,2017,2018,1932,1933,1934,2016,2017,2018,0,0,0,0,0,0,0,0,0,0,0,0,0,0,0,0,0,0,0,0,0,0,0,0,1890,1891,1892,1893,1894,1895,1896,1897,1898,1899,1900,0,0,
0,0,2053,2054,2055,0,0,0,2016,2017,2018,0,0,0,0,0,0,0,0,0,0,0,0,0,0,0,0,0,0,0,0,0,0,0,0,1927,1928,1929,1930,1931,1932,1933,1934,1935,1936,1937,0,0,
0,0,0,0,0,0,0,0,2053,2054,2055,0,0,0,0,0,0,0,0,0,0,0,0,0,0,0,0,0,0,0,0,0,0,0,2121,2122,2123,2124,2111,2112,2113,2114,2115,2116,2117,2118,2119,0,
1985,1986,1987,1988,1989,1990,1991,1992,1993,1994,1995,1996,0,0,0,0,0,0,0,0,0,0,0,0,0,0,0,0,0,0,0,0,0,0,2158,2159,2160,2161,2148,2149,2150,2151,2152,2153,2154,2155,2156,0,
2017,2018,2024,2025,2026,2027,2028,2029,2030,2031,2032,2033,0,0,0,0,0,0,0,0,1853,1854,1855,1856,1857,1858,1859,0,0,1862,1863,1864,1865,0,0,0,0,0,2185,2186,2187,2188,2189,2190,2191,2192,2193,0,
2054,2055,2061,2062,2063,2064,2065,2066,2067,2068,2069,2070,0,0,0,0,0,0,0,0,1890,1891,1892,1893,1894,1895,1896,1897,1898,1899,1900,1901,1902,0,0,0,0,0,0,0,0,0,0,0,0,0,0,0,
1836,1837,1838,1839,1840,1841,1842,1843,1844,1845,2106,2107,0,0,0,0,0,0,0,0,1927,1928,1929,1930,1931,1932,1933,1934,1935,1936,1937,1938,1939,0,0,0,0,0,0,0,0,0,0,0,0,0,0,0,
1873,1874,1875,1876,1877,1878,1879,1880,1881,1882,0,0,0,0,0,0,0,0,0,0,0,0,0,0,0,0,2121,2122,2123,2124,2125,0,0,0,0,0,0,0,0,0,0,0,0,0,0,0,0,0,
1910,1911,1912,1913,1914,1915,1916,1917,1918,1919,0,0,0,0,0,0,0,0,0,0,0,0,0,0,0,0,2158,0,0,0,2162,0,0,0,0,0,0,0,0,0,0,0,0,0,0,0,0,0,
1947,1948,1949,1950,2016,2017,2018,1954,1955,1956,0,0,0,0,0,0,0,0,0,0,0,0,0,0,0,0,2195,2196,2197,2198,2199,0,0,0,0,0,0,0,0,0,0,0,0,0,0,0,0,0,
0,0,0,0,2053,2054,2055,0,0,0,0,0,0,0,0,0,0,0,0,0,0,0,0,0,0,0,0,0,0,0,0,0,0,0,0,0,0,0,0,0,0,0,0,0,0,0,0,0,
1838,1839,1840,1841,1842,1843,1844,1845,0,0,0,0,0,0,0,0,0,0,0,0,0,0,0,0,0,0,0,0,0,0,0,0,0,0,0,0,0,0,0,0,0,0,0,0,0,0,0,0,
1875,1876,1877,1878,1879,1880,1881,1882,0,0,0,0,0,0,0,0,0,0,0,0,0,0,0,0,0,0,0,0,0,0,0,0,0,0,0,0,0,0,0,0,0,0,1105,0,0,0,0,0,
1912,1913,1914,1915,1916,1917,1918,1919,0,0,0,0,0,0,0,0,0,0,0,0,0,2052,2053,0,2055,2056,0,0,0,0,0,0,0,0,0,0,0,0,0,0,0,0,1134,0,0,0,0,0,
1949,1950,1951,1952,1953,1954,1955,1956,0,0,0,0,0,0,0,0,0,0,0,0,0,0,0,0,0,0,0,0,0,0,0,0,0,0,0,0,0,0,2053,2054,0,0,0,0,0,0,0,0,
0,0,0,0,0,0,0,0,0,0,0,0,0,0,0,0,0,0,0,0,0,0,0,0,0,0,0,0,0,0,0,0,0,0,2121,2122,2123,2124,0,0,0,0,0,0,0,0,0,0,
0,0,0,2121,2122,2123,2124,2125,0,0,0,0,0,0,0,0,0,0,0,0,0,0,0,0,0,0,0,0,0,0,0,0,0,0,2158,2159,2160,2161,0,0,0,0,0,0,0,0,0,0,
0,0,0,2158,2159,2160,2161,2162,0,0,2121,2122,2123,2124,0,0,2140,2141,2142,2143,2144,2145,0,0,0,0,0,0,0,0,0,0,0,0,2053,2054,0,0,0,0,0,0,0,0,0,0,0,0,
0,0,0,2195,2196,2197,2198,2199,0,0,2158,2159,2160,2161,0,2176,2177,0,0,2180,2181,2182,0,0,0,0,0,0,0,0,0,0,0,0,2121,2122,2123,2124,0,0,0,0,0,0,0,0,0,0,
1854,1855,1856,1857,1858,1859,1860,1861,1862,1863,0,0,0,0,0,0,0,0,0,0,0,0,0,0,0,0,0,0,0,0,0,0,0,0,2158,2159,2160,2161,0,0,0,0,0,0,0,0,0,0,
1891,1892,1893,1894,1895,1896,1897,1898,1899,1900,1862,1863,0,0,0,0,0,0,0,0,0,0,0,0,0,0,0,0,0,0,0,0,0,1853,1854,1855,1856,1857,1858,1859,1860,1861,1862,1863,0,0,0,0,
1928,1929,1930,1931,1932,1933,1934,1935,1936,1937,1899,1900,0,0,0,0,0,0,0,0,0,0,0,0,0,0,0,0,0,2121,2122,2123,2124,2125,1853,1854,1855,1856,1857,1858,1859,1860,1861,1862,1863,0,0,0,
0,1927,1928,1929,1930,1931,1932,1933,1934,2121,2122,2123,2124,0,0,0,2121,2122,2123,2124,0,0,0,0,0,0,0,0,0,2158,2159,2160,2161,2162,1890,1891,1892,1893,1894,1895,1896,1897,1898,1899,1900,0,0,0,
0,0,0,0,0,0,0,0,0,2158,2159,2160,2161,0,0,0,2158,2159,2160,2161,1855,1856,1857,1858,1859,1860,1861,1862,2111,2112,2113,2114,2115,2116,2117,2118,2119,1930,1931,1932,1933,1934,1935,1936,1937,0,0,0,
0,0,2121,2122,2123,2124,2125,0,0,0,0,0,0,0,0,0,0,2053,2054,1891,1892,1893,1894,1895,1896,1897,1898,1899,2148,2149,2150,2151,2152,2153,2154,2155,2156,2111,2112,2113,2114,2115,2116,2117,2118,2119,0,0,
0,0,2158,2159,2160,2161,2162,0,0,0,0,0,0,0,0,0,2121,2122,2123,2124,1929,1930,1931,1932,1933,1934,1935,1936,2185,2186,2187,2188,2189,2190,2191,2192,2193,2148,2149,2150,2151,2152,2153,2154,2155,2156,0,0,
0,0,2195,2196,2074,2075,2076,2077,2078,2079,2080,2081,0,0,0,0,2158,2159,2160,1903,1904,1905,1906,1907,1908,0,0,2111,2112,2113,2114,2115,2116,2117,2118,2119,0,2185,2186,2074,2075,2076,2077,2078,2079,2080,2081,0,
0,0,0,0,2111,2112,2113,2114,2115,2116,2117,2118,0,0,0,0,0,0,0,0,0,0,0,0,0,0,0,2148,2149,2150,2151,2152,2153,2154,2155,2156,0,0,0,2111,2112,2113,2114,2115,2116,2117,2118,0,
0,0,0,0,2148,2149,2150,2151,2152,2153,2154,2155,0,0,0,0,0,0,0,1903,1904,1905,1906,1907,1908,0,0,2185,2186,2187,2188,2189,2190,2191,2192,2193,0,0,0,2148,2149,2150,2151,2152,2153,2154,2155,0,
0,0,0,0,2185,2186,2187,2188,2189,2190,2191,2192,0,0,0,0,0,0,0,0,0,0,0,0,0,0,0,0,0,0,0,0,0,0,0,0,0,0,0,2185,2186,2187,2188,2189,2190,2191,2192,0
</data>
 </layer>
 <layer id="11" name="Floor2_darker_surface" width="48" height="48">
  <data encoding="csv">
0,0,0,0,0,0,0,0,0,0,0,0,0,0,0,0,0,0,0,0,0,0,0,0,0,0,0,0,0,0,0,0,0,0,0,0,0,0,0,0,0,0,0,0,0,0,0,0,
0,0,0,0,0,0,0,0,0,0,0,0,0,0,0,0,0,0,0,0,0,0,0,0,0,0,0,0,0,0,0,0,0,0,0,0,0,0,0,0,0,0,0,0,0,0,0,0,
0,0,0,0,0,0,0,0,0,0,0,0,0,0,0,0,0,0,0,0,0,0,0,0,0,0,0,0,0,0,0,0,0,0,0,0,0,0,0,0,0,0,0,0,0,0,0,0,
0,0,0,0,0,0,0,0,0,0,0,0,0,0,0,0,0,0,0,0,0,0,0,0,0,0,0,0,0,0,0,0,0,0,0,0,0,0,0,0,0,0,0,0,0,0,0,0,
0,0,0,0,0,0,0,0,0,0,0,0,0,0,0,0,0,0,0,0,0,0,0,0,0,0,0,0,0,0,0,0,0,0,0,0,0,0,0,0,0,0,0,0,0,0,0,0,
0,0,0,0,0,0,0,0,0,0,0,0,0,0,0,0,0,0,0,0,0,0,0,0,0,0,0,0,0,0,0,0,0,0,0,0,0,0,0,0,0,0,0,0,0,0,0,0,
0,0,0,0,0,0,0,0,0,0,0,0,0,0,0,0,0,0,0,0,0,0,0,0,0,0,0,0,0,0,0,0,0,0,0,0,0,0,0,0,0,0,0,0,0,0,0,0,
0,0,0,0,0,0,0,0,0,0,0,0,0,0,0,0,0,0,0,0,0,0,0,0,0,0,0,0,0,0,0,0,0,0,0,0,0,0,0,0,0,0,0,0,0,0,0,0,
0,0,0,0,0,0,0,0,0,0,0,0,0,0,0,0,0,0,0,0,0,0,0,0,0,0,0,0,0,0,0,0,0,0,0,0,0,0,0,0,0,0,0,0,0,0,0,0,
0,0,0,0,0,0,0,0,0,0,0,0,0,0,0,0,0,0,0,0,0,0,0,0,0,0,0,0,0,0,0,0,0,0,0,0,0,0,0,0,0,0,0,0,0,0,0,0,
0,0,0,0,0,0,0,0,0,0,0,0,0,0,0,0,0,0,0,0,0,0,0,0,0,0,0,0,0,0,0,0,0,0,0,0,0,0,0,0,0,0,0,0,0,0,0,0,
0,0,0,0,0,0,0,0,0,0,0,0,0,0,0,0,0,0,0,0,0,0,0,0,0,0,0,0,0,0,0,0,0,0,0,0,0,0,0,0,0,0,0,0,0,0,0,0,
0,0,0,0,0,0,0,0,0,0,0,0,0,0,0,0,0,0,0,0,0,0,0,0,0,0,0,0,0,0,0,0,0,0,0,0,0,0,0,0,0,0,0,0,0,0,0,0,
0,0,0,0,0,0,0,0,0,0,0,0,0,0,0,0,0,0,0,0,1713,0,0,0,0,499,1336,1336,0,0,0,0,0,0,0,0,0,0,0,0,0,0,0,0,0,0,0,0,
0,0,0,0,0,0,0,0,0,0,0,0,0,0,0,0,0,0,0,0,0,0,0,0,0,0,0,0,0,0,0,0,0,0,0,0,0,0,0,0,0,0,0,0,0,0,0,0,
0,0,0,0,0,0,0,0,0,0,0,0,0,0,0,0,115,0,115,115,0,0,0,0,0,515,0,0,626,334,0,0,0,0,0,0,0,0,0,0,0,0,0,0,0,0,0,0,
0,0,0,0,0,0,0,0,0,0,0,0,0,0,0,627,627,627,627,627,627,627,627,627,627,627,628,0,626,334,0,0,627,0,0,0,0,0,0,0,0,0,0,0,0,0,0,0,
0,0,0,0,0,0,0,0,0,0,0,0,0,0,0,627,627,612,644,348,644,613,627,627,627,627,334,0,626,334,0,0,627,0,0,0,0,0,0,0,0,0,0,0,0,0,0,0,
0,0,0,0,0,0,0,0,0,0,0,0,0,0,0,627,627,628,0,0,0,339,345,644,644,644,342,0,626,627,627,0,0,0,0,0,0,0,0,0,0,0,0,0,0,0,0,0,
0,0,0,0,0,0,0,0,0,0,0,0,0,0,0,627,627,628,0,0,0,0,0,0,0,0,0,0,0,0,0,0,0,0,0,0,0,0,0,0,0,0,0,0,0,0,0,0,
0,0,0,0,0,0,0,0,0,0,0,0,0,0,0,644,644,341,0,0,0,0,0,0,0,0,0,0,0,0,0,0,0,0,0,0,0,0,0,0,0,0,0,0,0,0,0,0,
0,0,0,0,0,0,0,0,0,0,0,0,0,0,0,0,0,0,0,0,0,0,0,0,0,0,0,0,0,0,0,0,0,0,0,0,0,0,0,0,0,0,0,0,0,0,0,0,
0,0,0,0,0,0,0,0,0,0,0,0,0,0,0,0,0,325,0,0,0,0,0,0,0,0,0,0,0,0,0,0,0,0,0,0,0,0,0,0,0,0,0,0,0,0,0,0,
0,0,0,0,0,0,0,0,0,0,0,0,0,0,0,627,627,628,0,0,0,0,0,0,0,0,0,0,0,0,0,0,0,0,0,0,0,0,0,0,0,0,0,0,0,0,0,0,
0,0,0,0,0,0,0,0,0,0,0,0,0,0,0,627,627,628,0,0,0,0,0,0,0,0,0,0,0,0,0,0,0,323,0,0,0,0,0,0,0,0,0,0,0,0,0,0,
0,0,0,0,0,0,0,0,0,0,0,0,0,0,0,627,627,628,0,0,0,0,0,0,0,0,0,0,0,0,0,0,0,330,0,0,0,0,0,0,0,0,0,0,0,0,0,0,
0,0,0,0,0,0,0,0,0,0,0,0,0,0,0,627,627,628,0,0,0,0,0,0,0,0,0,0,0,0,0,0,0,626,0,0,0,0,0,0,0,0,0,0,0,0,0,0,
0,0,0,0,0,0,0,0,0,0,0,0,0,0,0,627,627,628,0,0,0,0,0,0,0,0,0,0,0,0,0,0,0,0,0,0,0,0,0,0,0,0,0,0,0,0,0,0,
0,0,0,0,0,0,0,0,0,0,0,0,0,0,0,627,627,628,0,0,0,0,0,0,0,0,0,0,0,0,0,0,0,0,0,0,0,0,0,0,0,0,0,0,0,0,0,0,
0,0,0,0,0,0,0,0,0,0,0,0,0,0,0,347,644,645,0,0,0,0,0,0,0,0,0,0,0,0,0,0,0,0,0,0,0,0,0,0,0,0,0,0,0,0,0,0,
0,0,0,0,0,0,0,0,0,0,0,0,0,0,0,626,626,627,0,0,0,0,0,0,0,0,0,0,0,0,0,0,0,0,0,0,0,0,0,0,0,0,0,0,0,0,0,0,
0,0,0,0,0,0,0,0,0,0,0,0,0,0,0,627,627,627,0,0,0,0,0,0,0,0,627,627,0,0,0,0,0,0,0,0,0,0,0,0,0,0,0,0,0,0,0,0,
0,0,0,0,0,0,0,0,0,0,0,627,0,0,0,624,0,0,0,0,0,0,0,0,0,0,626,627,627,627,627,627,627,627,0,0,0,0,0,0,0,0,0,0,0,0,0,0,
0,0,0,0,0,0,0,0,0,0,0,0,0,0,532,0,0,0,0,0,0,0,0,0,0,0,643,644,644,613,627,627,627,627,0,0,0,0,0,0,0,0,0,0,0,0,0,0,
0,0,0,0,0,0,0,0,0,0,0,0,0,0,0,0,0,0,0,0,0,0,0,0,0,0,0,0,0,626,624,627,627,627,0,0,0,0,0,0,0,0,0,0,0,0,0,0,
0,0,0,0,0,0,0,0,0,0,0,0,0,0,0,0,0,0,0,0,0,0,0,0,0,0,0,0,0,626,627,627,627,627,0,0,0,0,0,0,0,0,0,0,0,0,0,0,
0,0,0,0,0,0,0,0,0,0,0,0,0,0,0,0,0,0,0,0,0,0,0,0,0,0,0,0,0,626,627,627,627,627,0,0,0,0,0,0,0,0,0,0,0,0,0,0,
0,0,0,0,0,0,0,0,0,0,0,0,0,0,0,0,0,0,0,0,0,0,0,0,0,0,0,0,0,0,0,0,0,0,0,0,0,0,0,0,0,0,0,0,0,0,0,0,
0,0,0,0,0,0,0,0,0,0,0,0,0,0,0,0,0,0,0,0,0,0,0,0,0,0,0,0,0,0,0,0,0,0,0,0,0,0,0,0,0,0,0,0,0,0,0,0,
0,0,0,0,0,0,0,0,0,0,0,0,0,0,0,0,0,0,0,0,0,0,0,0,0,0,0,0,0,0,0,0,0,0,0,0,0,0,0,0,0,0,0,0,0,0,0,0,
0,0,0,0,0,0,0,0,0,0,0,0,0,0,0,0,0,0,0,0,0,0,0,0,0,0,0,0,0,0,0,0,0,0,0,0,0,0,0,0,0,0,0,0,0,0,0,0,
0,0,0,0,0,0,0,0,0,0,0,0,0,0,0,0,0,0,0,0,0,0,0,0,0,0,0,0,0,0,0,0,0,0,0,0,0,0,0,0,0,0,0,0,0,0,0,0,
0,0,0,0,0,0,0,0,0,0,0,0,0,0,0,0,0,0,0,0,0,0,0,0,0,0,0,0,0,0,0,0,0,0,0,0,0,0,0,0,0,0,0,0,0,0,0,0,
0,0,0,0,0,0,0,0,0,0,0,0,0,0,0,0,0,0,0,0,0,0,0,0,0,0,0,0,0,0,0,0,0,0,0,0,0,0,0,0,0,0,0,0,0,0,0,0,
0,0,0,0,0,0,0,0,0,0,0,0,0,0,0,0,0,0,0,0,0,0,0,0,0,0,0,0,0,0,0,0,0,0,0,0,0,0,0,0,0,0,0,0,0,0,0,0,
0,0,0,0,0,0,0,0,0,0,0,0,0,0,0,0,0,0,0,0,0,0,0,0,0,0,0,0,0,0,0,0,0,0,0,0,0,0,0,0,0,0,0,0,0,0,0,0,
0,0,0,0,0,0,0,0,0,0,0,0,0,0,0,0,0,0,0,0,0,0,0,0,0,0,0,0,0,0,0,0,0,0,0,0,0,0,0,0,0,0,0,0,0,0,0,0,
0,0,0,0,0,0,0,0,0,0,0,0,0,0,0,0,0,0,0,0,0,0,0,0,0,0,0,0,0,0,0,0,0,0,0,0,0,0,0,0,0,0,0,0,0,0,0,0
</data>
 </layer>
 <layer id="10" name="Floor" width="48" height="48">
  <data encoding="csv">
0,0,0,0,0,0,0,0,0,0,0,0,0,0,0,0,0,0,0,0,0,0,0,0,0,0,0,0,0,0,0,0,0,0,0,0,0,0,0,0,0,0,0,0,0,0,0,0,
0,0,0,0,0,0,0,0,0,0,0,0,0,0,0,0,0,0,0,0,0,0,0,0,0,0,0,0,0,0,0,0,0,0,0,0,0,0,0,0,0,0,0,0,0,0,0,0,
0,0,0,0,0,0,0,0,0,0,0,0,0,0,0,0,0,0,0,0,0,0,0,0,0,0,0,0,0,0,0,0,0,0,0,0,0,0,0,0,0,0,0,0,0,0,0,0,
0,0,0,0,0,0,0,0,0,0,0,0,0,0,0,0,0,0,0,0,0,0,0,0,0,0,0,0,0,0,0,0,0,0,0,0,0,0,0,0,0,0,0,0,0,0,0,0,
0,0,0,0,0,0,0,0,0,0,0,0,0,0,0,0,0,0,0,0,0,0,0,0,0,0,0,0,0,0,0,0,0,0,0,0,0,0,0,0,0,0,0,0,0,0,0,0,
0,0,0,0,0,0,0,0,0,0,0,0,0,0,0,0,0,0,0,0,0,0,0,0,0,0,0,0,0,0,0,0,0,0,0,0,0,0,0,0,0,0,0,0,0,0,0,0,
0,0,0,0,0,0,0,0,0,0,0,0,1625,1626,1626,1626,1626,1626,1626,1626,1626,1626,1626,1626,1626,1626,1626,1626,1626,1626,1626,1626,1626,1626,1627,0,0,0,0,0,0,0,0,0,0,0,0,0,
0,0,0,0,0,0,0,0,0,0,0,1625,1718,1655,584,1655,1655,1655,1655,1655,1655,1655,1655,1655,1655,1655,1655,1655,1655,1655,1655,1655,1655,1655,1716,1627,0,0,0,0,0,0,0,0,0,0,0,0,
0,0,0,0,0,0,0,0,0,0,0,1654,1655,497,601,499,1655,1655,1655,1655,1655,1655,1655,1655,1655,1655,1655,1655,1655,1655,1655,1655,1655,1655,1655,1656,0,0,0,0,0,0,0,0,0,0,0,0,
0,0,0,0,0,0,0,0,0,0,0,1654,1655,514,1655,516,1655,1655,1655,1655,1655,1655,1655,1655,1655,1655,1655,1655,1655,1655,1655,1655,1655,1655,1655,1656,0,0,0,0,0,0,0,0,0,0,0,0,
0,0,0,0,0,0,0,0,0,0,0,1654,1655,531,532,533,1655,1655,1655,1655,1655,1655,1655,1655,1655,1655,1655,1655,1655,1655,1655,1655,1655,1655,1655,1656,0,0,0,0,0,0,0,0,0,0,0,0,
0,0,0,0,0,0,0,0,0,0,0,1683,1602,548,549,550,1655,1655,1655,1655,1655,1600,1601,1601,1601,1601,1601,1601,1601,1601,1601,1601,1601,1601,1601,1685,0,0,0,0,0,0,0,0,0,0,0,0,
0,0,0,0,0,0,0,0,0,0,0,1712,1103,1104,1104,1104,1684,1684,1602,1600,1684,1685,1133,1133,1133,1133,1133,1133,1713,1713,1713,1713,1713,1713,1133,1714,0,0,0,0,0,0,0,0,0,0,0,0,
0,0,0,0,0,0,0,0,0,0,0,0,1132,1133,1133,1133,1133,1713,1654,1656,0,1134,497,498,498,498,1336,1336,1336,0,0,0,0,0,0,0,0,0,0,0,0,0,0,0,0,0,0,0,
0,0,0,0,0,0,0,0,0,0,0,0,0,0,0,0,0,0,1654,1076,0,0,514,515,515,516,604,1365,515,336,0,0,0,0,0,0,0,0,0,0,0,0,0,0,0,0,0,0,
0,0,0,0,0,0,0,0,0,0,0,0,0,0,0,0,0,0,514,516,0,0,514,515,515,516,1365,1365,515,0,0,0,0,0,0,0,0,0,0,0,0,0,0,0,0,0,0,0,
0,0,0,0,0,0,0,0,0,0,0,1335,515,0,0,515,491,506,574,575,6,506,507,264,532,533,0,1365,515,0,0,0,0,0,0,0,0,0,0,0,0,0,0,0,0,0,0,0,
0,0,0,0,0,0,0,0,0,0,0,1364,515,0,0,515,516,509,591,592,0,0,524,7,549,550,0,1365,0,0,0,0,0,0,0,0,0,0,0,0,0,0,0,0,0,0,0,0,
0,0,0,0,0,0,0,0,0,0,0,1364,515,532,532,532,533,496,497,498,499,0,0,0,0,0,0,0,0,0,0,0,0,0,0,0,0,0,0,0,0,0,0,0,0,0,0,0,
0,0,0,0,0,0,0,0,0,0,0,1364,515,515,515,8,550,0,531,582,533,0,0,0,0,0,0,0,0,0,0,0,0,0,0,0,0,0,0,0,0,0,0,0,0,0,0,0,
0,0,0,0,0,0,0,0,0,0,0,1364,515,515,515,515,0,0,548,599,550,0,0,0,0,0,0,0,0,0,0,0,0,0,0,0,0,0,0,0,0,0,0,0,0,0,0,0,
0,0,0,0,0,0,0,0,0,0,0,1103,1394,1394,1394,1312,0,0,0,616,0,0,0,0,0,0,0,0,0,0,0,0,0,0,0,0,0,0,0,0,0,0,0,0,0,0,0,0,
0,0,0,0,0,0,0,0,0,0,0,1132,1133,1133,1423,1364,0,0,0,0,0,0,0,0,0,0,0,0,0,0,0,0,0,0,0,0,0,0,0,0,0,0,0,0,0,0,0,0,
0,0,0,0,0,0,0,0,0,0,497,498,498,498,498,498,499,0,0,0,0,0,0,0,0,0,0,0,0,0,0,0,0,0,1336,1336,1336,1336,1336,1336,1336,1336,1337,0,0,0,0,0,
0,0,0,0,0,0,0,0,0,0,514,515,515,606,515,515,603,604,0,0,0,0,0,0,0,0,0,0,0,0,0,0,0,1365,1365,1365,1365,1365,1365,1365,1365,1365,1076,0,0,0,0,0,
0,0,0,0,0,0,0,0,0,0,514,515,515,515,606,605,516,0,0,0,0,0,0,0,0,0,0,0,0,0,0,0,0,1365,1365,1365,1365,1365,1365,1365,1365,1365,1076,0,0,0,0,0,
0,0,0,0,0,0,0,0,0,0,514,515,515,515,515,515,271,0,0,0,0,0,0,0,0,0,0,0,0,0,0,0,0,1365,1365,1365,1365,1365,1365,1365,1365,1365,1076,0,0,0,0,0,
0,0,0,0,0,0,0,0,0,0,531,532,532,532,532,532,533,0,0,0,0,0,0,0,0,0,0,515,515,515,515,515,0,0,1684,1602,1365,1365,1365,1365,1365,1365,1076,0,0,0,0,0,
0,0,0,0,0,0,0,0,0,0,548,549,549,549,549,549,550,0,0,0,0,0,0,0,0,0,0,0,0,0,0,0,0,0,0,1654,1365,1365,1365,1365,1365,1365,1076,0,0,0,0,0,
0,0,0,0,0,0,0,0,0,0,627,627,627,627,627,0,0,0,0,0,0,0,0,0,0,0,0,0,0,0,0,0,0,0,0,1654,1365,1365,1365,1365,1365,1365,1076,0,0,0,0,0,
0,0,0,0,0,0,0,0,0,0,627,627,627,627,627,627,0,0,0,0,0,0,1133,1133,0,0,0,0,0,0,810,811,0,0,0,1103,1394,1394,1394,1394,1394,1394,1105,0,0,0,0,0,
0,0,0,0,0,0,0,0,0,0,627,627,627,627,627,627,0,0,0,0,0,0,0,0,0,0,0,0,0,0,0,0,0,0,0,1132,1133,1133,1133,1133,1133,1133,1134,0,0,0,0,0,
0,0,0,0,0,0,0,0,1306,1307,0,0,627,627,608,0,0,0,0,0,0,0,0,0,0,0,0,0,0,0,0,0,0,0,0,0,0,0,0,0,0,0,0,0,0,0,0,0,
0,0,0,0,0,0,0,0,0,0,1103,1601,0,0,497,0,0,0,0,0,0,0,0,0,0,914,915,916,0,0,0,0,0,0,0,0,0,0,0,0,0,0,0,0,0,0,0,0,
0,0,0,0,0,0,0,0,0,0,1132,1133,1133,1133,1074,0,0,0,0,0,0,0,0,0,1366,943,944,945,0,0,0,0,0,0,0,0,0,0,0,0,0,0,0,0,0,0,0,0,
0,0,0,0,0,0,0,0,0,0,0,0,0,0,1074,0,0,0,0,0,0,0,0,0,1366,972,973,974,0,0,0,0,0,1076,0,0,0,0,0,0,0,0,0,0,0,0,0,0,
0,0,0,0,0,0,0,0,0,0,0,0,0,0,1074,1076,0,0,0,0,0,0,0,0,1366,1001,1002,1003,0,1075,1075,1075,0,1136,1047,0,0,0,0,0,0,0,0,0,0,0,0,0,
0,0,0,0,0,0,0,0,0,0,0,0,0,0,1074,1076,0,1654,1365,1365,1365,1365,1365,1365,1716,1336,1336,1336,1718,1600,1311,1311,1311,1311,1395,0,0,0,0,0,0,0,0,0,0,0,0,0,
0,0,0,0,0,0,0,0,0,0,0,0,0,0,1074,1076,0,1364,1365,1365,1365,1365,1365,1365,1655,1310,1394,1394,1394,1395,1133,1133,1133,1133,1134,0,0,0,0,0,0,0,0,0,0,0,0,0,
0,0,0,0,0,0,0,0,0,0,0,0,0,0,1074,1076,0,1103,1394,1394,1394,1394,1394,1394,1684,1339,1133,1133,1133,1134,0,0,0,0,0,0,0,0,0,0,0,0,0,0,0,0,0,0,
0,0,0,0,0,0,0,0,0,0,0,0,0,0,1074,1076,0,1132,1133,1133,1133,1133,1133,1133,1133,1134,0,0,0,0,0,0,0,0,0,0,0,0,0,0,0,0,0,0,0,0,0,0,
0,0,0,0,0,0,0,0,0,0,0,0,0,0,1074,1076,0,0,0,0,0,0,0,0,0,0,0,0,0,0,0,0,0,0,0,0,0,0,0,0,0,0,0,0,0,0,0,0,
0,0,0,0,0,0,0,0,0,0,0,0,0,0,1074,1076,0,0,0,0,0,3305,3306,0,0,0,0,0,0,0,0,0,0,0,0,0,0,0,0,0,0,0,0,0,0,0,0,0,
0,0,0,0,0,0,0,0,0,0,0,0,0,0,1074,1076,0,0,0,0,0,0,0,0,0,3380,0,0,0,0,0,0,0,0,0,0,0,0,0,0,0,0,0,0,0,0,0,0,
0,0,0,0,0,0,0,0,0,0,0,0,0,0,1103,1105,0,0,0,0,0,0,0,0,3379,3380,0,0,0,0,0,0,0,0,0,0,0,0,0,0,0,0,0,0,0,0,0,0,
0,0,0,0,0,0,0,0,0,0,0,0,0,0,0,0,0,0,0,0,0,0,0,0,0,0,0,0,0,0,0,0,0,0,0,0,0,0,0,0,0,0,0,0,0,0,0,0,
0,0,0,0,0,0,0,0,0,0,0,0,0,0,0,0,0,0,0,0,0,0,0,0,0,0,0,0,0,0,0,0,0,0,0,0,0,0,0,0,0,0,0,0,0,0,0,0,
0,0,0,0,0,0,0,0,0,0,0,0,0,0,0,0,0,0,0,0,0,0,0,0,0,0,0,0,0,0,0,0,0,0,0,0,0,0,0,0,0,0,0,0,0,0,0,0
</data>
 </layer>
 <layer id="12" name="Floor_darker_surface" width="48" height="48">
  <data encoding="csv">
0,0,0,0,0,0,0,0,0,0,0,0,0,0,0,0,0,0,0,0,0,0,0,0,0,0,0,0,0,0,0,0,0,0,0,0,0,0,0,0,0,0,0,0,0,0,0,0,
0,0,0,0,0,0,0,0,0,0,0,0,0,0,0,0,0,0,0,0,0,0,0,0,0,0,0,0,0,0,0,0,0,0,0,0,0,0,0,0,0,0,0,0,0,0,0,0,
0,0,0,0,0,0,0,0,0,0,0,0,0,0,0,0,0,0,0,0,0,0,0,0,0,0,0,0,0,0,0,0,0,0,0,0,0,0,0,0,0,0,0,0,0,0,0,0,
0,0,0,0,0,0,0,0,0,0,0,0,0,0,0,0,0,0,0,0,0,0,0,0,0,0,0,0,0,0,0,0,0,0,0,0,0,0,0,0,0,0,0,0,0,0,0,0,
0,0,0,0,0,0,0,0,0,0,0,0,0,0,0,0,0,0,0,0,0,0,0,0,0,0,0,0,0,0,0,0,0,0,0,0,0,0,0,0,0,0,0,0,0,0,0,0,
0,0,0,0,0,0,0,0,0,0,0,0,0,0,0,0,0,0,0,0,0,0,0,0,0,0,0,0,0,0,0,0,0,0,0,0,0,0,0,0,0,0,0,0,0,0,0,0,
0,0,0,0,0,0,0,0,0,0,0,0,0,0,0,0,0,0,0,0,0,0,0,0,0,0,0,0,0,0,0,0,0,0,0,0,0,0,0,0,0,0,0,0,0,0,0,0,
0,0,0,0,0,0,0,0,0,0,0,0,0,0,0,0,0,0,0,0,0,0,0,324,627,0,0,0,0,0,0,0,0,0,0,0,0,0,0,0,0,0,0,0,0,0,0,0,
0,0,0,0,0,0,0,0,0,0,0,0,0,0,0,0,0,0,0,0,0,0,0,626,627,627,628,0,0,0,0,0,0,0,0,0,0,0,0,0,0,0,0,0,0,0,0,0,
0,0,0,0,0,0,0,0,0,0,0,0,0,0,0,0,0,0,0,0,0,0,0,626,627,627,628,0,0,0,0,0,0,0,0,0,0,0,0,0,0,0,0,0,0,0,0,0,
0,0,0,0,0,0,0,0,0,0,0,0,0,0,0,0,0,0,0,0,0,0,0,340,644,644,341,0,0,0,0,0,0,0,0,0,0,0,0,0,0,0,0,0,0,0,0,0,
0,0,0,0,0,0,0,0,0,0,0,0,0,0,0,0,0,0,0,0,0,0,0,0,0,0,0,0,0,0,0,0,0,0,0,0,0,0,0,0,0,0,0,0,0,0,0,0,
0,0,0,0,0,0,0,0,0,0,0,0,0,0,0,0,0,0,0,0,0,0,0,0,0,0,0,0,0,0,0,0,0,0,0,0,0,0,0,0,0,0,0,0,0,0,0,0,
0,0,0,0,0,0,0,0,0,0,0,0,0,0,0,0,0,0,0,0,0,0,0,0,0,0,0,0,0,0,0,0,0,0,0,0,0,0,0,0,0,0,0,0,0,0,0,0,
0,0,0,0,0,0,0,0,0,0,0,0,0,0,0,0,0,0,0,0,0,0,0,0,0,603,0,0,626,0,0,0,0,0,0,0,0,0,0,0,0,0,0,0,0,0,0,0,
0,0,0,0,0,0,0,0,0,0,0,0,0,0,0,0,0,0,0,0,0,0,0,0,0,0,325,0,626,0,0,0,0,0,0,0,0,0,0,0,0,0,0,0,0,0,0,0,
0,0,0,0,0,0,0,0,0,0,0,0,0,0,0,515,0,0,0,0,0,0,0,0,0,0,0,0,626,0,0,0,0,0,0,0,0,0,0,0,0,0,0,0,0,0,0,0,
0,0,0,0,0,0,0,0,0,0,0,0,0,0,0,515,0,355,0,0,0,0,0,0,0,0,0,0,0,0,0,0,0,0,0,0,0,0,0,0,0,0,0,0,0,0,0,0,
0,0,0,0,0,0,0,0,0,0,0,0,0,0,0,0,0,0,0,0,0,0,0,0,0,0,0,0,0,0,0,0,0,0,0,0,0,0,0,0,0,0,0,0,0,0,0,0,
0,0,0,0,0,0,0,0,0,0,0,0,0,0,0,0,0,0,0,0,0,0,0,0,0,0,0,0,0,0,0,0,0,0,0,0,0,0,0,0,0,0,0,0,0,0,0,0,
0,0,0,0,0,0,0,0,0,0,0,0,643,644,644,644,0,0,0,0,0,0,0,0,0,0,0,0,0,0,0,0,0,0,0,0,0,0,0,0,0,0,0,0,0,0,0,0,
0,0,0,0,0,0,0,0,0,0,0,0,0,0,0,0,0,0,0,0,0,0,0,0,0,0,0,0,0,0,0,0,0,0,0,0,0,0,0,0,0,0,0,0,0,0,0,0,
0,0,0,0,0,0,0,0,0,0,0,0,0,0,0,0,324,0,0,0,0,0,0,0,0,0,0,0,0,0,0,0,0,0,0,0,0,0,0,0,0,0,0,0,0,0,0,0,
0,0,0,0,0,0,0,0,0,0,0,0,0,0,0,0,0,0,0,0,0,0,0,0,0,0,0,0,0,0,0,0,0,0,0,0,0,0,0,0,0,0,0,0,0,0,0,0,
0,0,0,0,0,0,0,0,0,0,0,0,0,0,0,0,0,0,0,0,0,0,0,0,0,0,0,0,0,0,0,0,0,0,0,0,0,0,0,0,0,0,0,0,0,0,0,0,
0,0,0,0,0,0,0,0,0,0,0,0,0,0,0,0,0,0,0,0,0,0,0,0,0,0,0,0,0,0,0,0,0,0,0,0,0,0,0,0,0,0,0,0,0,0,0,0,
0,0,0,0,0,0,0,0,0,0,0,0,0,0,0,0,0,0,0,0,0,0,0,0,0,0,0,0,0,0,0,0,0,0,0,0,0,0,0,0,0,0,0,0,0,0,0,0,
0,0,0,0,0,0,0,0,0,0,0,0,0,0,0,0,0,0,0,0,0,0,0,0,0,0,0,0,0,0,0,0,0,0,0,0,0,0,0,0,0,0,0,0,0,0,0,0,
0,0,0,0,0,0,0,0,0,0,0,0,0,0,0,0,0,0,0,0,0,0,0,0,0,0,0,0,0,0,0,0,0,0,0,0,0,0,0,0,0,0,0,0,0,0,0,0,
0,0,0,0,0,0,0,0,0,0,0,0,0,0,0,0,0,0,0,0,0,0,0,0,0,0,0,0,0,0,0,0,0,0,0,0,0,0,0,0,0,0,0,0,0,0,0,0,
0,0,0,0,0,0,0,0,0,0,0,0,0,0,0,0,0,0,0,0,0,0,0,0,0,0,0,0,0,0,0,0,0,0,0,0,0,0,0,0,0,0,0,0,0,0,0,0,
0,0,0,0,0,0,0,0,0,0,0,0,0,0,0,0,0,0,0,0,0,0,589,0,0,0,0,0,0,0,0,0,0,0,0,0,0,0,0,0,0,0,0,0,0,0,0,0,
0,0,0,0,0,0,0,0,0,0,0,0,0,0,0,0,0,0,0,0,0,0,0,0,0,0,0,0,0,0,0,0,0,0,0,0,0,0,0,0,0,0,0,0,0,0,0,0,
0,0,0,0,0,0,0,0,0,0,0,0,0,0,0,0,0,0,0,0,0,0,0,0,0,0,0,0,0,0,0,0,0,0,0,0,0,0,0,0,0,0,0,0,0,0,0,0,
0,0,0,0,0,0,0,0,0,0,0,0,0,0,0,0,0,0,0,0,0,0,0,0,0,0,0,0,0,0,0,0,0,0,0,0,0,0,0,0,0,0,0,0,0,0,0,0,
0,0,0,0,0,0,0,0,0,0,0,0,0,0,0,0,0,0,0,0,0,0,0,0,0,0,0,0,0,0,0,0,0,0,0,0,0,0,0,0,0,0,0,0,0,0,0,0,
0,0,0,0,0,0,0,0,0,0,0,0,0,0,0,0,0,0,0,0,0,0,0,0,0,0,0,0,0,0,0,0,0,0,0,0,0,0,0,0,0,0,0,0,0,0,0,0,
0,0,0,0,0,0,0,0,0,0,0,0,0,0,0,0,0,0,0,0,0,0,0,0,0,0,0,0,0,0,0,0,0,0,0,0,0,0,0,0,0,0,0,0,0,0,0,0,
0,0,0,0,0,0,0,0,0,0,0,0,0,0,0,0,0,0,0,0,0,0,0,0,0,0,0,0,0,0,0,0,0,0,0,0,0,0,0,0,0,0,0,0,0,0,0,0,
0,0,0,0,0,0,0,0,0,0,0,0,0,0,0,0,0,0,0,0,0,0,0,0,0,0,0,0,0,0,0,0,0,0,0,0,0,0,0,0,0,0,0,0,0,0,0,0,
0,0,0,0,0,0,0,0,0,0,0,0,0,0,0,0,0,0,0,0,0,0,0,0,0,0,0,0,0,0,0,0,0,0,0,0,0,0,0,0,0,0,0,0,0,0,0,0,
0,0,0,0,0,0,0,0,0,0,0,0,0,0,0,0,0,0,0,0,0,0,0,0,0,0,0,0,0,0,0,0,0,0,0,0,0,0,0,0,0,0,0,0,0,0,0,0,
0,0,0,0,0,0,0,0,0,0,0,0,0,0,0,0,0,0,0,0,0,0,0,0,0,0,0,0,0,0,0,0,0,0,0,0,0,0,0,0,0,0,0,0,0,0,0,0,
0,0,0,0,0,0,0,0,0,0,0,0,0,0,0,0,0,0,0,0,0,0,0,0,0,0,0,0,0,0,0,0,0,0,0,0,0,0,0,0,0,0,0,0,0,0,0,0,
0,0,0,0,0,0,0,0,0,0,0,0,0,0,0,0,0,0,0,0,0,0,0,0,0,0,0,0,0,0,0,0,0,0,0,0,0,0,0,0,0,0,0,0,0,0,0,0,
0,0,0,0,0,0,0,0,0,0,0,0,0,0,0,0,0,0,0,0,0,0,0,0,0,0,0,0,0,0,0,0,0,0,0,0,0,0,0,0,0,0,0,0,0,0,0,0,
0,0,0,0,0,0,0,0,0,0,0,0,0,0,0,0,0,0,0,0,0,0,0,0,0,0,0,0,0,0,0,0,0,0,0,0,0,0,0,0,0,0,0,0,0,0,0,0,
0,0,0,0,0,0,0,0,0,0,0,0,0,0,0,0,0,0,0,0,0,0,0,0,0,0,0,0,0,0,0,0,0,0,0,0,0,0,0,0,0,0,0,0,0,0,0,0
</data>
 </layer>
 <layer id="32" name="Objects_under_wall" width="48" height="48">
  <data encoding="csv">
0,0,0,0,0,0,0,0,0,0,0,0,0,0,0,0,0,0,0,0,0,0,0,0,0,0,0,0,0,0,0,0,0,0,0,0,0,0,0,0,0,0,0,0,0,0,0,0,
0,0,0,0,0,0,0,0,0,0,0,0,0,0,0,0,0,0,0,0,0,0,0,0,0,0,0,0,0,0,0,0,0,0,0,0,0,0,0,0,0,0,0,0,0,0,0,0,
0,0,0,0,0,0,0,0,0,0,0,0,0,0,0,0,0,0,0,0,0,0,0,0,0,0,0,0,0,0,0,0,0,0,0,0,0,0,0,0,0,0,0,0,0,0,0,0,
0,0,0,0,0,0,0,0,0,0,0,0,0,0,0,0,0,0,0,0,0,0,0,0,0,0,0,0,0,0,0,0,0,0,0,0,0,0,0,0,0,0,0,0,0,0,0,0,
0,0,0,0,0,0,0,0,0,0,0,0,0,0,0,0,0,0,0,0,0,684,684,684,684,684,684,684,684,0,0,0,0,0,0,0,0,0,0,0,0,0,0,0,0,0,0,0,
0,0,0,0,0,0,0,0,0,0,0,700,0,0,0,0,0,0,0,701,701,701,701,701,701,701,701,701,701,701,0,0,0,0,0,0,0,0,0,0,0,0,0,0,0,0,0,0,
0,0,0,0,0,0,0,0,0,0,0,717,0,0,0,0,0,0,0,0,0,0,0,0,720,720,720,0,0,0,0,0,0,0,0,0,0,0,0,0,0,0,0,0,0,0,0,0,
0,0,0,0,0,0,0,0,0,0,0,0,0,0,0,0,0,0,0,0,0,0,0,0,0,0,0,0,0,0,0,0,0,0,0,0,0,0,0,0,0,0,0,0,0,0,0,0,
0,0,0,0,0,0,0,0,0,0,0,0,0,0,0,0,0,0,0,0,0,0,0,0,0,0,0,0,0,0,0,0,0,0,0,0,0,0,0,0,0,0,0,0,0,0,0,0,
0,0,0,0,0,0,0,0,0,0,0,0,0,0,0,0,0,0,0,0,0,0,0,0,0,0,0,0,0,0,0,0,0,0,0,0,0,0,0,0,0,0,0,0,0,0,0,0,
0,0,0,0,0,0,0,0,0,0,0,0,0,0,0,0,0,0,0,0,0,0,0,0,0,0,0,0,0,0,0,0,0,0,0,0,0,0,0,0,0,0,0,0,0,0,0,0,
0,0,0,0,0,0,0,0,0,0,0,0,0,0,0,0,0,0,0,0,0,0,0,0,0,0,0,0,0,0,0,0,0,0,0,0,0,0,0,0,0,0,0,0,0,0,0,0,
0,0,0,0,0,0,0,0,0,0,0,0,0,0,0,0,0,0,0,0,0,0,0,0,0,0,0,0,0,0,0,0,684,0,0,0,0,0,0,0,0,0,0,0,0,0,0,0,
0,0,0,0,0,0,0,0,0,0,0,0,0,0,0,0,0,0,0,0,0,0,0,0,0,0,0,0,700,0,0,0,1224,0,0,0,0,0,0,0,0,0,0,0,0,0,0,0,
0,0,0,0,0,0,0,0,0,0,0,0,0,0,0,0,0,0,0,0,0,0,0,0,0,0,0,0,0,0,0,0,0,0,0,0,0,0,0,0,0,0,0,0,0,0,0,0,
0,0,0,0,0,0,0,0,0,0,0,0,0,0,0,0,0,0,0,0,0,0,0,0,0,0,0,0,0,0,0,0,0,0,0,0,0,0,0,0,0,0,0,0,0,0,0,0,
0,0,0,0,0,0,0,0,0,0,0,0,0,0,0,0,0,0,0,0,0,0,0,0,0,0,0,0,0,0,0,0,0,0,0,0,0,0,0,0,0,0,0,0,0,0,0,0,
0,0,0,0,0,0,0,0,0,0,0,0,0,0,0,0,0,0,0,0,0,0,0,0,0,0,0,0,0,0,0,0,0,0,0,0,0,0,0,0,0,0,0,0,0,0,0,0,
0,0,0,0,0,0,0,0,0,0,0,0,0,0,0,0,0,0,0,0,0,0,0,0,0,0,0,0,0,0,0,0,0,0,0,0,0,0,0,0,0,0,0,0,0,0,0,0,
0,0,0,0,0,0,0,0,0,0,0,0,0,0,0,0,0,0,0,0,0,0,0,0,0,0,0,0,0,0,0,0,0,0,0,0,0,0,0,0,0,0,0,0,0,0,0,0,
0,0,0,0,0,0,0,0,0,0,0,0,0,0,0,0,0,0,0,0,0,0,0,0,0,0,0,0,0,0,0,0,0,0,0,0,0,0,0,0,0,0,0,0,0,0,0,0,
0,0,0,0,0,0,0,0,0,0,0,0,0,0,0,0,0,0,0,0,0,0,0,0,0,0,0,0,0,0,0,0,0,0,0,0,0,0,0,0,0,0,0,0,0,0,0,0,
0,0,0,0,0,0,0,0,0,0,0,0,0,0,0,0,0,0,0,0,0,0,0,0,0,0,0,0,0,0,0,0,0,0,0,0,0,0,0,0,0,0,0,0,0,0,0,0,
0,0,0,0,0,0,0,0,0,0,0,0,0,0,0,0,0,0,0,0,0,0,0,0,0,0,0,0,0,0,0,0,0,0,0,0,0,0,0,0,0,0,0,0,0,0,0,0,
0,0,0,0,0,0,0,0,0,0,0,0,0,0,0,0,0,0,0,0,0,0,0,0,0,0,0,0,0,0,0,0,0,0,0,0,0,0,0,0,0,0,0,0,0,0,0,0,
0,0,0,0,0,0,0,0,0,0,0,0,0,0,0,0,0,0,0,0,0,0,0,0,0,0,0,0,0,0,0,0,0,0,0,0,0,0,0,0,0,0,0,0,0,0,0,0,
0,0,0,0,0,0,0,0,0,0,0,0,0,0,0,0,0,0,0,0,0,0,0,0,0,0,0,0,0,0,0,0,0,0,0,0,0,0,0,0,0,0,0,0,0,0,0,0,
0,0,0,0,0,0,0,0,0,0,0,0,0,0,0,0,0,0,0,0,0,0,0,0,0,0,0,0,0,0,0,0,0,0,0,0,0,0,0,0,0,0,0,0,0,0,0,0,
0,0,0,0,0,0,0,0,0,0,0,0,0,0,0,0,0,0,0,0,0,0,0,0,0,0,0,0,0,0,0,0,0,0,0,0,0,0,0,0,0,0,0,0,0,0,0,0,
0,0,0,0,0,0,0,0,0,0,683,0,0,0,0,0,0,0,0,0,0,0,0,0,0,0,0,0,0,0,0,0,0,0,0,0,0,0,0,0,0,0,0,0,0,0,0,0,
0,0,0,0,0,0,0,0,0,0,700,0,0,0,0,0,0,0,0,0,0,0,0,0,0,0,0,0,0,0,0,0,0,0,0,0,0,0,0,0,0,0,0,0,0,0,0,0,
0,0,0,0,0,0,0,0,0,0,0,0,0,0,0,0,0,0,0,0,0,0,0,0,0,0,0,0,0,0,0,0,0,0,0,0,0,0,0,0,0,0,0,0,0,0,0,0,
0,0,0,0,0,0,0,0,0,0,0,0,0,0,0,0,0,0,0,0,0,0,0,0,0,0,0,0,0,0,0,0,0,0,0,0,0,0,0,0,0,0,0,0,0,0,0,0,
0,0,0,0,0,0,0,0,0,0,0,0,0,0,0,0,0,0,0,0,0,0,0,0,0,0,0,0,0,0,0,0,0,0,0,0,0,0,0,0,0,0,0,0,0,0,0,0,
0,0,0,0,0,0,0,0,0,0,0,0,0,0,0,0,0,0,0,0,0,0,0,0,0,0,0,0,0,0,0,0,0,0,0,0,0,0,0,0,0,0,0,0,0,0,0,0,
0,0,0,0,0,0,0,0,0,0,0,0,0,0,0,0,0,0,0,0,0,0,0,0,0,0,0,0,0,0,0,0,0,0,0,0,0,0,0,0,0,0,0,0,0,0,0,0,
0,0,0,0,0,0,0,0,0,0,0,0,0,0,0,0,0,0,0,0,0,0,0,0,0,0,0,0,0,0,0,0,0,0,0,0,0,0,0,0,0,0,0,0,0,0,0,0,
0,0,0,0,0,0,0,0,0,0,0,0,0,0,0,0,0,0,0,0,0,0,0,0,0,0,0,0,0,0,0,0,0,0,0,0,0,0,0,0,0,0,0,0,0,0,0,0,
0,0,0,0,0,0,0,0,0,0,0,0,0,0,0,0,0,0,0,0,0,0,0,0,0,0,0,0,0,0,0,0,0,0,0,0,0,0,0,0,0,0,0,0,0,0,0,0,
0,0,0,0,0,0,0,0,0,0,0,0,0,0,0,0,0,0,0,0,0,0,0,0,0,0,0,0,0,0,0,0,0,0,0,0,0,0,0,0,0,0,0,0,0,0,0,0,
0,0,0,0,0,0,0,0,0,0,0,0,0,0,0,0,0,0,0,0,0,0,0,0,0,0,0,0,0,0,0,0,0,0,0,0,0,0,0,0,0,0,0,0,0,0,0,0,
0,0,0,0,0,0,0,0,0,0,0,0,0,0,0,0,0,0,0,0,0,0,0,0,0,0,0,0,0,0,0,0,0,0,0,0,0,0,0,0,0,0,0,0,0,0,0,0,
0,0,0,0,0,0,0,0,0,0,0,0,0,0,0,0,0,0,0,0,0,0,0,0,0,0,0,0,0,0,0,0,0,0,0,0,0,0,0,0,0,0,0,0,0,0,0,0,
0,0,0,0,0,0,0,0,0,0,0,0,0,0,0,0,0,0,0,0,0,0,0,0,0,0,0,0,0,0,0,0,0,0,0,0,0,0,0,0,0,0,0,0,0,0,0,0,
0,0,0,0,0,0,0,0,0,0,0,0,0,0,0,0,0,0,0,0,0,0,0,0,0,0,0,0,0,0,0,0,0,0,0,0,0,0,0,0,0,0,0,0,0,0,0,0,
0,0,0,0,0,0,0,0,0,0,0,0,0,0,0,0,0,0,0,0,0,0,0,0,0,0,0,0,0,0,0,0,0,0,0,0,0,0,0,0,0,0,0,0,0,0,0,0,
0,0,0,0,0,0,0,0,0,0,0,0,0,0,0,0,0,0,0,0,0,0,0,0,0,0,0,0,0,0,0,0,0,0,0,0,0,0,0,0,0,0,0,0,0,0,0,0,
0,0,0,0,0,0,0,0,0,0,0,0,0,0,0,0,0,0,0,0,0,0,0,0,0,0,0,0,0,0,0,0,0,0,0,0,0,0,0,0,0,0,0,0,0,0,0,0
</data>
 </layer>
 <layer id="9" name="Walls" width="48" height="48">
  <data encoding="csv">
0,0,0,0,0,0,0,0,0,0,0,0,0,0,0,0,0,0,0,0,0,0,0,0,0,0,0,0,0,0,0,0,0,0,0,0,0,0,0,0,0,0,0,0,0,0,0,0,
0,0,0,0,0,0,0,0,0,0,0,0,0,0,0,0,0,0,0,0,0,0,0,0,0,0,0,0,0,0,0,0,0,0,0,0,0,0,0,0,0,0,0,0,0,0,0,0,
0,0,0,0,0,0,0,0,0,0,0,0,0,0,0,0,0,0,0,0,0,0,0,0,0,0,0,0,0,0,0,0,0,0,0,0,0,0,0,0,0,0,0,0,0,0,0,0,
0,0,0,0,0,0,0,0,0,0,659,661,0,0,0,0,0,0,0,0,0,0,0,0,0,0,0,0,0,0,0,0,0,0,0,659,661,0,0,0,0,0,0,0,0,0,0,0,
0,0,0,0,0,0,0,0,0,0,412,740,684,684,684,684,684,684,684,684,684,684,684,684,684,684,684,684,684,684,684,684,684,684,684,739,4730,0,0,0,0,0,0,0,0,0,0,0,
0,0,0,0,0,0,0,0,0,0,412,740,701,703,703,703,703,703,703,703,701,701,701,701,659,660,661,701,701,703,703,703,703,703,703,739,4730,0,0,0,0,0,0,0,0,0,0,0,
0,0,0,0,0,0,0,0,0,0,429,431,720,720,720,720,720,720,720,720,720,720,720,720,429,430,431,720,720,720,720,720,720,720,720,756,4749,0,0,0,0,0,0,0,0,0,0,0,
0,0,0,0,0,0,0,0,0,0,446,1279,0,0,0,0,0,0,0,0,0,0,0,0,446,447,448,0,0,0,0,0,0,0,0,446,4768,0,0,0,0,0,0,0,0,0,0,0,
0,0,0,0,0,0,0,0,0,0,446,1279,0,0,0,0,0,634,0,0,0,0,0,0,463,464,465,0,0,0,0,0,0,0,0,446,4768,0,0,0,0,0,0,0,0,0,0,0,
0,0,0,0,0,0,0,0,0,0,446,1279,0,0,0,0,0,668,0,0,0,0,0,0,0,0,0,0,0,0,0,0,0,0,0,446,4768,0,0,0,0,0,0,0,0,0,0,0,
0,0,0,0,0,0,0,0,0,0,446,1279,0,0,0,0,0,668,0,0,0,0,0,0,0,0,0,0,0,0,0,0,0,0,0,446,4768,0,0,0,0,0,0,0,0,0,0,0,
0,0,0,0,0,0,0,0,0,0,446,1279,0,0,0,0,0,736,0,0,0,0,0,0,0,0,0,0,0,0,0,0,0,0,0,446,4768,0,0,0,0,0,0,0,0,0,0,0,
0,0,0,0,0,0,0,0,0,0,1610,1612,0,0,0,0,0,753,0,0,0,0,0,0,0,0,0,0,637,684,684,684,395,397,0,1017,1018,0,0,0,0,0,0,0,0,0,0,0,
0,0,0,0,0,0,0,0,0,0,0,0,0,0,0,0,0,770,0,0,0,0,0,0,0,0,0,0,668,701,701,701,412,414,0,0,0,0,0,0,0,0,0,0,0,0,0,0,
0,0,0,0,0,0,0,0,0,0,0,0,0,0,0,0,0,0,0,0,0,0,0,0,0,0,0,0,668,0,0,0,759,760,0,0,0,0,0,0,0,0,0,0,0,0,0,0,
0,0,0,0,0,0,0,0,0,0,0,0,497,498,498,498,499,116,0,0,115,115,0,0,0,0,0,0,668,0,0,0,759,760,0,0,0,0,0,0,0,0,0,0,0,0,0,0,
0,0,0,0,0,0,0,0,0,0,0,0,514,515,515,0,0,0,0,0,0,0,0,0,0,0,0,0,84,0,0,0,759,760,0,0,0,0,0,0,0,0,0,0,0,0,0,0,
0,0,0,0,0,0,0,0,0,0,0,0,514,515,515,0,0,0,0,0,0,0,0,0,0,0,0,0,81,0,0,0,759,760,0,0,0,0,0,0,0,0,0,0,0,0,0,0,
0,0,0,0,0,0,0,0,0,0,0,0,531,0,0,0,0,0,0,0,0,0,0,0,0,0,0,10,660,52,51,396,451,760,0,0,0,0,0,0,0,0,0,0,0,0,0,0,
0,0,0,0,0,0,0,0,0,0,0,0,548,549,549,0,0,0,0,0,0,0,0,0,50,52,396,452,413,413,413,413,413,760,0,0,0,0,0,0,0,0,0,0,0,0,0,0,
0,0,0,0,0,0,0,0,0,0,0,0,0,0,0,0,0,0,0,0,0,0,0,0,0,0,54,0,413,413,413,413,413,760,0,0,0,0,0,0,0,0,0,0,0,0,0,0,
0,0,0,0,0,0,0,0,0,0,0,0,0,0,0,0,0,0,0,0,0,0,0,0,0,3,0,0,56,55,0,0,53,757,0,0,0,0,0,0,0,0,0,0,0,0,0,0,
0,0,0,0,0,0,0,0,0,0,0,0,0,0,0,0,0,0,0,0,0,0,0,0,0,0,0,0,0,0,2,0,4,4,0,0,0,0,0,0,0,0,0,0,0,0,0,0,
0,0,0,0,0,0,0,0,0,0,0,0,0,0,0,0,0,0,0,0,0,0,0,0,0,0,0,0,0,0,0,0,0,0,0,0,0,0,0,0,0,0,0,0,0,0,0,0,
0,0,0,0,0,0,0,0,0,0,0,0,0,0,0,0,0,0,0,634,0,0,0,0,0,0,0,0,0,0,0,0,0,0,0,0,0,0,0,0,0,0,0,0,0,0,0,0,
0,0,0,0,0,0,0,0,0,0,0,0,0,0,0,0,0,0,0,144,95,93,115,686,96,0,0,0,0,0,0,0,0,0,0,0,0,0,0,0,0,0,0,0,0,0,0,0,
0,0,0,0,0,0,0,0,0,0,0,0,0,0,0,0,0,0,0,148,103,102,703,703,104,0,0,0,0,0,0,0,0,0,0,0,0,0,0,0,0,0,0,0,0,0,0,0,
0,0,0,0,0,0,0,0,0,0,0,0,0,0,0,0,0,0,0,669,112,110,720,130,112,0,0,395,50,51,396,52,396,912,0,0,0,0,0,0,0,0,0,0,0,0,0,0,
0,0,0,0,0,0,0,0,395,396,397,0,0,0,0,0,0,0,659,661,0,0,0,0,10,52,396,452,413,413,413,413,413,945,0,0,0,0,0,0,0,0,0,0,0,0,0,0,
0,0,0,0,0,0,0,0,958,430,757,684,684,686,686,116,95,101,756,431,0,0,0,0,429,54,430,401,413,413,413,413,413,945,0,0,0,0,0,0,0,0,0,0,0,0,0,0,
0,0,0,0,0,0,0,0,987,701,448,701,701,703,703,703,103,101,773,448,0,0,0,0,446,447,447,422,53,677,56,55,401,1221,0,0,0,0,0,0,0,0,0,0,0,0,0,0,
0,0,0,0,0,0,0,0,987,703,774,718,718,720,720,131,111,109,773,448,0,0,0,0,41,464,464,439,447,447,827,828,409,1221,0,0,0,0,0,0,0,0,0,0,0,0,0,0,
0,0,0,0,0,0,0,0,0,0,0,0,0,0,0,0,0,0,0,0,0,0,0,0,0,0,0,44,7,464,844,845,426,1250,0,0,0,0,0,0,0,0,0,0,0,0,0,0,
0,0,0,0,0,0,0,0,0,0,0,0,0,0,0,0,572,573,0,0,0,0,0,0,0,659,660,661,0,0,0,0,34,1279,0,0,0,0,0,0,0,0,0,0,0,0,0,0,
0,0,0,0,0,0,0,0,0,0,0,0,0,0,0,0,0,0,0,0,0,0,0,0,0,0,0,0,0,0,0,0,460,1279,0,0,0,0,0,0,0,0,0,0,0,0,0,0,
0,0,0,0,0,0,0,0,0,0,0,0,0,0,0,0,0,0,0,0,0,0,0,0,0,0,0,0,0,0,0,0,0,0,0,0,0,0,0,0,0,0,0,0,0,0,0,0,
0,0,0,0,0,0,0,0,0,0,0,0,0,0,0,0,0,0,0,0,0,0,0,0,0,0,0,0,0,0,0,0,0,0,0,0,0,0,0,0,0,0,0,0,0,0,0,0,
0,0,0,0,0,0,0,0,0,0,0,0,0,0,0,0,0,0,0,0,0,0,0,0,0,0,0,0,0,0,0,0,0,0,0,0,0,0,0,0,0,0,0,0,0,0,0,0,
0,0,0,0,0,0,0,0,0,0,0,0,0,0,0,0,0,0,0,0,0,0,0,0,0,0,0,0,0,0,0,0,0,0,0,0,0,0,0,0,0,0,0,0,0,0,0,0,
0,0,0,0,0,0,0,0,0,0,0,0,0,0,0,0,0,0,0,0,0,0,0,0,0,0,0,0,0,0,0,0,0,0,0,0,0,0,0,0,0,0,0,0,0,0,0,0,
0,0,0,0,0,0,0,0,0,0,0,0,0,0,0,0,0,0,0,0,0,0,0,0,0,0,0,0,0,0,0,0,0,0,0,0,0,0,0,0,0,0,0,0,0,0,0,0,
0,0,0,0,0,0,0,0,0,0,0,0,0,0,0,0,0,0,0,0,0,0,0,0,0,0,0,0,0,0,0,0,0,0,0,0,0,0,0,0,0,0,0,0,0,0,0,0,
0,0,0,0,0,0,0,0,0,0,0,0,0,0,0,0,0,0,0,0,0,0,0,0,0,0,0,0,0,0,0,0,0,0,0,0,0,0,0,0,0,0,0,0,0,0,0,0,
0,0,0,0,0,0,0,0,0,0,0,0,0,0,0,0,0,0,0,0,0,0,0,0,0,0,0,0,0,0,0,0,0,0,0,0,0,0,0,0,0,0,0,0,0,0,0,0,
0,0,0,0,0,0,0,0,0,0,0,0,0,0,0,0,0,0,0,0,0,0,0,0,0,0,0,0,0,0,0,0,0,0,0,0,0,0,0,0,0,0,0,0,0,0,0,0,
0,0,0,0,0,0,0,0,0,0,0,0,0,0,0,0,0,0,0,0,0,0,0,0,0,0,0,0,0,0,0,0,0,0,0,0,0,0,0,0,0,0,0,0,0,0,0,0,
0,0,0,0,0,0,0,0,0,0,0,0,0,0,0,0,0,0,0,0,0,0,0,0,0,0,0,0,0,0,0,0,0,0,0,0,0,0,0,0,0,0,0,0,0,0,0,0,
0,0,0,0,0,0,0,0,0,0,0,0,0,0,0,0,0,0,0,0,0,0,0,0,0,0,0,0,0,0,0,0,0,0,0,0,0,0,0,0,0,0,0,0,0,0,0,0
</data>
 </layer>
 <layer id="28" name="Windows" width="48" height="48">
  <data encoding="csv">
0,0,0,0,0,0,0,0,0,0,0,0,0,0,0,0,0,0,0,0,0,0,0,0,0,0,0,0,0,0,0,0,0,0,0,0,0,0,0,0,0,0,0,0,0,0,0,0,
0,0,0,0,0,0,0,0,0,0,0,0,0,0,0,0,0,0,0,0,0,0,0,0,0,0,0,0,0,0,0,0,0,0,0,0,0,0,0,0,0,0,0,0,0,0,0,0,
0,0,0,0,0,0,0,0,0,0,0,0,0,0,0,0,0,0,0,0,0,0,0,0,0,0,0,0,0,0,0,0,0,0,0,0,0,0,0,0,0,0,0,0,0,0,0,0,
0,0,0,0,0,0,0,0,0,0,0,0,0,0,0,0,0,0,0,0,0,0,0,0,0,0,0,0,0,0,0,0,0,0,0,0,0,0,0,0,0,0,0,0,0,0,0,0,
0,0,0,0,0,0,0,0,0,0,0,0,0,0,0,0,0,0,0,0,0,0,0,0,0,0,0,0,0,0,0,0,0,0,0,0,0,0,0,0,0,0,0,0,0,0,0,0,
0,0,0,0,0,0,0,0,0,0,0,0,0,0,0,0,0,0,0,0,0,0,0,0,0,0,0,0,0,0,0,0,0,0,0,0,0,0,0,0,0,0,0,0,0,0,0,0,
0,0,0,0,0,0,0,0,0,0,0,0,0,0,0,0,0,0,0,0,0,0,0,0,0,0,0,0,0,0,0,0,0,0,0,0,0,0,0,0,0,0,0,0,0,0,0,0,
0,0,0,0,0,0,0,0,0,0,0,0,0,0,0,0,0,0,0,0,0,0,0,0,0,0,0,0,0,0,0,0,0,0,0,0,0,0,0,0,0,0,0,0,0,0,0,0,
0,0,0,0,0,0,0,0,0,0,0,0,0,0,0,0,0,0,0,0,0,0,0,0,0,0,0,0,0,0,0,0,0,0,0,0,0,0,0,0,0,0,0,0,0,0,0,0,
0,0,0,0,0,0,0,0,0,0,0,0,0,0,0,0,0,0,0,0,0,0,0,0,0,0,0,0,0,0,0,0,0,0,0,0,0,0,0,0,0,0,0,0,0,0,0,0,
0,0,0,0,0,0,0,0,0,0,0,0,0,0,0,0,0,0,0,0,0,0,0,0,0,0,0,0,0,0,0,0,0,0,0,0,0,0,0,0,0,0,0,0,0,0,0,0,
0,0,0,0,0,0,0,0,0,0,0,0,0,0,0,0,0,0,0,0,0,0,0,0,0,0,0,0,0,0,0,0,0,0,0,0,0,0,0,0,0,0,0,0,0,0,0,0,
0,0,0,0,0,0,0,0,0,0,0,0,0,0,0,0,0,0,0,0,0,0,0,0,0,0,0,0,0,0,0,0,0,0,0,0,0,0,0,0,0,0,0,0,0,0,0,0,
0,0,0,0,0,0,0,0,0,0,0,0,0,0,0,0,0,0,0,0,0,0,0,0,0,0,0,0,0,0,0,0,0,0,0,0,0,0,0,0,0,0,0,0,0,0,0,0,
0,0,0,0,0,0,0,0,0,0,0,0,0,0,0,0,0,0,0,0,0,0,0,0,0,0,0,0,0,0,0,0,0,0,0,0,0,0,0,0,0,0,0,0,0,0,0,0,
0,0,0,0,0,0,0,0,0,0,0,0,0,0,0,0,0,0,0,0,0,0,0,0,0,0,0,0,0,0,0,0,0,0,0,0,0,0,0,0,0,0,0,0,0,0,0,0,
0,0,0,0,0,0,0,0,0,0,0,0,0,0,0,0,0,0,0,0,0,0,0,0,0,0,0,0,0,0,0,0,0,0,0,0,0,0,0,0,0,0,0,0,0,0,0,0,
0,0,0,0,0,0,0,0,0,0,0,0,0,0,0,0,0,0,0,0,0,0,0,0,0,0,0,0,0,0,0,0,0,0,0,0,0,0,0,0,0,0,0,0,0,0,0,0,
0,0,0,0,0,0,0,0,0,0,0,0,0,0,0,0,0,0,0,0,0,0,0,0,0,0,0,0,0,0,0,0,0,0,0,0,0,0,0,0,0,0,0,0,0,0,0,0,
0,0,0,0,0,0,0,0,0,0,0,0,0,0,0,0,0,0,0,0,0,0,0,0,0,0,0,0,0,0,0,0,0,0,0,0,0,0,0,0,0,0,0,0,0,0,0,0,
0,0,0,0,0,0,0,0,0,0,0,0,0,0,0,0,0,0,0,0,0,0,0,802,803,0,0,0,0,0,0,0,0,0,0,0,0,0,0,0,0,0,0,0,0,0,0,0,
0,0,0,0,0,0,0,0,0,0,0,0,0,0,0,0,0,0,0,0,0,0,0,819,820,0,0,0,802,803,0,0,0,0,0,0,0,0,0,0,0,0,0,0,0,0,0,0,
0,0,0,0,0,0,0,0,0,0,0,0,0,0,0,0,0,0,0,0,0,0,0,836,837,0,0,0,819,820,0,0,0,0,0,0,0,0,0,0,0,0,0,0,0,0,0,0,
0,0,0,0,0,0,0,0,0,0,0,0,0,0,0,0,0,0,0,0,0,0,0,0,0,0,0,0,836,837,0,0,0,0,0,0,0,0,0,0,0,0,0,0,0,0,0,0,
0,0,0,0,0,0,0,0,0,0,0,0,0,0,0,0,0,0,0,0,0,0,0,0,0,0,0,0,0,0,0,0,0,0,0,0,0,0,0,0,0,0,0,0,0,0,0,0,
0,0,0,0,0,0,0,0,0,0,0,0,0,0,0,0,0,0,0,0,0,0,0,0,0,0,0,0,0,0,0,0,0,0,0,0,0,0,0,0,0,0,0,0,0,0,0,0,
0,0,0,0,0,0,0,0,0,0,0,0,0,0,0,0,0,0,0,0,0,0,0,0,0,0,0,0,0,0,0,0,0,0,0,0,0,0,0,0,0,0,0,0,0,0,0,0,
0,0,0,0,0,0,0,0,0,0,0,0,0,0,0,0,0,0,0,0,0,0,0,0,0,0,0,0,0,0,0,0,0,0,0,0,0,0,0,0,0,0,0,0,0,0,0,0,
0,0,0,0,0,0,0,0,0,0,0,0,0,0,0,0,0,0,0,0,0,0,0,0,0,0,0,0,0,0,0,0,0,0,0,0,0,0,0,0,0,0,0,0,0,0,0,0,
0,0,0,0,0,0,0,0,0,0,0,0,0,0,0,0,0,0,0,0,0,0,0,0,0,0,0,0,0,0,0,0,0,0,0,0,0,0,0,0,0,0,0,0,0,0,0,0,
0,0,0,0,0,0,0,0,0,0,0,0,0,0,0,0,0,0,0,0,0,0,0,0,0,821,822,0,0,0,0,0,0,0,0,0,0,0,0,0,0,0,0,0,0,0,0,0,
0,0,0,0,0,0,0,0,0,0,0,0,0,0,0,0,0,0,0,0,0,0,0,0,0,838,839,0,0,0,0,0,0,0,0,0,0,0,0,0,0,0,0,0,0,0,0,0,
0,0,0,0,0,0,0,0,0,0,0,0,0,0,0,0,0,0,0,0,0,0,0,0,0,0,0,0,0,0,0,0,0,0,0,0,0,0,0,0,0,0,0,0,0,0,0,0,
0,0,0,0,0,0,0,0,0,0,0,0,0,0,0,0,0,0,0,0,0,0,0,0,0,0,0,0,0,0,0,0,0,0,0,0,0,0,0,0,0,0,0,0,0,0,0,0,
0,0,0,0,0,0,0,0,0,0,0,0,0,0,0,0,0,0,0,0,0,0,0,0,0,0,0,0,0,0,0,0,0,0,0,0,0,0,0,0,0,0,0,0,0,0,0,0,
0,0,0,0,0,0,0,0,0,0,0,0,0,0,0,0,0,0,0,0,0,0,0,0,0,0,0,0,0,0,0,0,0,0,0,0,0,0,0,0,0,0,0,0,0,0,0,0,
0,0,0,0,0,0,0,0,0,0,0,0,0,0,0,0,0,0,0,0,0,0,0,0,0,0,0,0,0,0,0,0,0,0,0,0,0,0,0,0,0,0,0,0,0,0,0,0,
0,0,0,0,0,0,0,0,0,0,0,0,0,0,0,0,0,0,0,0,0,0,0,0,0,0,0,0,0,0,0,0,0,0,0,0,0,0,0,0,0,0,0,0,0,0,0,0,
0,0,0,0,0,0,0,0,0,0,0,0,0,0,0,0,0,0,0,0,0,0,0,0,0,0,0,0,0,0,0,0,0,0,0,0,0,0,0,0,0,0,0,0,0,0,0,0,
0,0,0,0,0,0,0,0,0,0,0,0,0,0,0,0,0,0,0,0,0,0,0,0,0,0,0,0,0,0,0,0,0,0,0,0,0,0,0,0,0,0,0,0,0,0,0,0,
0,0,0,0,0,0,0,0,0,0,0,0,0,0,0,0,0,0,0,0,0,0,0,0,0,0,0,0,0,0,0,0,0,0,0,0,0,0,0,0,0,0,0,0,0,0,0,0,
0,0,0,0,0,0,0,0,0,0,0,0,0,0,0,0,0,0,0,0,0,0,0,0,0,0,0,0,0,0,0,0,0,0,0,0,0,0,0,0,0,0,0,0,0,0,0,0,
0,0,0,0,0,0,0,0,0,0,0,0,0,0,0,0,0,0,0,0,0,0,0,0,0,0,0,0,0,0,0,0,0,0,0,0,0,0,0,0,0,0,0,0,0,0,0,0,
0,0,0,0,0,0,0,0,0,0,0,0,0,0,0,0,0,0,0,0,0,0,0,0,0,0,0,0,0,0,0,0,0,0,0,0,0,0,0,0,0,0,0,0,0,0,0,0,
0,0,0,0,0,0,0,0,0,0,0,0,0,0,0,0,0,0,0,0,0,0,0,0,0,0,0,0,0,0,0,0,0,0,0,0,0,0,0,0,0,0,0,0,0,0,0,0,
0,0,0,0,0,0,0,0,0,0,0,0,0,0,0,0,0,0,0,0,0,0,0,0,0,0,0,0,0,0,0,0,0,0,0,0,0,0,0,0,0,0,0,0,0,0,0,0,
0,0,0,0,0,0,0,0,0,0,0,0,0,0,0,0,0,0,0,0,0,0,0,0,0,0,0,0,0,0,0,0,0,0,0,0,0,0,0,0,0,0,0,0,0,0,0,0,
0,0,0,0,0,0,0,0,0,0,0,0,0,0,0,0,0,0,0,0,0,0,0,0,0,0,0,0,0,0,0,0,0,0,0,0,0,0,0,0,0,0,0,0,0,0,0,0
</data>
 </layer>
 <layer id="29" name="Lights" width="48" height="48" opacity="0.9">
  <data encoding="csv">
0,0,0,0,0,0,0,0,0,0,0,0,0,0,0,0,0,0,0,0,0,0,0,0,0,0,0,0,0,0,0,0,0,0,0,0,0,0,0,0,0,0,0,0,0,0,0,0,
0,0,0,0,0,0,0,0,0,0,0,0,0,0,0,0,0,0,0,0,0,0,0,0,0,0,0,0,0,0,0,0,0,0,0,0,0,0,0,0,0,0,0,0,0,0,0,0,
0,0,0,0,0,0,0,0,0,0,0,0,0,0,0,0,0,0,0,0,0,0,0,0,0,0,0,0,0,0,0,0,0,0,0,0,0,0,0,0,0,0,0,0,0,0,0,0,
0,0,0,0,0,0,0,0,0,0,0,0,0,0,0,0,0,0,0,0,0,0,0,0,0,0,0,0,0,0,0,0,0,0,0,0,0,0,0,0,0,0,0,0,0,0,0,0,
0,0,0,0,0,0,0,0,0,0,0,0,0,0,0,0,0,0,0,0,0,0,0,0,0,0,0,0,0,0,0,0,0,0,0,0,0,0,0,0,0,0,0,0,0,0,0,0,
0,0,0,0,0,0,0,0,0,0,0,0,0,0,0,0,0,0,0,0,0,0,0,0,0,0,0,0,0,0,0,0,0,0,0,0,0,0,0,0,0,0,0,0,0,0,0,0,
0,0,0,0,0,0,0,0,0,0,0,0,0,0,0,0,0,0,0,0,0,0,0,0,5194,5195,5196,0,0,0,0,0,0,0,0,0,0,0,0,0,0,0,0,0,0,0,0,0,
0,0,0,0,0,0,0,0,0,0,0,0,0,0,0,0,0,0,0,0,0,0,0,0,5205,5206,5207,0,0,0,0,0,0,0,0,0,0,0,0,0,0,0,0,0,0,0,0,0,
0,0,0,0,0,0,0,0,0,0,0,0,0,0,0,0,0,0,0,0,0,0,0,0,5216,5217,5218,0,0,0,0,0,0,0,0,0,0,0,0,0,0,0,0,0,0,0,0,0,
0,0,0,0,0,0,0,0,0,0,0,0,0,0,0,0,0,0,0,0,0,0,0,0,0,0,0,0,0,0,0,0,0,0,0,0,0,0,0,0,0,0,0,0,0,0,0,0,
0,0,0,0,0,0,0,0,0,0,0,0,0,0,0,0,0,0,0,0,0,0,0,0,0,0,0,0,0,0,0,0,0,0,0,0,0,0,0,0,0,0,0,0,0,0,0,0,
0,0,0,0,0,0,0,0,0,0,0,0,0,0,0,0,0,0,0,0,0,0,0,0,0,0,0,0,0,0,0,0,0,0,0,0,0,0,0,0,0,0,0,0,0,0,0,0,
0,0,0,0,0,0,0,0,0,0,0,0,0,0,0,0,0,0,0,0,0,0,0,0,0,0,0,0,0,0,5192,5193,0,0,0,0,0,0,0,0,0,0,0,0,0,0,0,0,
0,0,0,0,0,0,0,0,0,0,0,0,0,0,0,0,0,0,0,0,0,0,0,0,0,0,0,0,0,0,5203,5204,0,0,0,0,0,0,0,0,0,0,0,0,0,0,0,0,
0,0,0,0,0,0,0,0,0,0,0,0,0,0,0,0,0,0,0,0,0,0,0,0,0,0,0,0,0,0,5214,5215,0,0,0,0,0,0,0,0,0,0,0,0,0,0,0,0,
0,0,0,0,0,0,0,0,0,0,0,0,0,0,0,0,0,0,0,0,0,0,0,0,0,0,0,0,0,0,0,0,0,0,0,0,0,0,0,0,0,0,0,0,0,0,0,0,
0,0,0,0,0,0,0,0,0,0,0,0,0,0,0,0,0,0,0,0,0,0,0,0,0,0,0,0,0,0,0,0,0,0,0,0,0,0,0,0,0,0,0,0,0,0,0,0,
0,0,0,0,0,0,0,0,0,0,0,0,0,0,0,0,0,0,5164,5165,5166,0,0,0,0,0,0,0,0,0,0,0,0,0,0,0,0,0,0,0,0,0,0,0,0,0,0,0,
0,0,0,0,0,0,0,0,0,0,0,0,0,0,0,0,0,0,5175,5176,5177,0,0,0,0,0,0,0,0,0,0,0,0,0,0,0,0,0,0,0,0,0,0,0,0,0,0,0,
0,0,0,0,0,0,0,0,0,0,0,0,0,0,0,0,0,0,5186,5187,5188,0,0,0,0,0,0,0,0,0,0,0,0,0,0,0,0,0,0,0,0,0,0,0,0,0,0,0,
0,0,0,0,0,0,0,0,0,0,0,0,0,0,0,0,0,0,0,0,0,0,0,0,0,0,0,0,0,0,0,0,0,0,0,0,0,0,0,0,0,0,0,0,0,0,0,0,
0,0,0,0,0,0,0,0,0,0,0,0,0,0,0,0,0,0,0,0,0,0,0,0,0,0,0,0,0,0,0,0,0,0,0,0,0,0,0,0,0,0,0,0,0,0,0,0,
0,0,0,0,0,0,0,0,0,0,0,0,0,0,0,5163,0,0,0,0,0,0,0,0,0,0,0,0,5369,5370,0,0,0,0,0,0,0,0,0,0,0,0,0,0,0,0,0,0,
0,0,0,0,0,0,0,0,0,0,0,0,0,0,0,5174,0,0,0,0,0,0,0,0,0,0,0,0,5375,5376,0,0,0,0,0,0,0,0,0,0,0,0,0,0,0,0,0,0,
0,0,0,0,0,0,0,0,0,0,0,0,0,0,0,5185,0,0,0,0,0,0,0,0,0,0,0,0,0,0,0,0,0,0,0,0,0,0,0,0,0,0,0,0,0,0,0,0,
0,0,0,0,0,0,0,0,0,0,0,0,0,0,0,5168,5169,0,0,0,0,0,0,0,0,0,0,0,0,0,0,0,0,0,0,0,0,0,0,0,0,0,0,0,0,0,0,0,
0,0,0,0,0,0,0,0,0,0,0,0,0,0,0,5179,5180,0,0,0,0,0,0,0,0,0,0,0,0,0,0,0,0,0,0,0,0,0,0,0,0,0,0,0,0,0,0,0,
0,0,0,0,0,0,0,0,0,0,0,0,0,0,0,5190,5191,0,0,0,0,0,0,0,0,0,0,0,0,0,0,0,0,0,0,0,0,0,0,0,0,0,0,0,0,0,0,0,
0,0,0,0,0,0,0,0,0,0,0,0,0,0,0,0,0,0,0,0,0,0,0,0,0,0,0,0,0,0,0,0,0,0,0,0,0,0,0,0,0,0,0,0,0,0,0,0,
0,0,0,0,0,0,0,0,0,0,0,0,0,0,5194,5195,5196,0,0,0,0,0,0,0,0,0,0,0,0,0,0,0,0,0,0,0,0,0,0,0,0,0,0,0,0,0,0,0,
0,0,0,0,0,0,0,0,0,0,0,0,0,0,5205,5206,5207,0,0,0,0,0,0,0,0,5359,5360,0,0,0,0,0,0,0,0,0,0,0,0,0,0,0,0,0,0,0,0,0,
0,0,0,0,0,0,0,0,0,0,0,0,0,0,5216,5217,5218,0,0,0,0,0,0,0,0,5365,5366,0,0,0,0,0,0,0,0,0,0,0,0,0,0,0,0,0,0,0,0,0,
0,0,0,0,0,0,0,0,0,0,0,0,0,0,0,0,0,0,0,0,0,0,0,0,0,0,0,0,0,0,0,0,0,0,0,0,0,0,0,0,0,0,0,0,0,0,0,0,
0,0,0,0,0,0,0,0,0,0,0,0,0,0,0,0,0,0,0,0,0,0,0,0,0,0,0,0,0,0,0,0,0,0,0,0,0,0,0,0,0,0,0,0,0,0,0,0,
0,0,0,0,0,0,0,0,0,0,0,0,0,0,0,0,0,0,0,0,0,0,0,0,0,0,0,0,0,0,0,0,0,0,0,0,0,0,0,0,0,0,0,0,0,0,0,0,
0,0,0,0,0,0,0,0,0,0,0,0,0,0,0,0,0,0,0,0,0,0,0,0,0,0,0,0,0,5159,5160,0,0,0,0,0,0,0,0,0,0,0,0,0,0,0,0,0,
0,0,0,0,0,0,0,0,0,0,0,0,0,0,0,0,0,0,0,0,0,0,0,0,0,0,0,0,0,0,0,0,0,0,0,0,0,0,0,0,0,0,0,0,0,0,0,0,
0,0,0,0,0,0,0,0,0,0,0,0,0,0,0,0,0,0,0,0,0,0,0,0,0,0,0,0,0,0,0,0,0,0,0,0,0,0,0,0,0,0,0,0,0,0,0,0,
0,0,0,0,0,0,0,0,0,0,0,0,0,0,0,0,0,0,0,0,0,0,0,0,0,0,0,0,0,0,0,0,0,0,0,0,0,0,0,0,0,0,0,0,0,0,0,0,
0,0,0,0,0,0,0,0,0,0,0,0,0,0,0,0,0,0,0,0,0,0,0,0,0,0,0,0,0,0,0,0,0,0,0,0,0,0,0,0,0,0,0,0,0,0,0,0,
0,0,0,0,0,0,0,0,0,0,0,0,0,0,0,0,0,0,0,0,0,0,0,0,0,0,0,0,0,0,0,0,0,0,0,0,0,0,0,0,0,0,0,0,0,0,0,0,
0,0,0,0,0,0,0,0,0,0,0,0,0,0,0,0,0,0,0,0,0,0,0,0,0,0,0,0,0,0,0,0,0,0,0,0,0,0,0,0,0,0,0,0,0,0,0,0,
0,0,0,0,0,0,0,0,0,0,0,0,0,0,0,0,0,0,0,0,0,0,0,0,0,0,0,0,0,0,0,0,0,0,0,0,0,0,0,0,0,0,0,0,0,0,0,0,
0,0,0,0,0,0,0,0,0,0,0,0,0,0,0,0,0,0,0,0,0,0,0,0,0,0,0,0,0,0,0,0,0,0,0,0,0,0,0,0,0,0,0,0,0,0,0,0,
0,0,0,0,0,0,0,0,0,0,0,0,0,0,0,0,0,0,0,0,0,0,0,0,0,0,0,0,0,0,0,0,0,0,0,0,0,0,0,0,0,0,0,0,0,0,0,0,
0,0,0,0,0,0,0,0,0,0,0,0,0,0,0,0,0,0,0,0,0,0,0,0,0,0,0,0,0,0,0,0,0,0,0,0,0,0,0,0,0,0,0,0,0,0,0,0,
0,0,0,0,0,0,0,0,0,0,0,0,0,0,0,0,0,0,0,0,0,0,0,0,0,0,0,0,0,0,0,0,0,0,0,0,0,0,0,0,0,0,0,0,0,0,0,0,
0,0,0,0,0,0,0,0,0,0,0,0,0,0,0,0,0,0,0,0,0,0,0,0,0,0,0,0,0,0,0,0,0,0,0,0,0,0,0,0,0,0,0,0,0,0,0,0
</data>
 </layer>
 <layer id="33" name="traps" width="48" height="48">
  <data encoding="csv">
0,0,0,0,0,0,0,0,0,0,0,0,0,0,0,0,0,0,0,0,0,0,0,0,0,0,0,0,0,0,0,0,0,0,0,0,0,0,0,0,0,0,0,0,0,0,0,0,
0,0,0,0,0,0,0,0,0,0,0,0,0,0,0,0,0,0,0,0,0,0,0,0,0,0,0,0,0,0,0,0,0,0,0,0,0,0,0,0,0,0,0,0,0,0,0,0,
0,0,0,0,0,0,0,0,0,0,0,0,0,0,0,0,0,0,0,0,0,0,0,0,0,0,0,0,0,0,0,0,0,0,0,0,0,0,0,0,0,0,0,0,0,0,0,0,
0,0,0,0,0,0,0,0,0,0,0,0,0,0,0,0,0,0,0,0,0,0,0,0,0,0,0,0,0,0,0,0,0,0,0,0,0,0,0,0,0,0,0,0,0,0,0,0,
0,0,0,0,0,0,0,0,0,0,0,0,0,0,0,0,0,0,0,0,0,0,0,0,0,0,0,0,0,0,0,0,0,0,0,0,0,0,0,0,0,0,0,0,0,0,0,0,
0,0,0,0,0,0,0,0,0,0,0,0,0,0,0,0,0,0,0,0,0,0,0,0,0,0,0,0,0,0,0,0,0,0,0,0,0,0,0,0,0,0,0,0,0,0,0,0,
0,0,0,0,0,0,0,0,0,0,0,0,0,0,0,0,0,0,0,0,0,0,0,0,0,0,0,0,0,0,0,0,0,0,0,0,0,0,0,0,0,0,0,0,0,0,0,0,
0,0,0,0,0,0,0,0,0,0,0,0,0,0,0,0,0,0,0,0,0,0,0,0,0,0,0,0,0,0,0,0,0,0,0,0,0,0,0,0,0,0,0,0,0,0,0,0,
0,0,0,0,0,0,0,0,0,0,0,0,0,0,0,0,0,0,0,0,0,0,0,0,0,0,0,0,0,0,0,0,0,0,0,0,0,0,0,0,0,0,0,0,0,0,0,0,
0,0,0,0,0,0,0,0,0,0,0,0,0,0,0,0,0,0,0,0,0,0,0,0,0,0,0,0,0,0,0,0,0,0,0,0,0,0,0,0,0,0,0,0,0,0,0,0,
0,0,0,0,0,0,0,0,0,0,0,0,0,0,0,0,0,0,0,0,0,0,0,0,0,0,0,0,0,0,0,0,0,0,0,0,0,0,0,0,0,0,0,0,0,0,0,0,
0,0,0,0,0,0,0,0,0,0,0,0,0,0,0,0,0,0,0,0,0,0,0,0,0,0,0,0,0,0,0,0,0,0,0,0,0,0,0,0,0,0,0,0,0,0,0,0,
0,0,0,0,0,0,0,0,0,0,0,0,0,0,0,0,0,0,0,0,0,0,0,0,0,0,0,0,0,0,0,0,0,0,0,0,0,0,0,0,0,0,0,0,0,0,0,0,
0,0,0,0,0,0,0,0,0,0,0,0,0,0,0,0,0,0,0,0,0,0,0,0,0,0,0,0,0,0,0,0,0,0,0,0,0,0,0,0,0,0,0,0,0,0,0,0,
0,0,0,0,0,0,0,0,0,0,0,0,0,0,0,0,0,0,0,0,0,0,0,0,0,0,0,0,0,0,0,0,0,0,0,0,0,0,0,0,0,0,0,0,0,0,0,0,
0,0,0,0,0,0,0,0,0,0,0,0,0,0,0,0,0,0,0,0,0,0,0,0,0,0,0,0,0,0,0,0,0,0,0,0,0,0,0,0,0,0,0,0,0,0,0,0,
0,0,0,0,0,0,0,0,0,0,0,0,0,0,0,0,0,0,0,0,0,0,0,0,0,0,0,0,0,0,0,0,0,0,0,0,0,0,0,0,0,0,0,0,0,0,0,0,
0,0,0,0,0,0,0,0,0,0,0,0,0,0,0,0,0,0,0,0,0,0,0,0,0,0,0,0,0,0,0,0,0,0,0,0,0,0,0,0,0,0,0,0,0,0,0,0,
0,0,0,0,0,0,0,0,0,0,0,0,0,0,0,0,0,0,0,0,0,0,0,0,0,0,0,0,0,0,0,0,0,0,0,0,0,0,0,0,0,0,0,0,0,0,0,0,
0,0,0,0,0,0,0,0,0,0,0,0,0,0,0,0,0,0,0,0,0,0,0,0,0,0,0,0,0,0,0,0,0,0,0,0,0,0,0,0,0,0,0,0,0,0,0,0,
0,0,0,0,0,0,0,0,0,0,0,0,0,0,0,0,0,0,0,0,0,0,0,0,0,0,0,0,0,0,0,0,0,0,0,0,0,0,0,0,0,0,0,0,0,0,0,0,
0,0,0,0,0,0,0,0,0,0,0,0,0,0,0,0,0,0,0,0,0,0,0,0,0,0,0,0,0,0,0,0,0,0,0,0,0,0,0,0,0,0,0,0,0,0,0,0,
0,0,0,0,0,0,0,0,0,0,0,0,0,0,0,0,0,0,0,0,0,0,0,0,0,0,0,0,0,0,0,0,0,0,0,0,0,0,0,0,0,0,0,0,0,0,0,0,
0,0,0,0,0,0,0,0,0,0,0,0,0,0,0,0,0,0,0,0,0,0,0,0,0,0,0,0,0,0,0,0,0,0,0,0,0,0,0,0,0,0,0,0,0,0,0,0,
0,0,0,0,0,0,0,0,0,0,0,0,0,0,0,0,0,0,0,0,0,0,0,0,0,0,0,0,0,0,0,0,0,0,0,0,0,0,0,0,0,0,0,0,0,0,0,0,
0,0,0,0,0,0,0,0,0,0,0,0,0,0,0,0,0,0,0,0,0,0,0,0,0,0,0,0,0,0,0,0,0,0,0,0,0,0,0,0,0,0,0,0,0,0,0,0,
0,0,0,0,0,0,0,0,0,0,0,0,0,0,0,0,0,0,0,0,0,0,0,0,0,0,0,0,0,0,0,0,0,0,0,0,0,0,0,0,0,0,0,0,0,0,0,0,
0,0,0,0,0,0,0,0,0,0,0,0,0,0,0,0,0,0,0,0,0,0,0,0,0,0,0,0,0,0,0,0,0,0,0,0,0,0,0,0,0,0,0,0,0,0,0,0,
0,0,0,0,0,0,0,0,0,0,0,0,0,0,0,0,0,0,0,0,0,0,0,0,0,0,0,0,0,0,0,0,0,0,0,0,0,0,0,0,0,0,0,0,0,0,0,0,
0,0,0,0,0,0,0,0,0,0,0,0,0,0,0,0,0,0,0,0,0,0,0,0,0,0,0,0,0,0,0,0,0,0,0,0,0,0,0,0,0,0,0,0,0,0,0,0,
0,0,0,0,0,0,0,0,0,0,0,0,0,0,0,0,0,0,0,0,0,0,0,0,0,0,0,0,0,0,0,0,0,0,0,0,0,0,0,0,0,0,0,0,0,0,0,0,
0,0,0,0,0,0,0,0,0,0,0,0,0,0,0,0,0,0,0,0,0,0,0,0,0,0,0,0,0,0,0,0,0,0,0,0,0,0,0,0,0,0,0,0,0,0,0,0,
0,0,0,0,0,0,0,0,0,0,0,0,0,0,0,0,0,0,0,0,0,0,0,0,0,0,0,0,0,0,0,0,0,0,0,0,0,0,0,0,0,0,0,0,0,0,0,0,
0,0,0,0,0,0,0,0,0,0,0,0,0,0,0,0,0,0,0,0,0,0,0,0,0,0,0,0,0,0,0,0,0,0,0,0,0,0,0,0,0,0,0,0,0,0,0,0,
0,0,0,0,0,0,0,0,0,0,0,0,0,0,0,0,0,0,0,0,0,0,0,0,0,0,0,0,0,0,0,0,0,0,0,0,0,0,0,0,0,0,0,0,0,0,0,0,
0,0,0,0,0,0,0,0,0,0,0,0,0,0,0,0,0,0,0,0,0,0,0,0,0,0,0,0,0,0,0,0,0,0,0,0,0,0,0,0,0,0,0,0,0,0,0,0,
0,0,0,0,0,0,0,0,0,0,0,0,0,0,0,0,0,0,0,0,0,0,0,0,0,0,0,0,0,0,0,0,0,0,0,0,0,0,0,0,0,0,0,0,0,0,0,0,
0,0,0,0,0,0,0,0,0,0,0,0,0,0,0,0,0,0,0,0,0,0,0,0,0,0,0,0,0,0,0,0,0,0,0,0,0,0,0,0,0,0,0,0,0,0,0,0,
0,0,0,0,0,0,0,0,0,0,0,0,0,0,0,0,0,0,0,0,0,0,0,0,0,0,0,0,0,0,0,0,0,0,0,0,0,0,0,0,0,0,0,0,0,0,0,0,
0,0,0,0,0,0,0,0,0,0,0,0,0,0,0,0,0,0,0,0,0,0,0,0,0,0,0,0,0,0,0,0,0,0,0,0,0,0,0,0,0,0,0,0,0,0,0,0,
0,0,0,0,0,0,0,0,0,0,0,0,0,0,0,0,0,0,0,0,0,0,0,0,0,0,0,0,0,0,0,0,0,0,0,0,0,0,0,0,0,0,0,0,0,0,0,0,
0,0,0,0,0,0,0,0,0,0,0,0,0,0,0,0,0,0,0,0,0,0,0,0,0,0,0,0,0,0,0,0,0,0,0,0,0,0,0,0,0,0,0,0,0,0,0,0,
0,0,0,0,0,0,0,0,0,0,0,0,0,0,0,0,0,0,0,0,0,0,0,0,0,0,0,0,0,0,0,0,0,0,0,0,0,0,0,0,0,0,0,0,0,0,0,0,
0,0,0,0,0,0,0,0,0,0,0,0,0,0,0,0,0,0,0,0,0,0,0,0,0,0,0,0,0,0,0,0,0,0,0,0,0,0,0,0,0,0,0,0,0,0,0,0,
0,0,0,0,0,0,0,0,0,0,0,0,0,0,0,0,0,0,0,0,0,0,0,0,0,0,0,0,0,0,0,0,0,0,0,0,0,0,0,0,0,0,0,0,0,0,0,0,
0,0,0,0,0,0,0,0,0,0,0,0,0,0,0,0,0,0,0,0,0,0,0,0,0,0,0,0,0,0,0,0,0,0,0,0,0,0,0,0,0,0,0,0,0,0,0,0,
0,0,0,0,0,0,0,0,0,0,0,0,0,0,0,0,0,0,0,0,0,0,0,0,0,0,0,0,0,0,0,0,0,0,0,0,0,0,0,0,0,0,0,0,0,0,0,0,
0,0,0,0,0,0,0,0,0,0,0,0,0,0,0,0,0,0,0,0,0,0,0,0,0,0,0,0,0,0,0,0,0,0,0,0,0,0,0,0,0,0,0,0,0,0,0,0
</data>
 </layer>
 <layer id="30" name="Objects" width="48" height="48">
  <data encoding="csv">
0,0,0,0,0,0,0,0,0,0,0,0,0,0,0,0,0,0,0,0,0,0,0,0,0,0,0,0,0,0,0,0,0,0,0,0,0,0,0,0,0,0,0,0,0,0,0,0,
0,0,0,0,0,0,0,0,0,0,0,0,0,0,0,0,0,0,0,0,0,0,0,0,0,0,0,0,0,0,0,0,0,0,0,0,0,0,0,0,0,0,0,0,0,0,0,0,
0,0,0,0,0,0,0,0,0,0,0,0,0,0,0,0,0,0,0,0,0,0,0,0,0,0,0,0,0,0,0,0,0,0,0,0,0,0,0,0,0,0,0,0,0,0,0,0,
0,0,0,0,0,0,0,0,0,0,0,0,0,0,0,0,0,0,0,0,0,0,0,0,0,0,0,0,0,0,0,0,0,0,0,0,0,0,0,0,0,0,0,0,0,0,0,0,
0,0,0,0,0,0,0,0,0,0,0,0,0,0,0,0,0,0,0,0,0,0,0,0,0,0,0,0,0,0,0,0,0,0,0,0,0,0,0,0,0,0,0,0,0,0,0,0,
0,0,0,0,0,0,0,0,0,0,0,0,0,0,0,0,0,0,0,0,0,0,0,0,0,0,0,0,0,0,0,0,0,0,0,0,0,0,0,0,0,0,0,0,0,0,0,0,
0,0,0,0,0,0,0,0,0,0,0,0,0,0,0,0,0,0,0,0,0,5601,0,0,0,0,0,5705,5705,5705,5705,5706,0,0,0,0,0,0,0,0,0,0,0,0,0,0,0,0,
0,0,0,0,0,0,0,0,0,0,0,0,0,0,0,0,0,0,0,0,5622,5623,0,0,0,0,0,5706,5729,5729,5729,5730,5622,5623,5712,0,0,0,0,0,0,0,0,0,0,0,0,0,
0,0,0,0,0,0,0,0,0,0,0,0,0,5714,5761,0,0,0,0,0,5646,5647,0,0,0,0,0,5730,0,5662,5663,0,5646,5647,5712,0,0,0,0,0,0,0,0,0,0,0,0,0,
0,0,0,0,0,0,0,0,0,0,0,0,0,5738,5615,5761,0,0,0,0,5670,5671,0,0,0,0,0,5662,5663,5686,5687,0,5670,5671,5712,0,0,0,0,0,0,0,0,0,0,0,0,0,
0,0,0,0,0,0,0,0,0,0,0,0,0,5638,5639,0,0,0,0,0,0,0,0,0,0,0,0,5686,5687,0,0,0,5744,5745,5736,0,0,0,0,0,0,0,0,0,0,0,0,0,
0,0,0,0,0,0,0,0,0,0,0,0,0,0,0,0,0,0,0,0,0,0,0,0,0,0,0,0,0,0,0,0,0,0,0,0,0,0,0,0,0,0,0,0,0,0,0,0,
0,0,0,0,0,0,0,0,0,0,0,0,0,0,0,0,0,0,0,0,0,0,0,0,0,0,0,0,0,0,0,0,0,0,0,0,0,0,0,0,0,0,0,0,0,0,0,0,
0,0,0,0,0,0,0,0,0,0,0,0,0,0,0,0,0,0,0,0,0,0,0,0,0,0,0,0,0,0,0,0,0,0,0,0,0,0,0,0,0,0,0,0,0,0,0,0,
0,0,0,0,0,0,0,0,0,0,0,0,0,0,0,0,0,0,0,0,0,0,0,0,0,0,0,0,0,0,0,0,0,0,0,0,0,0,0,0,0,0,0,0,0,0,0,0,
0,0,0,0,0,0,0,0,0,0,0,0,0,0,0,0,0,0,0,0,0,0,0,0,0,0,0,0,0,0,0,0,0,0,0,0,0,0,0,0,0,0,0,0,0,0,0,0,
0,0,0,0,0,0,0,0,0,0,0,0,0,5662,5663,0,0,0,0,0,0,0,0,0,0,0,0,0,0,0,0,0,0,0,0,0,0,0,0,0,0,0,0,0,0,0,0,0,
0,0,0,0,0,0,0,0,0,0,0,0,0,5686,5687,0,0,0,0,0,0,0,0,0,0,0,0,0,0,0,0,0,0,0,0,0,0,0,0,0,0,0,0,0,0,0,0,0,
0,0,0,0,0,0,0,0,0,0,0,0,0,0,0,0,0,0,0,0,0,0,0,0,0,0,0,0,0,0,0,0,0,0,0,0,0,0,0,0,0,0,0,0,0,0,0,0,
0,0,0,0,0,0,0,0,0,0,0,0,0,0,0,5658,0,0,0,0,0,0,0,0,0,0,0,0,0,0,0,0,0,0,0,0,0,0,0,0,0,0,0,0,0,0,0,0,
0,0,0,0,0,0,0,0,0,0,0,0,0,0,0,0,0,0,0,0,0,0,0,0,0,0,0,0,0,0,0,0,0,0,0,0,0,0,0,0,0,0,0,0,0,0,0,0,
0,0,0,0,0,0,0,0,0,0,0,0,0,0,0,0,0,0,0,0,0,0,0,0,0,0,0,0,0,0,0,0,0,0,0,0,0,0,0,0,0,0,0,0,0,0,0,0,
0,0,0,0,0,0,0,0,0,0,0,0,0,0,0,0,0,0,5713,0,0,0,0,0,0,0,0,0,0,0,0,5753,0,0,0,0,0,0,0,0,0,0,0,0,0,0,0,0,
0,0,0,0,0,0,0,0,0,0,0,0,0,0,0,0,0,0,5737,0,0,0,0,0,0,0,0,0,0,0,0,5777,0,0,0,0,5694,5695,0,0,5712,5712,0,0,0,0,0,0,
0,0,0,0,0,0,0,0,0,0,0,0,0,0,0,0,0,0,0,0,0,0,0,0,0,0,0,0,0,0,0,0,0,5707,5708,0,5718,5719,0,0,5736,5736,0,0,0,0,0,0,
0,0,0,0,0,0,0,0,0,0,0,0,5694,5695,5263,0,0,5705,0,0,0,0,0,0,0,0,5720,5721,0,5702,5703,0,0,5731,5732,0,0,0,0,0,0,0,0,0,0,0,0,0,
0,0,0,0,0,0,0,0,0,0,0,0,5718,5719,5274,0,0,5729,0,0,0,0,2147489321,2147489320,0,0,5744,5745,0,5726,5727,0,0,0,0,0,0,0,0,0,0,5694,5695,0,0,0,0,0,
0,0,0,0,0,0,0,0,0,0,0,0,0,0,0,0,0,0,0,0,0,0,2147489345,2147489344,0,0,0,0,0,0,0,0,0,0,0,0,0,0,0,0,0,5718,5719,0,0,0,0,0,
0,0,0,0,0,0,0,0,0,0,0,0,0,0,0,0,0,0,0,0,0,0,0,0,0,0,0,0,0,0,0,0,0,0,0,0,0,0,0,0,0,0,0,0,0,0,0,0,
0,0,0,0,0,0,0,0,0,0,0,0,0,0,0,0,0,0,0,0,0,0,0,0,0,0,0,0,0,0,0,0,0,0,0,0,5624,5625,5694,5695,0,0,0,0,0,0,0,0,
0,0,0,0,0,0,0,0,0,0,0,0,0,0,0,0,0,0,0,0,0,0,0,0,0,0,0,0,0,0,0,0,0,0,0,0,5648,5649,5718,5719,0,0,0,0,0,0,0,0,
0,0,0,0,0,0,0,0,0,0,5748,5749,0,0,0,0,0,0,0,0,5712,0,0,0,0,0,0,0,5753,0,0,0,0,0,0,0,0,0,0,0,0,0,0,0,0,0,0,0,
0,0,0,0,0,0,0,0,0,0,5772,5711,0,0,0,0,0,0,0,0,5736,0,0,0,0,0,0,0,5777,0,0,0,0,0,0,0,0,0,0,0,0,0,0,0,0,0,0,0,
0,0,0,0,0,0,0,0,0,0,0,5735,0,0,0,0,0,0,0,0,0,0,0,0,0,0,0,0,0,0,0,0,0,0,0,0,0,0,0,0,0,0,0,0,0,0,0,0,
0,0,0,0,0,0,0,0,0,0,0,0,0,0,0,0,0,0,0,0,0,0,0,0,0,0,0,0,0,0,0,5751,5752,0,0,0,0,0,0,0,0,0,0,0,0,0,0,0,
0,0,0,0,0,0,0,0,0,0,0,0,0,0,0,5714,0,0,0,0,0,5707,5708,0,0,0,0,0,0,0,0,5775,5776,0,0,0,0,0,0,0,0,0,0,0,0,0,0,0,
0,0,0,0,0,0,0,0,0,0,0,0,0,0,0,5738,0,0,0,0,0,5731,5732,0,0,0,0,0,0,0,0,0,0,0,0,0,0,0,0,0,0,0,0,0,0,0,0,0,
0,0,0,0,0,0,0,0,0,0,0,0,0,0,0,0,0,0,0,0,0,0,0,0,0,0,0,0,0,0,0,0,0,0,0,0,0,0,0,0,0,0,0,0,0,0,0,0,
0,0,0,0,0,0,0,0,0,0,0,0,0,0,0,0,0,0,5711,0,0,0,0,0,0,0,0,0,0,0,0,0,0,0,0,0,0,0,0,0,0,0,0,0,0,0,0,0,
0,0,0,0,0,0,0,0,0,0,0,0,0,0,0,0,0,0,5735,0,0,0,0,0,0,0,0,0,0,0,0,0,0,0,0,0,0,0,0,0,0,0,0,0,0,0,0,0,
0,0,0,0,0,0,0,0,0,0,0,0,0,0,0,0,0,0,0,0,0,0,0,0,0,0,0,0,0,0,0,0,0,0,0,0,0,0,0,0,0,0,0,0,0,0,0,0,
0,0,0,0,0,0,0,0,0,0,0,0,0,0,0,0,0,0,0,0,0,0,0,0,0,0,0,0,0,0,0,0,0,0,0,0,0,0,0,0,0,0,0,0,0,0,0,0,
0,0,0,0,0,0,0,0,0,0,0,0,0,0,0,0,0,0,0,0,0,0,0,0,0,0,0,0,0,0,0,0,0,0,0,0,0,0,0,0,0,0,0,0,0,0,0,0,
0,0,0,0,0,0,0,0,0,0,0,0,0,0,0,0,0,0,0,0,0,0,0,0,0,0,0,0,0,0,0,0,0,0,0,0,0,0,0,0,0,0,0,0,0,0,0,0,
0,0,0,0,0,0,0,0,0,0,0,0,0,0,0,0,0,0,0,0,0,0,0,0,0,0,0,0,0,0,0,0,0,0,0,0,0,0,0,0,0,0,0,0,0,0,0,0,
0,0,0,0,0,0,0,0,0,0,0,0,0,0,0,0,0,0,0,0,0,0,0,0,0,0,0,0,0,0,0,0,0,0,0,0,0,0,0,0,0,0,0,0,0,0,0,0,
0,0,0,0,0,0,0,0,0,0,0,0,0,0,0,0,0,0,0,0,0,0,0,0,0,0,0,0,0,0,0,0,0,0,0,0,0,0,0,0,0,0,0,0,0,0,0,0,
0,0,0,0,0,0,0,0,0,0,0,0,0,0,0,0,0,0,0,0,0,0,0,0,0,0,0,0,0,0,0,0,0,0,0,0,0,0,0,0,0,0,0,0,0,0,0,0
</data>
 </layer>
 <layer id="31" name="Objects2" width="48" height="48">
  <data encoding="csv">
0,0,0,0,0,0,0,0,0,0,0,0,0,0,0,0,0,0,0,0,0,0,0,0,0,0,0,0,0,0,0,0,0,0,0,0,0,0,0,0,0,0,0,0,0,0,0,0,
0,0,0,0,0,0,0,0,0,0,0,0,0,0,0,0,0,0,0,0,0,0,0,0,0,0,0,0,0,0,0,0,0,0,0,0,0,0,0,0,0,0,0,0,0,0,0,0,
0,0,0,0,0,0,0,0,0,0,0,0,0,0,0,0,0,0,0,0,0,0,0,0,0,0,0,0,0,0,0,0,0,0,0,0,0,0,0,0,0,0,0,0,0,0,0,0,
0,0,0,0,0,0,0,0,0,0,0,0,0,0,0,0,0,0,0,0,0,0,0,0,0,0,0,0,0,0,0,0,0,0,0,0,0,0,0,0,0,0,0,0,0,0,0,0,
0,0,0,0,0,0,0,0,0,0,0,0,0,0,0,0,0,0,0,0,0,0,0,0,0,0,0,0,0,0,0,0,0,0,0,0,0,0,0,0,0,0,0,0,0,0,0,0,
0,0,0,0,0,0,0,0,0,0,0,0,0,0,0,0,0,0,0,0,0,0,0,0,0,0,0,0,0,0,0,0,0,5753,0,0,0,0,0,0,0,0,0,0,0,0,0,0,
0,0,0,0,0,0,0,0,0,0,0,0,0,5711,5711,0,0,0,0,0,5662,5663,5622,5623,0,0,0,0,0,0,0,0,0,0,0,0,0,0,0,0,0,0,0,0,0,0,0,0,
0,0,0,0,0,0,0,0,0,0,0,0,0,5735,5735,0,0,0,0,0,5686,5687,5646,5647,0,0,0,0,0,0,0,0,0,0,0,0,0,0,0,0,0,0,0,0,0,0,0,0,
0,0,0,0,0,0,0,0,0,0,0,0,0,0,0,0,0,0,0,0,0,0,5670,5671,0,0,0,0,0,0,0,0,0,0,0,0,0,0,0,0,0,0,0,0,0,0,0,0,
0,0,0,0,0,0,0,0,0,0,0,0,0,5614,5615,0,0,0,0,0,0,0,0,0,0,0,0,0,0,0,0,0,5720,5721,0,0,0,0,0,0,0,0,0,0,0,0,0,0,
0,0,0,0,0,0,0,0,0,0,0,0,0,5638,5639,0,0,0,0,0,0,0,0,0,0,0,0,0,0,0,0,0,5744,5745,0,0,0,0,0,0,0,0,0,0,0,0,0,0,
0,0,0,0,0,0,0,0,0,0,0,0,0,0,0,0,0,0,0,0,0,0,0,0,0,0,0,0,0,0,0,0,0,0,0,0,0,0,0,0,0,0,0,0,0,0,0,0,
0,0,0,0,0,0,0,0,0,0,0,0,0,0,0,0,0,0,0,0,0,0,0,0,0,0,0,0,0,0,0,0,0,0,0,0,0,0,0,0,0,0,0,0,0,0,0,0,
0,0,0,0,0,0,0,0,0,0,0,0,0,0,0,0,0,0,0,0,0,0,5706,5706,5706,0,0,0,0,0,0,0,0,0,0,0,0,0,0,0,0,0,0,0,0,0,0,0,
0,0,0,0,0,0,0,0,0,0,0,0,0,0,0,0,0,0,0,0,0,0,5730,5730,5730,0,0,0,0,0,0,0,0,0,0,0,0,0,0,0,0,0,0,0,0,0,0,0,
0,0,0,0,0,0,0,0,0,0,0,0,0,0,0,5748,5749,0,0,0,0,0,5178,5179,5180,0,0,0,0,0,0,0,0,0,0,0,0,0,0,0,0,0,0,0,0,0,0,0,
0,0,0,0,0,0,0,0,0,0,0,0,0,0,0,5772,5773,0,0,0,0,0,5189,5190,5191,0,0,0,0,0,0,0,0,0,0,0,0,0,0,0,0,0,0,0,0,0,0,0,
0,0,0,0,0,0,0,0,0,0,0,0,0,0,0,5759,0,0,0,0,0,0,0,0,0,0,0,0,0,0,0,0,0,0,0,0,0,0,0,0,0,0,0,0,0,0,0,0,
0,0,0,0,0,0,0,0,0,0,0,0,0,0,0,0,0,0,0,0,0,0,0,0,0,0,0,0,0,0,0,0,0,0,0,0,0,0,0,0,0,0,0,0,0,0,0,0,
0,0,0,0,0,0,0,0,0,0,0,0,0,0,0,0,0,0,0,0,0,0,0,0,0,0,0,0,0,0,0,0,0,0,0,0,0,0,0,0,0,0,0,0,0,0,0,0,
0,0,0,0,0,0,0,0,0,0,0,0,0,0,0,0,0,0,0,0,0,0,0,0,0,0,0,0,0,0,0,0,0,0,0,0,0,0,0,0,0,0,0,0,0,0,0,0,
0,0,0,0,0,0,0,0,0,0,0,0,0,0,0,0,0,0,0,0,0,0,0,0,0,0,0,0,0,0,0,0,0,0,0,0,0,0,0,0,0,0,0,0,0,0,0,0,
0,0,0,0,0,0,0,0,0,0,0,0,0,0,0,0,0,0,0,0,0,0,0,0,0,0,0,0,0,0,0,0,0,0,0,0,0,0,0,0,0,0,0,0,0,0,0,0,
0,0,0,0,0,0,0,0,0,0,0,0,5748,5749,0,0,0,0,0,0,0,0,0,0,0,0,0,0,0,0,0,0,5707,5708,5707,5708,5717,0,0,5716,0,0,0,0,0,0,0,0,
0,0,0,0,0,0,0,0,0,0,0,5704,5772,5773,0,5667,0,0,0,0,0,0,0,0,0,0,0,0,0,0,0,0,5731,5732,5731,5732,5741,0,0,5740,0,5716,0,0,0,0,0,0,
0,0,0,0,0,0,0,0,0,0,0,5728,0,0,0,0,0,0,0,0,0,0,0,0,0,0,0,0,0,0,0,0,0,0,0,0,0,0,0,0,0,5740,0,0,0,0,0,0,
0,0,0,0,0,0,0,0,0,0,0,0,0,0,0,0,0,0,0,0,0,0,0,0,0,0,0,0,0,0,0,0,0,0,0,0,0,5612,5613,0,0,0,0,0,0,0,0,0,
0,0,0,0,0,0,0,0,0,0,0,0,0,0,0,0,0,0,0,0,0,0,0,0,0,0,0,0,0,0,0,0,0,0,0,0,0,5636,5637,0,0,0,0,0,0,0,0,0,
0,0,0,0,0,0,0,0,0,0,0,0,0,0,0,0,0,0,0,0,0,0,0,0,0,0,0,0,0,0,0,0,0,0,0,5622,5623,0,0,0,0,5620,5621,0,0,0,0,0,
0,0,0,0,0,0,0,0,0,0,0,0,0,0,0,0,0,0,0,0,0,0,0,0,0,0,0,0,0,0,0,0,0,0,0,5646,5647,0,0,0,0,5644,5645,0,0,0,0,0,
0,0,0,0,0,0,0,0,0,0,0,0,0,0,0,0,0,0,0,0,0,0,0,0,0,0,0,0,0,0,0,0,0,0,0,5670,5671,0,0,0,0,5668,5669,0,0,0,0,0,
0,0,0,0,0,0,0,0,0,0,0,0,0,0,0,0,0,0,0,0,0,0,0,0,0,0,0,0,0,0,0,0,0,0,0,0,0,0,0,0,0,0,0,0,0,0,0,0,
0,0,0,0,0,0,0,0,0,0,0,0,0,0,0,0,0,0,0,0,0,0,0,0,0,0,0,0,0,0,0,0,0,0,0,0,0,0,0,0,0,0,0,0,0,0,0,0,
0,0,0,0,0,0,0,0,0,0,0,0,0,0,5748,5749,0,0,0,0,0,0,0,0,0,0,0,0,0,0,5748,5749,0,0,0,0,0,0,0,0,0,0,0,0,0,0,0,0,
0,0,0,0,0,0,0,0,0,0,0,0,0,0,5772,5773,0,0,0,0,0,0,0,0,0,0,0,0,0,0,5772,5773,0,0,0,0,0,0,0,0,0,0,0,0,0,0,0,0,
0,0,0,0,0,0,0,0,0,0,0,0,0,0,0,0,0,0,0,0,0,0,0,0,0,0,0,0,0,0,0,0,0,0,0,0,0,0,0,0,0,0,0,0,0,0,0,0,
0,0,0,0,0,0,0,0,0,0,0,0,0,0,0,0,0,5748,5749,0,0,0,0,0,0,0,0,0,0,0,0,0,0,0,0,0,0,0,0,0,0,0,0,0,0,0,0,0,
0,0,0,0,0,0,0,0,0,0,0,0,0,0,0,0,0,5772,5773,0,0,0,0,0,0,0,0,0,0,0,0,0,0,0,0,0,0,0,0,0,0,0,0,0,0,0,0,0,
0,0,0,0,0,0,0,0,0,0,0,0,0,0,0,0,0,0,0,0,0,0,0,5748,5749,0,0,0,0,0,0,0,0,0,0,0,0,0,0,0,0,0,0,0,0,0,0,0,
0,0,0,0,0,0,0,0,0,0,0,0,0,0,0,0,0,0,0,0,0,0,0,5772,5773,0,0,0,0,0,0,0,0,0,0,0,0,0,0,0,0,0,0,0,0,0,0,0,
0,0,0,0,0,0,0,0,0,0,0,0,0,0,0,0,0,0,0,0,0,0,0,0,0,0,0,0,0,0,0,0,0,0,0,0,0,0,0,0,0,0,0,0,0,0,0,0,
0,0,0,0,0,0,0,0,0,0,0,0,0,0,0,0,0,0,0,0,0,0,0,0,0,0,0,0,0,0,0,0,0,0,0,0,0,0,0,0,0,0,0,0,0,0,0,0,
0,0,0,0,0,0,0,0,0,0,0,0,0,0,0,0,0,0,0,0,0,0,0,0,0,0,0,0,0,0,0,0,0,0,0,0,0,0,0,0,0,0,0,0,0,0,0,0,
0,0,0,0,0,0,0,0,0,0,0,0,0,0,5748,5749,0,0,0,0,0,0,0,0,0,0,0,0,0,0,0,0,0,0,0,0,0,0,0,0,0,0,0,0,0,0,0,0,
0,0,0,0,0,0,0,0,0,0,0,0,0,0,5772,5773,0,0,0,0,0,0,0,0,0,0,0,0,0,0,0,0,0,0,0,0,0,0,0,0,0,0,0,0,0,0,0,0,
0,0,0,0,0,0,0,0,0,0,0,0,0,0,0,0,0,0,0,0,0,0,0,0,0,0,0,0,0,0,0,0,0,0,0,0,0,0,0,0,0,0,0,0,0,0,0,0,
0,0,0,0,0,0,0,0,0,0,0,0,0,0,0,0,0,0,0,0,0,0,0,0,0,0,0,0,0,0,0,0,0,0,0,0,0,0,0,0,0,0,0,0,0,0,0,0,
0,0,0,0,0,0,0,0,0,0,0,0,0,0,0,0,0,0,0,0,0,0,0,0,0,0,0,0,0,0,0,0,0,0,0,0,0,0,0,0,0,0,0,0,0,0,0,0
</data>
 </layer>
 <objectgroup id="35" name="collisions">
  <object id="1" x="161" y="47.667" width="29.6667" height="152.333"/>
  <object id="2" x="195.333" y="304.333" width="44.6667" height="11.6667"/>
  <object id="3" x="292" y="320" width="15.6667" height="13"/>
  <object id="4" x="317.833" y="319.333" width="15.6667" height="14.3334"/>
  <object id="5" x="355.667" y="271.333" width="56.6667" height="13.3333"/>
  <object id="7" x="269.667" y="243.667" width="21" height="25.6667"/>
  <object id="8" x="317.667" y="243.333" width="34.6667" height="25.6667"/>
  <object id="9" x="173.333" y="468.667" width="86.1667" height="37"/>
  <object id="10" x="153.667" y="492.333" height="0.666667"/>
  <object id="11" x="291.333" y="449.333" width="24.6667" height="62.3333"/>
  <object id="12" x="347" y="404.667" width="41" height="34.6667"/>
  <object id="13" x="403" y="529" width="42.3333" height="63.3333"/>
  <object id="14" x="435.333" y="478.667" width="22" height="41.6667"/>
  <object id="15" x="515" y="434" width="26.3333" height="124"/>
  <object id="16" x="434.333" y="289.667" width="81" height="81.6667"/>
  <object id="17" x="401" y="343" height="0.333333"/>
  <object id="18" x="516" y="87" height="0.333333"/>
  <object id="19" x="190.667" y="67.667" width="371.333" height="35.6667"/>
  <object id="20" x="387" y="81.333" width="42" height="59.3333"/>
  <object id="21" x="563.333" y="48" width="26.6667" height="148.333"/>
  <object id="22" x="458" y="476.667" width="56.3333" height="50.3333"/>
  <object id="24" x="435.667" y="433" width="79.6667" height="53"/>
  <object id="26" x="386.667" y="449" width="48.6667" height="24.6667"/>
  <object id="28" x="316.667" y="404" width="9.33333" height="36"/>
  <object id="29" x="284.75" y="467.667" width="5.58333" height="36.6667"/>
  <object id="30" x="516.333" y="194.333" width="27.6667" height="174"/>
  <object id="31" x="370.667" y="306.333" width="61.6667" height="50"/>
  <object id="32" x="452.333" y="195.667" width="8.33333" height="93.6667"/>
  <object id="33" x="460" y="197" width="54.3333" height="27"/>
  <object id="34" x="276.667" y="139.667" width="8.33333" height="72.3333"/>
  <object id="35" x="308.333" y="396.333" width="8" height="53.0909"/>
  <object id="36" x="156" y="491.333" width="1" height="0.333333"/>
  <object id="37" x="130.667" y="448.333" width="42.3333" height="70.3333"/>
  <object id="38" x="162.333" y="448.667" width="106.333" height="11.0606"/>
  <object id="39" x="386" y="474.333" width="49.3333" height="34.6667"/>
  <object id="41" x="-14" y="-1.333" width="143.333" height="768.667"/>
  <object id="42" x="131.333" y="0" width="30" height="446"/>
  <object id="43" x="163.333" y="0.667" width="587.333" height="45.3333"/>
  <object id="44" x="686" y="46" width="66" height="722"/>
  <object id="45" x="478.667" y="610" width="206.667" height="158"/>
  <object id="46" x="255.333" y="644" width="223.375" height="124"/>
  <object id="47" x="130.667" y="519.333" width="32.6667" height="248.667"/>
  <object id="48" x="162" y="544" width="64" height="224"/>
  <object id="49" x="226" y="718" width="28.6667" height="50"/>
  <object id="50" x="255.333" y="562.667" width="18.6667" height="78.6667"/>
  <object id="51" x="275.333" y="562.667" width="94.6667" height="12.6667"/>
  <object id="52" x="359.333" y="552"/>
  <object id="53" x="350" y="478" width="21.3333" height="35.3333"/>
  <object id="54" x="371.515" y="478.424" width="14" height="17.8182"/>
  <object id="55" x="396" y="348.667" width="24.6667" height="100"/>
  <object id="56" x="301.636" y="352" width="93.6969" height="32"/>
  <object id="57" x="350.242" y="384.667" width="45.7576" height="31.3333"/>
  <object id="58" x="418.667" y="356" width="95.8788" height="42.6667"/>
  <object id="59" x="349.333" y="318" width="20" height="34.6667"/>
  <object id="60" x="158.667" y="350" width="82.6667" height="17.3333"/>
  <object id="61" x="164" y="199.333" width="12.6667" height="150"/>
  <object id="62" x="178" y="201.333" width="14" height="52.6667"/>
  <object id="63" x="192.667" y="207.333" width="98" height="35.3333"/>
  <object id="64" x="317.333" y="206" width="33.3333" height="36"/>
  <object id="65" x="349.333" y="190" width="102.667" height="18"/>
  <object id="66" x="454" y="190.667" width="110" height="6.66667"/>
  <object id="67" x="192.667" y="48" width="369.333" height="18"/>
  <object id="68" x="592" y="48.667" width="93.3333" height="318"/>
  <object id="69" x="544" y="195.333" width="45.3333" height="172"/>
  <object id="70" x="443.333" y="399.333" width="28.9091" height="16.6667"/>
  <object id="71" x="489.576" y="399.333" width="24.7878" height="17.1515"/>
  <object id="72" x="542.667" y="448" width="18.6667" height="128"/>
  <object id="74" x="255.333" y="306" width="13.3333" height="11.3333"/>
  <object id="77" x="598.697" y="420.515" width="19.6969" height="15.3333"/>
  <object id="78" x="564.152" y="466.879" width="12.606" height="19.6969"/>
  <object id="79" x="569.152" y="454.152" width="9.15145" height="14.7878"/>
  <object id="80" x="574.97" y="458.879" width="13.5151" height="23.5151"/>
  <object id="81" x="588.788" y="464.879" width="12.606" height="20.0605"/>
  <object id="82" x="585.697" y="473.788" width="8.96964" height="14.9696"/>
  <object id="83" x="621.697" y="464.697" width="12.606" height="20.0605"/>
  <object id="84" x="668.606" y="465.242" width="12.606" height="20.0605"/>
  <object id="85" x="659.97" y="459.152" width="14.9696" height="23.5151"/>
  <object id="86" x="613.636" y="470.182" width="12.3636" height="11.0909">
   <ellipse/>
  </object>
  <object id="87" x="623.091" y="481.455" width="0.363636" height="0.181818"/>
  <object id="88" x="613.455" y="476.545" width="12.9091" height="10.5455"/>
  <object id="89" x="614" y="481.818" width="12" height="9.27273">
   <ellipse/>
  </object>
  <object id="90" x="630.182" y="484.545" width="6.90909" height="8.18182">
   <ellipse/>
  </object>
  <object id="91" x="629.184" y="485.298" width="6.90909" height="8.18182" rotation="267.037">
   <ellipse/>
  </object>
  <object id="92" x="678.863" y="436.805" width="6.90909" height="8.18182">
   <ellipse/>
  </object>
  <object id="93" x="677.865" y="437.558" width="6.90909" height="8.18182" rotation="267.037">
   <ellipse/>
  </object>
  <object id="94" x="598.681" y="388.987" width="6.90909" height="8.18182">
   <ellipse/>
  </object>
  <object id="95" x="597.683" y="389.74" width="6.90909" height="8.18182" rotation="267.037">
   <ellipse/>
  </object>
  <object id="96" x="659.954" y="393.714" width="6.90909" height="8.18182">
   <ellipse/>
  </object>
  <object id="97" x="660.592" y="395.376" width="6.90909" height="8.18182" rotation="267.037">
   <ellipse/>
  </object>
  <object id="98" x="643.226" y="375.533" width="10.1818" height="9.81818">
   <ellipse/>
  </object>
  <object id="99" x="627.501" y="377.558" width="6.90909" height="8.18182" rotation="267.037">
   <ellipse/>
  </object>
  <object id="100" x="630.909" y="376.636" width="6.90909" height="8.18182">
   <ellipse/>
  </object>
  <object id="101" x="644.182" y="376.273" width="6.90909" height="8.18182" rotation="267.037">
   <ellipse/>
  </object>
  <object id="102" x="658.727" y="375.091" width="10.1818" height="9.81818">
   <ellipse/>
  </object>
  <object id="103" x="659.683" y="375.831" width="6.90909" height="8.18182" rotation="267.037">
   <ellipse/>
  </object>
  <object id="104" x="537.636" y="389.818" width="14.9091" height="24.3636"/>
  <object id="105" x="520.909" y="373.636" width="14.9091" height="24.3636"/>
  <object id="106" x="553.091" y="373.455" width="14.9091" height="24.3636"/>
  <object id="107" x="669.455" y="416.909" width="13.4546" height="20"/>
  <object id="108" x="581.181" y="374.091" width="12.3636" height="11.0909">
   <ellipse/>
  </object>
  <object id="109" x="581" y="380.454" width="12.9091" height="10.5455"/>
  <object id="110" x="581.545" y="385.727" width="12" height="9.27273">
   <ellipse/>
  </object>
  <object id="111" x="661.545" y="422.818" width="12.3636" height="11.0909">
   <ellipse/>
  </object>
  <object id="112" x="661.364" y="429.181" width="12.9091" height="10.5455"/>
  <object id="113" x="661.909" y="434.454" width="12" height="9.27273">
   <ellipse/>
  </object>
  <object id="114" x="591.636" y="368.182" width="13.4546" height="20"/>
  <object id="115" x="472" y="399.273" width="16.5455" height="33.6364"/>
  <object id="116" x="423.181" y="400.637" width="12.3636" height="11.0909">
   <ellipse/>
  </object>
  <object id="117" x="423" y="407" width="12.9091" height="10.5455"/>
  <object id="118" x="423.545" y="412.273" width="12" height="9.27273">
   <ellipse/>
  </object>
  <object id="119" x="431.455" y="411.818" width="10.1818" height="14.7273"/>
  <object id="120" x="356.817" y="426.091" width="12.3636" height="11.0909">
   <ellipse/>
  </object>
  <object id="121" x="356.636" y="432.454" width="12.9091" height="10.5455"/>
  <object id="122" x="357.181" y="437.727" width="12" height="9.27273">
   <ellipse/>
  </object>
  <object id="123" x="376" y="439.091" width="7.27273" height="7.81818">
   <ellipse/>
  </object>
  <object id="124" x="322.727" y="501.636" width="10.1818" height="12">
   <ellipse/>
  </object>
  <object id="125" x="323.818" y="496" width="9.09091" height="6">
   <ellipse/>
  </object>
  <object id="126" x="177.636" y="511" width="10.1818" height="12">
   <ellipse/>
  </object>
  <object id="127" x="178.727" y="505.364" width="9.09091" height="6">
   <ellipse/>
  </object>
  <object id="128" x="168.182" y="506.273" width="10.1818" height="12">
   <ellipse/>
  </object>
  <object id="129" x="169.273" y="500.637" width="9.09091" height="6">
   <ellipse/>
  </object>
  <object id="130" x="177.454" y="513.182" width="12.3636" height="11.0909">
   <ellipse/>
  </object>
  <object id="131" x="177.273" y="519.545" width="12.9091" height="10.5455"/>
  <object id="132" x="177.818" y="524.818" width="12" height="9.27273">
   <ellipse/>
  </object>
  <object id="133" x="289.726" y="610.046" width="12.3636" height="11.0909">
   <ellipse/>
  </object>
  <object id="134" x="289.545" y="616.409" width="12.9091" height="10.5455"/>
  <object id="135" x="290.09" y="621.682" width="12" height="9.27273">
   <ellipse/>
  </object>
  <object id="136" x="235.409" y="534.068" width="10.1818" height="12">
   <ellipse/>
  </object>
  <object id="137" x="236.5" y="528.432" width="9.09091" height="6">
   <ellipse/>
  </object>
  <object id="138" x="240.159" y="537.318" width="10.1818" height="12">
   <ellipse/>
  </object>
  <object id="139" x="232.676" y="550.646" width="9.09091" height="6" rotation="271.517">
   <ellipse/>
  </object>
  <object id="140" x="284.401" y="582.029" width="10.1818" height="12">
   <ellipse/>
  </object>
  <object id="141" x="285.492" y="576.393" width="9.09091" height="6">
   <ellipse/>
  </object>
  <object id="142" x="289.151" y="585.279" width="10.1818" height="12">
   <ellipse/>
  </object>
  <object id="143" x="280.168" y="597.107" width="9.09091" height="6" rotation="271.517">
   <ellipse/>
  </object>
  <object id="144" x="244.955" y="576.25" width="9.09091" height="6" rotation="271.517">
   <ellipse/>
  </object>
  <object id="145" x="376.205" y="629.25" width="9.09091" height="6" rotation="271.517">
   <ellipse/>
  </object>
  <object id="146" x="385.909" y="617.5" width="10.1818" height="12">
   <ellipse/>
  </object>
  <object id="147" x="379.409" y="613.068" width="10.1818" height="12">
   <ellipse/>
  </object>
  <object id="148" x="380.5" y="607.432" width="9.09091" height="6">
   <ellipse/>
  </object>
  <object id="149" x="488.557" y="549.909" width="9.09091" height="6" rotation="271.517">
   <ellipse/>
  </object>
  <object id="150" x="498.261" y="538.159" width="10.1818" height="12">
   <ellipse/>
  </object>
  <object id="151" x="491.761" y="533.727" width="10.1818" height="12">
   <ellipse/>
  </object>
  <object id="152" x="492.852" y="528.091" width="9.09091" height="6">
   <ellipse/>
  </object>
  <object id="153" x="496.909" y="549.25" width="10.1818" height="12">
   <ellipse/>
  </object>
  <object id="154" x="501.409" y="553.5" width="10.1818" height="12">
   <ellipse/>
  </object>
  <object id="155" x="559" y="495.75" width="127.25" height="114"/>
  <object id="156" x="413.5" y="628.5" width="64.875" height="15.5"/>
  <object id="157" x="203.651" y="374.279" width="10.1818" height="12">
   <ellipse/>
  </object>
  <object id="158" x="204.742" y="368.643" width="9.09091" height="6">
   <ellipse/>
  </object>
  <object id="159" x="208.401" y="377.529" width="10.1818" height="12">
   <ellipse/>
  </object>
  <object id="160" x="200.918" y="390.857" width="9.09091" height="6" rotation="271.517">
   <ellipse/>
  </object>
  <object id="161" x="251.151" y="245.029" width="10.1818" height="12">
   <ellipse/>
  </object>
  <object id="162" x="252.242" y="239.393" width="9.09091" height="6">
   <ellipse/>
  </object>
  <object id="163" x="255.901" y="248.279" width="10.1818" height="12">
   <ellipse/>
  </object>
  <object id="164" x="248.418" y="261.607" width="9.09091" height="6" rotation="271.517">
   <ellipse/>
  </object>
  <object id="165" x="290.659" y="355" width="10.1818" height="15">
   <ellipse/>
  </object>
  <object id="166" x="385.726" y="209.296" width="12.3636" height="11.0909">
   <ellipse/>
  </object>
  <object id="167" x="385.545" y="215.659" width="12.9091" height="10.5455"/>
  <object id="168" x="386.09" y="220.932" width="12" height="9.27273">
   <ellipse/>
  </object>
  <object id="169" x="369.976" y="209.296" width="12.3636" height="11.0909">
   <ellipse/>
  </object>
  <object id="170" x="369.795" y="215.659" width="12.9091" height="10.5455"/>
  <object id="171" x="370.34" y="220.932" width="12" height="9.27273">
   <ellipse/>
  </object>
  <object id="172" x="353.976" y="210.046" width="12.3636" height="11.0909">
   <ellipse/>
  </object>
  <object id="173" x="353.795" y="216.409" width="12.9091" height="10.5455"/>
  <object id="174" x="354.34" y="221.682" width="12" height="9.27273">
   <ellipse/>
  </object>
  <object id="175" x="433.726" y="113.046" width="12.3636" height="11.0909">
   <ellipse/>
  </object>
  <object id="176" x="433.545" y="119.409" width="12.9091" height="10.5455"/>
  <object id="177" x="434.09" y="124.682" width="12" height="9.27273">
   <ellipse/>
  </object>
  <object id="178" x="518.226" y="146.046" width="12.3636" height="11.0909">
   <ellipse/>
  </object>
  <object id="179" x="518.045" y="152.409" width="12.9091" height="10.5455"/>
  <object id="180" x="518.59" y="157.682" width="12" height="9.27273">
   <ellipse/>
  </object>
  <object id="181" x="497.726" y="96.7956" width="12.3636" height="11.0909">
   <ellipse/>
  </object>
  <object id="182" x="497.545" y="103.159" width="12.9091" height="10.5455"/>
  <object id="183" x="498.09" y="108.432" width="12" height="9.27273">
   <ellipse/>
  </object>
  <object id="184" x="209.976" y="97.7956" width="12.3636" height="11.0909">
   <ellipse/>
  </object>
  <object id="185" x="209.795" y="104.159" width="12.9091" height="10.5455"/>
  <object id="186" x="210.34" y="109.432" width="12" height="9.27273">
   <ellipse/>
  </object>
  <object id="187" x="225.226" y="96.5456" width="12.3636" height="11.0909">
   <ellipse/>
  </object>
  <object id="188" x="225.045" y="102.909" width="12.9091" height="10.5455"/>
  <object id="189" x="225.59" y="108.182" width="12" height="9.27273">
   <ellipse/>
  </object>
  <object id="190" x="196.976" y="406.796" width="12.3636" height="11.0909">
   <ellipse/>
  </object>
  <object id="191" x="196.795" y="413.159" width="12.9091" height="10.5455"/>
  <object id="192" x="197.34" y="418.432" width="12" height="9.27273">
   <ellipse/>
  </object>
  <object id="193" x="179.25" y="387.5" width="11" height="15"/>
  <object id="194" x="206" y="401.25" width="13" height="18.5"/>
  <object id="195" x="212.909" y="415.75" width="10.1818" height="12">
   <ellipse/>
  </object>
  <object id="196" x="273.75" y="401.25" width="13" height="18.5"/>
  <object id="197" x="234.901" y="693.461" width="10.1818" height="12">
   <ellipse/>
  </object>
  <object id="198" x="239.651" y="696.711" width="10.1818" height="12">
   <ellipse/>
  </object>
  <object id="199" x="232.168" y="710.039" width="9.09091" height="6" rotation="271.517">
   <ellipse/>
  </object>
  <object id="200" x="235.955" y="687.25" width="9.09091" height="6">
   <ellipse/>
  </object>
  <object id="201" x="328.5" y="123.25" width="19.25" height="23.5"/>
  <object id="202" x="328.75" y="118" width="9.25" height="11.25"/>
  <object id="203" x="324.625" y="130.875" width="12" height="19.25"/>
  <object id="204" x="359.813" y="107.438" width="19.25" height="23.5"/>
  <object id="205" x="360.063" y="102.188" width="9.25" height="11.25"/>
  <object id="206" x="355.938" y="115.063" width="12" height="19.25"/>
  <object id="207" x="519.813" y="122.688" width="19.25" height="23.5"/>
  <object id="208" x="520.063" y="117.438" width="9.25" height="11.25"/>
  <object id="209" x="515.938" y="130.313" width="12" height="19.25"/>
  <object id="210" x="481.75" y="97.25" width="12.25" height="19.75"/>
  <object id="211" x="465.375" y="96.625" width="12.25" height="19.75"/>
  <object id="212" x="450.125" y="97.375" width="12.25" height="19.75"/>
  <object id="213" x="433.625" y="97.125" width="12.25" height="19.75"/>
  <object id="214" x="526.75" y="155.75" width="10.75" height="14.25"/>
  <object id="215" x="546.409" y="114" width="10.1818" height="15">
   <ellipse/>
  </object>
  <object id="216" x="547.159" y="128.75" width="10.1818" height="15">
   <ellipse/>
  </object>
  <object id="217" x="547.409" y="144.75" width="10.1818" height="15">
   <ellipse/>
  </object>
  <object id="218" x="471.75" y="132.75" width="17" height="14.5"/>
  <object id="219" x="440.25" y="148.75" width="17" height="14.5"/>
  <object id="220" x="328" y="102.25" width="17" height="14.5"/>
  <object id="221" x="216" y="151.25" width="17" height="13.25"/>
  <object id="222" x="215.75" y="261.75" width="17" height="14.5"/>
  <object id="223" x="344" y="575.25" width="17" height="14.5"/>
  <object id="224" x="367.25" y="243.5" width="13.25" height="12.25">
   <ellipse/>
  </object>
  <object id="225" x="303.125" y="293.375" width="17.25" height="12.25">
   <ellipse/>
  </object>
 </objectgroup>
</map>
